(G-CODE GENERATED BY FLATCAM v8.994 - www.flatcam.org - Version Date: 2020/11/7)

(Name: Combo_Gerber_mt_paint_cnc)
(Type: G-code from Geometry)
(Units: MM)

(Created on Friday, 23 May 2025 at 19:16)

(This preprocessor is used with a motion controller loaded with GRBL firmware. )
(It is for the case when it is used together with a LASER connected on the SPINDLE connector.)

(Feedrate: 120.0 mm/min)
(Feedrate rapids: 1500.0 mm/min)

(Z Focus: 2.0 mm)
(Steps per circle: 64)
(Preprocessor Geometry: GRBL_laser)

(X range:  128.4802 ...  178.1450  mm)
(Y range: -118.6198 ...  -74.4802  mm)

(Laser Power - Spindle Speed: 1000.0)

G21
G90
G17
G94

G01 F120.00

M5
G01 F120.00
G00 X130.9222 Y-77.0510
G01 F60.00
M03 S1000.0
G01 F120.00
G01 X133.2778 Y-77.0510 F120.00
G01 X133.2928 Y-77.0990 F120.00
G01 X130.9072 Y-77.0990 F120.00
G01 X130.9050 Y-77.1470 F120.00
G01 X133.2950 Y-77.1470 F120.00
G01 X133.2950 Y-77.1950 F120.00
G01 X130.9050 Y-77.1950 F120.00
G01 X130.9050 Y-77.2430 F120.00
G01 X133.2950 Y-77.2430 F120.00
G01 X133.2950 Y-77.2910 F120.00
G01 X130.9050 Y-77.2910 F120.00
G01 X130.9050 Y-77.3390 F120.00
G01 X133.2950 Y-77.3390 F120.00
G01 X133.2950 Y-77.3870 F120.00
G01 X130.9050 Y-77.3870 F120.00
G01 X130.9050 Y-77.4350 F120.00
G01 X133.2950 Y-77.4350 F120.00
G01 X133.2950 Y-77.4830 F120.00
G01 X130.9050 Y-77.4830 F120.00
G01 X130.9050 Y-77.5310 F120.00
G01 X133.2950 Y-77.5310 F120.00
G01 X133.2950 Y-77.5790 F120.00
G01 X130.9050 Y-77.5790 F120.00
G01 X130.9050 Y-77.6270 F120.00
G01 X133.2950 Y-77.6270 F120.00
G01 X133.2950 Y-77.6750 F120.00
G01 X130.9050 Y-77.6750 F120.00
G01 X130.9050 Y-77.7230 F120.00
G01 X133.2950 Y-77.7230 F120.00
G01 X133.2950 Y-77.7710 F120.00
G01 X130.9050 Y-77.7710 F120.00
G01 X130.9050 Y-77.8190 F120.00
G01 X133.2950 Y-77.8190 F120.00
G01 X133.2950 Y-77.8670 F120.00
G01 X130.9050 Y-77.8670 F120.00
G01 X130.9050 Y-77.9150 F120.00
G01 X133.2950 Y-77.9150 F120.00
G01 X133.2950 Y-77.9630 F120.00
G01 X130.9050 Y-77.9630 F120.00
G01 X130.9050 Y-78.0110 F120.00
G01 X133.2950 Y-78.0110 F120.00
G01 X133.2950 Y-78.0590 F120.00
G01 X130.9050 Y-78.0590 F120.00
G01 X130.9050 Y-78.1070 F120.00
G01 X133.2950 Y-78.1070 F120.00
G01 X133.2950 Y-78.1550 F120.00
G01 X130.9050 Y-78.1550 F120.00
G01 X130.9050 Y-78.2030 F120.00
G01 X133.2950 Y-78.2030 F120.00
G01 X133.2950 Y-78.2510 F120.00
G01 X130.9050 Y-78.2510 F120.00
G01 X130.9050 Y-78.2990 F120.00
G01 X133.2950 Y-78.2990 F120.00
G01 X133.2950 Y-78.3470 F120.00
G01 X130.9050 Y-78.3470 F120.00
G01 X130.9050 Y-78.3950 F120.00
G01 X133.2950 Y-78.3950 F120.00
G01 X133.2950 Y-78.4430 F120.00
G01 X130.9050 Y-78.4430 F120.00
G01 X130.9050 Y-78.4910 F120.00
G01 X133.2950 Y-78.4910 F120.00
G01 X133.2950 Y-78.5390 F120.00
G01 X130.9050 Y-78.5390 F120.00
G01 X130.9050 Y-78.5870 F120.00
G01 X133.2950 Y-78.5870 F120.00
G01 X133.2945 Y-78.6350 F120.00
G01 X130.9055 Y-78.6350 F120.00
G01 X130.9155 Y-78.6830 F120.00
G01 X133.2845 Y-78.6830 F120.00
G01 X133.2577 Y-78.7310 F120.00
G01 X130.9423 Y-78.7310 F120.00
G01 X131.0036 Y-78.7790 F120.00
G01 X133.1964 Y-78.7790 F120.00
M5
G00 X133.9600 Y-78.7820
G01 F60.00
M03 S1000.0
G01 F120.00
G01 X133.9449 Y-78.7749 F120.00
G01 X133.9306 Y-78.7663 F120.00
G01 X133.9172 Y-78.7564 F120.00
G01 X133.9048 Y-78.7452 F120.00
G01 X133.8936 Y-78.7328 F120.00
G01 X133.8837 Y-78.7194 F120.00
G01 X133.8751 Y-78.7051 F120.00
G01 X133.8680 Y-78.6900 F120.00
G01 X133.8624 Y-78.6743 F120.00
G01 X133.8583 Y-78.6582 F120.00
G01 X133.8559 Y-78.6417 F120.00
G01 X133.8550 Y-78.6243 F120.00
G01 X133.8550 Y-77.1257 F120.00
G01 X133.8559 Y-77.1083 F120.00
G01 X133.8583 Y-77.0918 F120.00
G01 X133.8624 Y-77.0757 F120.00
G01 X133.8680 Y-77.0600 F120.00
G01 X133.8751 Y-77.0449 F120.00
G01 X133.8837 Y-77.0306 F120.00
G01 X133.8936 Y-77.0172 F120.00
G01 X133.9048 Y-77.0048 F120.00
G01 X133.9172 Y-76.9936 F120.00
G01 X133.9306 Y-76.9837 F120.00
G01 X133.9449 Y-76.9751 F120.00
G01 X133.9600 Y-76.9680 F120.00
G01 X133.9757 Y-76.9624 F120.00
G01 X133.9918 Y-76.9583 F120.00
G01 X134.0083 Y-76.9559 F120.00
G01 X134.0257 Y-76.9550 F120.00
G01 X136.0743 Y-76.9550 F120.00
G01 X136.0917 Y-76.9559 F120.00
G01 X136.1082 Y-76.9583 F120.00
G01 X136.1243 Y-76.9624 F120.00
G01 X136.1400 Y-76.9680 F120.00
G01 X136.1551 Y-76.9751 F120.00
G01 X136.1694 Y-76.9837 F120.00
G01 X136.1828 Y-76.9936 F120.00
G01 X136.1952 Y-77.0048 F120.00
G01 X136.2064 Y-77.0172 F120.00
G01 X136.2163 Y-77.0306 F120.00
G01 X136.2249 Y-77.0449 F120.00
G01 X136.2320 Y-77.0600 F120.00
G01 X136.2376 Y-77.0757 F120.00
G01 X136.2417 Y-77.0918 F120.00
G01 X136.2441 Y-77.1083 F120.00
G01 X136.2450 Y-77.1257 F120.00
G01 X136.2450 Y-78.6243 F120.00
G01 X136.2441 Y-78.6417 F120.00
G01 X136.2417 Y-78.6582 F120.00
G01 X136.2376 Y-78.6743 F120.00
G01 X136.2320 Y-78.6900 F120.00
G01 X136.2249 Y-78.7051 F120.00
G01 X136.2163 Y-78.7194 F120.00
G01 X136.2064 Y-78.7328 F120.00
G01 X136.1952 Y-78.7452 F120.00
G01 X136.1828 Y-78.7564 F120.00
G01 X136.1694 Y-78.7663 F120.00
G01 X136.1551 Y-78.7749 F120.00
G01 X136.1400 Y-78.7820 F120.00
G01 X136.1243 Y-78.7876 F120.00
G01 X136.1082 Y-78.7917 F120.00
G01 X136.0917 Y-78.7941 F120.00
G01 X136.0743 Y-78.7950 F120.00
G01 X134.0257 Y-78.7950 F120.00
G01 X134.0083 Y-78.7941 F120.00
G01 X133.9918 Y-78.7917 F120.00
G01 X133.9757 Y-78.7876 F120.00
G01 X133.9600 Y-78.7820 F120.00
M5
G00 X134.2945 Y-79.6260
G01 F60.00
M03 S1000.0
G01 F120.00
G01 X134.2728 Y-79.6337 F120.00
G01 X134.2560 Y-79.6407 F120.00
G01 X134.2351 Y-79.6505 F120.00
G01 X134.2191 Y-79.6591 F120.00
G01 X134.1993 Y-79.6709 F120.00
G01 X134.1842 Y-79.6810 F120.00
G01 X134.1657 Y-79.6948 F120.00
G01 X134.1517 Y-79.7063 F120.00
G01 X134.1346 Y-79.7218 F120.00
G01 X134.1218 Y-79.7346 F120.00
G01 X134.1063 Y-79.7517 F120.00
G01 X134.0948 Y-79.7657 F120.00
G01 X134.0810 Y-79.7842 F120.00
G01 X134.0709 Y-79.7993 F120.00
G01 X134.0591 Y-79.8191 F120.00
G01 X134.0505 Y-79.8351 F120.00
G01 X134.0407 Y-79.8560 F120.00
G01 X134.0337 Y-79.8728 F120.00
G01 X134.0260 Y-79.8945 F120.00
G01 X134.0207 Y-79.9118 F120.00
G01 X134.0151 Y-79.9342 F120.00
G01 X134.0115 Y-79.9520 F120.00
G01 X134.0082 Y-79.9748 F120.00
G01 X134.0064 Y-79.9929 F120.00
G01 X134.0050 Y-80.0254 F120.00
G01 X134.0050 Y-80.7246 F120.00
G01 X134.0064 Y-80.7571 F120.00
G01 X134.0082 Y-80.7752 F120.00
G01 X134.0115 Y-80.7980 F120.00
G01 X134.0151 Y-80.8158 F120.00
G01 X134.0207 Y-80.8382 F120.00
G01 X134.0260 Y-80.8555 F120.00
G01 X134.0337 Y-80.8772 F120.00
G01 X134.0407 Y-80.8940 F120.00
G01 X134.0505 Y-80.9149 F120.00
G01 X134.0591 Y-80.9309 F120.00
G01 X134.0709 Y-80.9507 F120.00
G01 X134.0810 Y-80.9658 F120.00
G01 X134.0948 Y-80.9843 F120.00
G01 X134.1063 Y-80.9983 F120.00
G01 X134.1218 Y-81.0154 F120.00
G01 X134.1346 Y-81.0282 F120.00
G01 X134.1517 Y-81.0437 F120.00
G01 X134.1657 Y-81.0552 F120.00
G01 X134.1842 Y-81.0690 F120.00
G01 X134.1993 Y-81.0791 F120.00
G01 X134.2191 Y-81.0909 F120.00
G01 X134.2351 Y-81.0995 F120.00
G01 X134.2560 Y-81.1093 F120.00
G01 X134.2728 Y-81.1163 F120.00
G01 X134.2945 Y-81.1240 F120.00
G01 X134.3118 Y-81.1293 F120.00
G01 X134.3342 Y-81.1349 F120.00
G01 X134.3520 Y-81.1385 F120.00
G01 X134.3748 Y-81.1418 F120.00
G01 X134.3929 Y-81.1436 F120.00
G01 X134.4254 Y-81.1450 F120.00
G01 X135.3246 Y-81.1450 F120.00
G01 X135.3571 Y-81.1436 F120.00
G01 X135.3752 Y-81.1418 F120.00
G01 X135.3980 Y-81.1385 F120.00
G01 X135.4158 Y-81.1349 F120.00
G01 X135.4382 Y-81.1293 F120.00
G01 X135.4555 Y-81.1240 F120.00
G01 X135.4772 Y-81.1163 F120.00
G01 X135.4940 Y-81.1093 F120.00
G01 X135.5149 Y-81.0995 F120.00
G01 X135.5309 Y-81.0909 F120.00
G01 X135.5507 Y-81.0791 F120.00
G01 X135.5658 Y-81.0690 F120.00
G01 X135.5843 Y-81.0552 F120.00
G01 X135.5983 Y-81.0437 F120.00
G01 X135.6154 Y-81.0282 F120.00
G01 X135.6282 Y-81.0154 F120.00
G01 X135.6437 Y-80.9983 F120.00
G01 X135.6552 Y-80.9843 F120.00
G01 X135.6690 Y-80.9658 F120.00
G01 X135.6791 Y-80.9507 F120.00
G01 X135.6909 Y-80.9309 F120.00
G01 X135.6995 Y-80.9149 F120.00
G01 X135.7093 Y-80.8940 F120.00
G01 X135.7163 Y-80.8772 F120.00
G01 X135.7240 Y-80.8555 F120.00
G01 X135.7293 Y-80.8382 F120.00
G01 X135.7349 Y-80.8158 F120.00
G01 X135.7385 Y-80.7980 F120.00
G01 X135.7418 Y-80.7752 F120.00
G01 X135.7436 Y-80.7571 F120.00
G01 X135.7450 Y-80.7246 F120.00
G01 X135.7450 Y-80.0254 F120.00
G01 X135.7436 Y-79.9929 F120.00
G01 X135.7418 Y-79.9748 F120.00
G01 X135.7385 Y-79.9520 F120.00
G01 X135.7349 Y-79.9342 F120.00
G01 X135.7293 Y-79.9118 F120.00
G01 X135.7240 Y-79.8945 F120.00
G01 X135.7163 Y-79.8728 F120.00
G01 X135.7093 Y-79.8560 F120.00
G01 X135.6995 Y-79.8351 F120.00
G01 X135.6909 Y-79.8191 F120.00
G01 X135.6791 Y-79.7993 F120.00
G01 X135.6690 Y-79.7842 F120.00
G01 X135.6552 Y-79.7657 F120.00
G01 X135.6437 Y-79.7517 F120.00
G01 X135.6282 Y-79.7346 F120.00
G01 X135.6154 Y-79.7218 F120.00
G01 X135.5983 Y-79.7063 F120.00
G01 X135.5843 Y-79.6948 F120.00
G01 X135.5658 Y-79.6810 F120.00
G01 X135.5507 Y-79.6709 F120.00
G01 X135.5309 Y-79.6591 F120.00
G01 X135.5149 Y-79.6505 F120.00
G01 X135.4940 Y-79.6407 F120.00
G01 X135.4772 Y-79.6337 F120.00
G01 X135.4555 Y-79.6260 F120.00
G01 X135.4382 Y-79.6207 F120.00
G01 X135.4158 Y-79.6151 F120.00
G01 X135.3980 Y-79.6115 F120.00
G01 X135.3752 Y-79.6082 F120.00
G01 X135.3571 Y-79.6064 F120.00
G01 X135.3246 Y-79.6050 F120.00
G01 X134.4163 Y-79.6052 F120.00
G01 X134.3929 Y-79.6064 F120.00
G01 X134.3748 Y-79.6082 F120.00
G01 X134.3520 Y-79.6115 F120.00
G01 X134.3342 Y-79.6151 F120.00
G01 X134.3118 Y-79.6207 F120.00
G01 X134.2945 Y-79.6260 F120.00
G01 X134.2305 Y-79.6530 F120.00
G01 X135.5195 Y-79.6530 F120.00
G01 X135.5919 Y-79.7010 F120.00
G01 X134.1581 Y-79.7010 F120.00
G01 X134.1087 Y-79.7490 F120.00
G01 X135.6413 Y-79.7490 F120.00
M5
G00 X134.0725 Y-79.7970
G01 F60.00
M03 S1000.0
G01 F120.00
G01 X135.6775 Y-79.7970 F120.00
G01 X135.7041 Y-79.8450 F120.00
G01 X134.0459 Y-79.8450 F120.00
G01 X134.0265 Y-79.8930 F120.00
G01 X135.7235 Y-79.8930 F120.00
G01 X135.7363 Y-79.9410 F120.00
G01 X134.0137 Y-79.9410 F120.00
G01 X134.0068 Y-79.9890 F120.00
G01 X135.7432 Y-79.9890 F120.00
G01 X135.7450 Y-80.0370 F120.00
G01 X134.0050 Y-80.0370 F120.00
G01 X134.0050 Y-80.0850 F120.00
G01 X135.7450 Y-80.0850 F120.00
G01 X135.7450 Y-80.1330 F120.00
G01 X134.0050 Y-80.1330 F120.00
G01 X134.0050 Y-80.1810 F120.00
G01 X135.7450 Y-80.1810 F120.00
G01 X135.7450 Y-80.2290 F120.00
G01 X134.0050 Y-80.2290 F120.00
G01 X134.0050 Y-80.2770 F120.00
G01 X135.7450 Y-80.2770 F120.00
G01 X135.7450 Y-80.3250 F120.00
G01 X134.0050 Y-80.3250 F120.00
G01 X134.0050 Y-80.3730 F120.00
G01 X135.7450 Y-80.3730 F120.00
G01 X135.7450 Y-80.4210 F120.00
G01 X134.0050 Y-80.4210 F120.00
G01 X134.0050 Y-80.4690 F120.00
G01 X135.7450 Y-80.4690 F120.00
G01 X135.7450 Y-80.5170 F120.00
G01 X134.0050 Y-80.5170 F120.00
G01 X134.0050 Y-80.5650 F120.00
G01 X135.7450 Y-80.5650 F120.00
G01 X135.7450 Y-80.6130 F120.00
G01 X134.0050 Y-80.6130 F120.00
G01 X134.0050 Y-80.6610 F120.00
G01 X135.7450 Y-80.6610 F120.00
G01 X135.7450 Y-80.7090 F120.00
G01 X134.0050 Y-80.7090 F120.00
G01 X134.0064 Y-80.7570 F120.00
G01 X135.7436 Y-80.7570 F120.00
G01 X135.7371 Y-80.8050 F120.00
G01 X134.0129 Y-80.8050 F120.00
G01 X134.0252 Y-80.8530 F120.00
G01 X135.7248 Y-80.8530 F120.00
G01 X135.7060 Y-80.9010 F120.00
G01 X134.0440 Y-80.9010 F120.00
G01 X134.0699 Y-80.9490 F120.00
G01 X135.6801 Y-80.9490 F120.00
G01 X135.6448 Y-80.9970 F120.00
G01 X134.1052 Y-80.9970 F120.00
G01 X134.1533 Y-81.0450 F120.00
G01 X135.5967 Y-81.0450 F120.00
G01 X135.5270 Y-81.0930 F120.00
G01 X134.2230 Y-81.0930 F120.00
G01 X134.3691 Y-81.1410 F120.00
G01 X135.3809 Y-81.1410 F120.00
M5
G00 X135.6413 Y-81.7490
G01 F60.00
M03 S1000.0
G01 F120.00
G01 X134.1087 Y-81.7490 F120.00
G01 X134.1581 Y-81.7010 F120.00
G01 X135.5919 Y-81.7010 F120.00
G01 X135.5195 Y-81.6530 F120.00
G01 X134.2305 Y-81.6530 F120.00
G01 X134.2945 Y-81.6260 F120.00
G01 X134.3118 Y-81.6207 F120.00
G01 X134.3342 Y-81.6151 F120.00
G01 X134.3520 Y-81.6115 F120.00
G01 X134.3748 Y-81.6082 F120.00
G01 X134.3929 Y-81.6064 F120.00
G01 X134.4163 Y-81.6052 F120.00
G01 X135.3246 Y-81.6050 F120.00
G01 X135.3571 Y-81.6064 F120.00
G01 X135.3752 Y-81.6082 F120.00
G01 X135.3980 Y-81.6115 F120.00
G01 X135.4158 Y-81.6151 F120.00
G01 X135.4382 Y-81.6207 F120.00
G01 X135.4555 Y-81.6260 F120.00
G01 X135.4772 Y-81.6337 F120.00
G01 X135.4940 Y-81.6407 F120.00
G01 X135.5149 Y-81.6505 F120.00
G01 X135.5309 Y-81.6591 F120.00
G01 X135.5507 Y-81.6709 F120.00
G01 X135.5658 Y-81.6810 F120.00
G01 X135.5843 Y-81.6948 F120.00
G01 X135.5983 Y-81.7063 F120.00
G01 X135.6154 Y-81.7218 F120.00
G01 X135.6282 Y-81.7346 F120.00
G01 X135.6437 Y-81.7517 F120.00
G01 X135.6552 Y-81.7657 F120.00
G01 X135.6690 Y-81.7842 F120.00
G01 X135.6791 Y-81.7993 F120.00
G01 X135.6909 Y-81.8191 F120.00
G01 X135.6995 Y-81.8351 F120.00
G01 X135.7093 Y-81.8560 F120.00
G01 X135.7163 Y-81.8728 F120.00
G01 X135.7240 Y-81.8945 F120.00
G01 X135.7293 Y-81.9118 F120.00
G01 X135.7349 Y-81.9342 F120.00
G01 X135.7385 Y-81.9520 F120.00
G01 X135.7418 Y-81.9748 F120.00
G01 X135.7436 Y-81.9929 F120.00
G01 X135.7450 Y-82.0254 F120.00
G01 X135.7450 Y-82.7246 F120.00
G01 X135.7436 Y-82.7571 F120.00
G01 X135.7418 Y-82.7752 F120.00
G01 X135.7385 Y-82.7980 F120.00
G01 X135.7349 Y-82.8158 F120.00
G01 X135.7293 Y-82.8382 F120.00
G01 X135.7240 Y-82.8555 F120.00
G01 X135.7163 Y-82.8772 F120.00
G01 X135.7093 Y-82.8940 F120.00
G01 X135.6995 Y-82.9149 F120.00
G01 X135.6909 Y-82.9309 F120.00
G01 X135.6791 Y-82.9507 F120.00
G01 X135.6690 Y-82.9658 F120.00
G01 X135.6552 Y-82.9843 F120.00
G01 X135.6437 Y-82.9983 F120.00
G01 X135.6282 Y-83.0154 F120.00
G01 X135.6154 Y-83.0282 F120.00
G01 X135.5983 Y-83.0437 F120.00
G01 X135.5843 Y-83.0552 F120.00
G01 X135.5658 Y-83.0690 F120.00
G01 X135.5507 Y-83.0791 F120.00
G01 X135.5309 Y-83.0909 F120.00
G01 X135.5149 Y-83.0995 F120.00
G01 X135.4940 Y-83.1093 F120.00
G01 X135.4772 Y-83.1163 F120.00
G01 X135.4555 Y-83.1240 F120.00
G01 X135.4382 Y-83.1293 F120.00
G01 X135.4158 Y-83.1349 F120.00
G01 X135.3980 Y-83.1385 F120.00
G01 X135.3752 Y-83.1418 F120.00
G01 X135.3571 Y-83.1436 F120.00
G01 X135.3246 Y-83.1450 F120.00
G01 X134.4254 Y-83.1450 F120.00
G01 X134.3929 Y-83.1436 F120.00
G01 X134.3748 Y-83.1418 F120.00
G01 X134.3520 Y-83.1385 F120.00
G01 X134.3342 Y-83.1349 F120.00
G01 X134.3118 Y-83.1293 F120.00
G01 X134.2945 Y-83.1240 F120.00
G01 X134.2728 Y-83.1163 F120.00
G01 X134.2560 Y-83.1093 F120.00
G01 X134.2351 Y-83.0995 F120.00
G01 X134.2191 Y-83.0909 F120.00
G01 X134.1993 Y-83.0791 F120.00
G01 X134.1842 Y-83.0690 F120.00
G01 X134.1657 Y-83.0552 F120.00
G01 X134.1517 Y-83.0437 F120.00
G01 X134.1346 Y-83.0282 F120.00
G01 X134.1218 Y-83.0154 F120.00
G01 X134.1063 Y-82.9983 F120.00
G01 X134.0948 Y-82.9843 F120.00
G01 X134.0810 Y-82.9658 F120.00
G01 X134.0709 Y-82.9507 F120.00
G01 X134.0591 Y-82.9309 F120.00
G01 X134.0505 Y-82.9149 F120.00
G01 X134.0407 Y-82.8940 F120.00
G01 X134.0337 Y-82.8772 F120.00
G01 X134.0260 Y-82.8555 F120.00
G01 X134.0207 Y-82.8382 F120.00
G01 X134.0151 Y-82.8158 F120.00
G01 X134.0115 Y-82.7980 F120.00
G01 X134.0082 Y-82.7752 F120.00
G01 X134.0064 Y-82.7571 F120.00
G01 X134.0050 Y-82.7246 F120.00
G01 X134.0050 Y-82.0254 F120.00
G01 X134.0064 Y-81.9929 F120.00
G01 X134.0082 Y-81.9748 F120.00
G01 X134.0115 Y-81.9520 F120.00
G01 X134.0151 Y-81.9342 F120.00
G01 X134.0207 Y-81.9118 F120.00
G01 X134.0260 Y-81.8945 F120.00
G01 X134.0337 Y-81.8728 F120.00
G01 X134.0407 Y-81.8560 F120.00
G01 X134.0505 Y-81.8351 F120.00
G01 X134.0591 Y-81.8191 F120.00
G01 X134.0709 Y-81.7993 F120.00
G01 X134.0810 Y-81.7842 F120.00
G01 X134.0948 Y-81.7657 F120.00
G01 X134.1063 Y-81.7517 F120.00
G01 X134.1218 Y-81.7346 F120.00
G01 X134.1346 Y-81.7218 F120.00
G01 X134.1517 Y-81.7063 F120.00
G01 X134.1657 Y-81.6948 F120.00
G01 X134.1842 Y-81.6810 F120.00
G01 X134.1993 Y-81.6709 F120.00
G01 X134.2191 Y-81.6591 F120.00
G01 X134.2351 Y-81.6505 F120.00
G01 X134.2560 Y-81.6407 F120.00
G01 X134.2728 Y-81.6337 F120.00
G01 X134.2945 Y-81.6260 F120.00
M5
G00 X134.0725 Y-81.7970
G01 F60.00
M03 S1000.0
G01 F120.00
G01 X135.6775 Y-81.7970 F120.00
G01 X135.7041 Y-81.8450 F120.00
G01 X134.0459 Y-81.8450 F120.00
G01 X134.0265 Y-81.8930 F120.00
G01 X135.7235 Y-81.8930 F120.00
G01 X135.7363 Y-81.9410 F120.00
G01 X134.0137 Y-81.9410 F120.00
G01 X134.0068 Y-81.9890 F120.00
G01 X135.7432 Y-81.9890 F120.00
G01 X135.7450 Y-82.0370 F120.00
G01 X134.0050 Y-82.0370 F120.00
G01 X134.0050 Y-82.0850 F120.00
G01 X135.7450 Y-82.0850 F120.00
G01 X135.7450 Y-82.1330 F120.00
G01 X134.0050 Y-82.1330 F120.00
G01 X134.0050 Y-82.1810 F120.00
G01 X135.7450 Y-82.1810 F120.00
G01 X135.7450 Y-82.2290 F120.00
G01 X134.0050 Y-82.2290 F120.00
G01 X134.0050 Y-82.2770 F120.00
G01 X135.7450 Y-82.2770 F120.00
G01 X135.7450 Y-82.3250 F120.00
G01 X134.0050 Y-82.3250 F120.00
G01 X134.0050 Y-82.3730 F120.00
G01 X135.7450 Y-82.3730 F120.00
G01 X135.7450 Y-82.4210 F120.00
G01 X134.0050 Y-82.4210 F120.00
G01 X134.0050 Y-82.4690 F120.00
G01 X135.7450 Y-82.4690 F120.00
G01 X135.7450 Y-82.5170 F120.00
G01 X134.0050 Y-82.5170 F120.00
G01 X134.0050 Y-82.5650 F120.00
G01 X135.7450 Y-82.5650 F120.00
G01 X135.7450 Y-82.6130 F120.00
G01 X134.0050 Y-82.6130 F120.00
G01 X134.0050 Y-82.6610 F120.00
G01 X135.7450 Y-82.6610 F120.00
G01 X135.7450 Y-82.7090 F120.00
G01 X134.0050 Y-82.7090 F120.00
G01 X134.0064 Y-82.7570 F120.00
G01 X135.7436 Y-82.7570 F120.00
G01 X135.7371 Y-82.8050 F120.00
G01 X134.0129 Y-82.8050 F120.00
G01 X134.0252 Y-82.8530 F120.00
G01 X135.7248 Y-82.8530 F120.00
G01 X135.7060 Y-82.9010 F120.00
G01 X134.0440 Y-82.9010 F120.00
G01 X134.0699 Y-82.9490 F120.00
G01 X135.6801 Y-82.9490 F120.00
G01 X135.6448 Y-82.9970 F120.00
G01 X134.1052 Y-82.9970 F120.00
G01 X134.1533 Y-83.0450 F120.00
G01 X135.5967 Y-83.0450 F120.00
G01 X135.5270 Y-83.0930 F120.00
G01 X134.2230 Y-83.0930 F120.00
G01 X134.3691 Y-83.1410 F120.00
G01 X135.3809 Y-83.1410 F120.00
M5
G00 X136.4283 Y-83.1391
G01 F60.00
M03 S1000.0
G01 F120.00
G01 X136.4283 Y-82.6609 F120.00
M5
G00 X136.4763 Y-82.5687
G01 F60.00
M03 S1000.0
G01 F120.00
G01 X136.4763 Y-83.2313 F120.00
G01 X136.5243 Y-83.2972 F120.00
G01 X136.5243 Y-82.5028 F120.00
G01 X136.5723 Y-82.4515 F120.00
G01 X136.5723 Y-83.3485 F120.00
G01 X136.6203 Y-83.3897 F120.00
G01 X136.6203 Y-82.4103 F120.00
G01 X136.6683 Y-82.3765 F120.00
G01 X136.6683 Y-83.4235 F120.00
G01 X136.7163 Y-83.4510 F120.00
G01 X136.7163 Y-82.3490 F120.00
G01 X136.7643 Y-82.3269 F120.00
G01 X136.7643 Y-83.4731 F120.00
G01 X136.8123 Y-83.4906 F120.00
G01 X136.8123 Y-82.3094 F120.00
G01 X136.8091 Y-82.3103 F120.00
G01 X136.8311 Y-82.3036 F120.00
G01 X136.8678 Y-82.2945 F120.00
G01 X136.8904 Y-82.2900 F120.00
G01 X136.9278 Y-82.2844 F120.00
G01 X136.9507 Y-82.2822 F120.00
G01 X136.9885 Y-82.2803 F120.00
G01 X137.0115 Y-82.2803 F120.00
G01 X137.0493 Y-82.2822 F120.00
G01 X137.0722 Y-82.2844 F120.00
G01 X137.1096 Y-82.2900 F120.00
G01 X137.1322 Y-82.2945 F120.00
G01 X137.1689 Y-82.3036 F120.00
G01 X137.1909 Y-82.3103 F120.00
G01 X137.2265 Y-82.3231 F120.00
G01 X137.2478 Y-82.3319 F120.00
G01 X137.2820 Y-82.3480 F120.00
G01 X137.3023 Y-82.3589 F120.00
G01 X137.3347 Y-82.3783 F120.00
G01 X137.3539 Y-82.3911 F120.00
G01 X137.3842 Y-82.4137 F120.00
G01 X137.4020 Y-82.4283 F120.00
G01 X137.4300 Y-82.4537 F120.00
G01 X137.4463 Y-82.4700 F120.00
G01 X137.4717 Y-82.4980 F120.00
G01 X137.4863 Y-82.5158 F120.00
G01 X137.5089 Y-82.5461 F120.00
G01 X137.5217 Y-82.5653 F120.00
G01 X137.5411 Y-82.5977 F120.00
G01 X137.5520 Y-82.6180 F120.00
G01 X137.5681 Y-82.6522 F120.00
G01 X137.5769 Y-82.6735 F120.00
G01 X137.5897 Y-82.7091 F120.00
G01 X137.5964 Y-82.7311 F120.00
G01 X137.6055 Y-82.7678 F120.00
G01 X137.6100 Y-82.7904 F120.00
G01 X137.6156 Y-82.8278 F120.00
G01 X137.6178 Y-82.8507 F120.00
G01 X137.6197 Y-82.8885 F120.00
G01 X137.6197 Y-82.9115 F120.00
G01 X137.6178 Y-82.9493 F120.00
G01 X137.6156 Y-82.9722 F120.00
G01 X137.6100 Y-83.0096 F120.00
G01 X137.6055 Y-83.0322 F120.00
G01 X137.5964 Y-83.0689 F120.00
G01 X137.5897 Y-83.0909 F120.00
G01 X137.5769 Y-83.1265 F120.00
G01 X137.5681 Y-83.1478 F120.00
G01 X137.5520 Y-83.1820 F120.00
G01 X137.5411 Y-83.2023 F120.00
G01 X137.5217 Y-83.2347 F120.00
G01 X137.5089 Y-83.2539 F120.00
G01 X137.4863 Y-83.2842 F120.00
G01 X137.4717 Y-83.3020 F120.00
G01 X137.4463 Y-83.3300 F120.00
G01 X137.4300 Y-83.3463 F120.00
G01 X137.4020 Y-83.3717 F120.00
G01 X137.3842 Y-83.3863 F120.00
G01 X137.3539 Y-83.4089 F120.00
G01 X137.3347 Y-83.4217 F120.00
G01 X137.3023 Y-83.4411 F120.00
G01 X137.2820 Y-83.4520 F120.00
G01 X137.2478 Y-83.4681 F120.00
G01 X137.2265 Y-83.4769 F120.00
G01 X137.1909 Y-83.4897 F120.00
G01 X137.1689 Y-83.4964 F120.00
G01 X137.1322 Y-83.5055 F120.00
G01 X137.1096 Y-83.5100 F120.00
G01 X137.0722 Y-83.5156 F120.00
G01 X137.0493 Y-83.5178 F120.00
G01 X137.0115 Y-83.5197 F120.00
G01 X136.9885 Y-83.5197 F120.00
G01 X136.9507 Y-83.5178 F120.00
G01 X136.9278 Y-83.5156 F120.00
G01 X136.8904 Y-83.5100 F120.00
G01 X136.8678 Y-83.5055 F120.00
G01 X136.8311 Y-83.4964 F120.00
G01 X136.8091 Y-83.4897 F120.00
G01 X136.7735 Y-83.4769 F120.00
G01 X136.7522 Y-83.4681 F120.00
G01 X136.7180 Y-83.4520 F120.00
G01 X136.6977 Y-83.4411 F120.00
G01 X136.6653 Y-83.4217 F120.00
G01 X136.6461 Y-83.4089 F120.00
G01 X136.6158 Y-83.3863 F120.00
G01 X136.5980 Y-83.3717 F120.00
G01 X136.5700 Y-83.3463 F120.00
G01 X136.5537 Y-83.3300 F120.00
G01 X136.5283 Y-83.3020 F120.00
G01 X136.5137 Y-83.2842 F120.00
G01 X136.4911 Y-83.2539 F120.00
G01 X136.4783 Y-83.2347 F120.00
G01 X136.4589 Y-83.2023 F120.00
G01 X136.4480 Y-83.1820 F120.00
G01 X136.4319 Y-83.1478 F120.00
G01 X136.4231 Y-83.1265 F120.00
G01 X136.4103 Y-83.0909 F120.00
G01 X136.4036 Y-83.0689 F120.00
G01 X136.3945 Y-83.0322 F120.00
G01 X136.3900 Y-83.0096 F120.00
G01 X136.3844 Y-82.9722 F120.00
G01 X136.3822 Y-82.9493 F120.00
G01 X136.3803 Y-82.9115 F120.00
G01 X136.3803 Y-82.8885 F120.00
G01 X136.3822 Y-82.8507 F120.00
G01 X136.3844 Y-82.8278 F120.00
G01 X136.3900 Y-82.7904 F120.00
G01 X136.3945 Y-82.7678 F120.00
G01 X136.4036 Y-82.7311 F120.00
G01 X136.4103 Y-82.7091 F120.00
G01 X136.4231 Y-82.6735 F120.00
G01 X136.4319 Y-82.6522 F120.00
G01 X136.4480 Y-82.6180 F120.00
G01 X136.4589 Y-82.5977 F120.00
G01 X136.4783 Y-82.5653 F120.00
G01 X136.4911 Y-82.5461 F120.00
G01 X136.5137 Y-82.5158 F120.00
G01 X136.5283 Y-82.4980 F120.00
G01 X136.5537 Y-82.4700 F120.00
G01 X136.5700 Y-82.4537 F120.00
G01 X136.5980 Y-82.4283 F120.00
G01 X136.6158 Y-82.4137 F120.00
G01 X136.6461 Y-82.3911 F120.00
G01 X136.6653 Y-82.3783 F120.00
G01 X136.6977 Y-82.3589 F120.00
G01 X136.7180 Y-82.3480 F120.00
G01 X136.7522 Y-82.3319 F120.00
G01 X136.7735 Y-82.3231 F120.00
G01 X136.8091 Y-82.3103 F120.00
G01 X136.8603 Y-82.2963 F120.00
G01 X136.8603 Y-83.5037 F120.00
G01 X136.9083 Y-83.5127 F120.00
G01 X136.9083 Y-82.2873 F120.00
G01 X136.9563 Y-82.2819 F120.00
G01 X136.9563 Y-83.5181 F120.00
G01 X137.0043 Y-83.5197 F120.00
G01 X137.0043 Y-82.2803 F120.00
G01 X137.0523 Y-82.2825 F120.00
G01 X137.0523 Y-83.5175 F120.00
G01 X137.1003 Y-83.5114 F120.00
G01 X137.1003 Y-82.2886 F120.00
G01 X137.1483 Y-82.2985 F120.00
G01 X137.1483 Y-83.5015 F120.00
G01 X137.1963 Y-83.4877 F120.00
G01 X137.1963 Y-82.3123 F120.00
G01 X137.2443 Y-82.3304 F120.00
G01 X137.2443 Y-83.4696 F120.00
G01 X137.2923 Y-83.4464 F120.00
G01 X137.2923 Y-82.3536 F120.00
G01 X137.3403 Y-82.3821 F120.00
G01 X137.3403 Y-83.4179 F120.00
G01 X137.3883 Y-83.3830 F120.00
G01 X137.3883 Y-82.4170 F120.00
G01 X137.4363 Y-82.4599 F120.00
G01 X137.4363 Y-83.3401 F120.00
G01 X137.4843 Y-83.2867 F120.00
G01 X137.4843 Y-82.5133 F120.00
G01 X137.5323 Y-82.5830 F120.00
G01 X137.5323 Y-83.2170 F120.00
G01 X137.5803 Y-83.1171 F120.00
G01 X137.5803 Y-82.6829 F120.00
M5
G00 X139.0060 Y-82.7442
G01 F60.00
M03 S1000.0
G01 F120.00
G01 X139.0060 Y-82.2659 F120.00
M5
G00 X139.0540 Y-82.1738
G01 F60.00
M03 S1000.0
G01 F120.00
G01 X139.0540 Y-82.8364 F120.00
G01 X139.1020 Y-82.9023 F120.00
G01 X139.1020 Y-82.1079 F120.00
G01 X139.1500 Y-82.0566 F120.00
G01 X139.1500 Y-82.9536 F120.00
G01 X139.1980 Y-82.9948 F120.00
G01 X139.1980 Y-82.0154 F120.00
G01 X139.2460 Y-81.9816 F120.00
G01 X139.2460 Y-83.0286 F120.00
G01 X139.2940 Y-83.0561 F120.00
G01 X139.2940 Y-81.9541 F120.00
G01 X139.3420 Y-81.9320 F120.00
G01 X139.3420 Y-83.0782 F120.00
G01 X139.3900 Y-83.0957 F120.00
G01 X139.3900 Y-81.9144 F120.00
G01 X139.3868 Y-81.9154 F120.00
G01 X139.4089 Y-81.9087 F120.00
G01 X139.4455 Y-81.8995 F120.00
G01 X139.4681 Y-81.8950 F120.00
G01 X139.5055 Y-81.8895 F120.00
G01 X139.5285 Y-81.8872 F120.00
G01 X139.5662 Y-81.8854 F120.00
G01 X139.5893 Y-81.8854 F120.00
G01 X139.6270 Y-81.8872 F120.00
G01 X139.6500 Y-81.8895 F120.00
G01 X139.6873 Y-81.8950 F120.00
G01 X139.7099 Y-81.8995 F120.00
G01 X139.7466 Y-81.9087 F120.00
G01 X139.7687 Y-81.9154 F120.00
G01 X139.8042 Y-81.9281 F120.00
G01 X139.8255 Y-81.9370 F120.00
G01 X139.8597 Y-81.9531 F120.00
G01 X139.8800 Y-81.9640 F120.00
G01 X139.9124 Y-81.9834 F120.00
G01 X139.9316 Y-81.9962 F120.00
G01 X139.9620 Y-82.0187 F120.00
G01 X139.9798 Y-82.0334 F120.00
G01 X140.0078 Y-82.0587 F120.00
G01 X140.0241 Y-82.0750 F120.00
G01 X140.0495 Y-82.1030 F120.00
G01 X140.0641 Y-82.1209 F120.00
G01 X140.0866 Y-82.1512 F120.00
G01 X140.0994 Y-82.1704 F120.00
G01 X140.1188 Y-82.2028 F120.00
G01 X140.1297 Y-82.2231 F120.00
G01 X140.1459 Y-82.2573 F120.00
G01 X140.1547 Y-82.2786 F120.00
G01 X140.1674 Y-82.3142 F120.00
G01 X140.1741 Y-82.3362 F120.00
G01 X140.1833 Y-82.3729 F120.00
G01 X140.1878 Y-82.3955 F120.00
G01 X140.1933 Y-82.4329 F120.00
G01 X140.1956 Y-82.4558 F120.00
G01 X140.1974 Y-82.4936 F120.00
G01 X140.1974 Y-82.5166 F120.00
G01 X140.1956 Y-82.5544 F120.00
G01 X140.1933 Y-82.5773 F120.00
G01 X140.1878 Y-82.6147 F120.00
G01 X140.1833 Y-82.6373 F120.00
G01 X140.1741 Y-82.6739 F120.00
G01 X140.1674 Y-82.6960 F120.00
G01 X140.1547 Y-82.7316 F120.00
G01 X140.1459 Y-82.7529 F120.00
G01 X140.1297 Y-82.7870 F120.00
G01 X140.1188 Y-82.8074 F120.00
G01 X140.0994 Y-82.8398 F120.00
G01 X140.0866 Y-82.8590 F120.00
G01 X140.0641 Y-82.8893 F120.00
G01 X140.0495 Y-82.9071 F120.00
G01 X140.0241 Y-82.9351 F120.00
G01 X140.0078 Y-82.9514 F120.00
G01 X139.9798 Y-82.9768 F120.00
G01 X139.9620 Y-82.9914 F120.00
G01 X139.9316 Y-83.0139 F120.00
G01 X139.9124 Y-83.0268 F120.00
G01 X139.8800 Y-83.0462 F120.00
G01 X139.8597 Y-83.0570 F120.00
G01 X139.8255 Y-83.0732 F120.00
G01 X139.8042 Y-83.0820 F120.00
G01 X139.7687 Y-83.0948 F120.00
G01 X139.7466 Y-83.1014 F120.00
G01 X139.7099 Y-83.1106 F120.00
G01 X139.6873 Y-83.1151 F120.00
G01 X139.6500 Y-83.1207 F120.00
G01 X139.6270 Y-83.1229 F120.00
G01 X139.5893 Y-83.1248 F120.00
G01 X139.5662 Y-83.1248 F120.00
G01 X139.5285 Y-83.1229 F120.00
G01 X139.5055 Y-83.1207 F120.00
G01 X139.4681 Y-83.1151 F120.00
G01 X139.4455 Y-83.1106 F120.00
G01 X139.4089 Y-83.1014 F120.00
G01 X139.3868 Y-83.0948 F120.00
G01 X139.3512 Y-83.0820 F120.00
G01 X139.3299 Y-83.0732 F120.00
G01 X139.2958 Y-83.0570 F120.00
G01 X139.2754 Y-83.0462 F120.00
G01 X139.2430 Y-83.0268 F120.00
G01 X139.2239 Y-83.0139 F120.00
G01 X139.1935 Y-82.9914 F120.00
G01 X139.1757 Y-82.9768 F120.00
G01 X139.1477 Y-82.9514 F120.00
G01 X139.1314 Y-82.9351 F120.00
G01 X139.1060 Y-82.9071 F120.00
G01 X139.0914 Y-82.8893 F120.00
G01 X139.0689 Y-82.8590 F120.00
G01 X139.0561 Y-82.8398 F120.00
G01 X139.0366 Y-82.8074 F120.00
G01 X139.0258 Y-82.7870 F120.00
G01 X139.0096 Y-82.7529 F120.00
G01 X139.0008 Y-82.7316 F120.00
G01 X138.9881 Y-82.6960 F120.00
G01 X138.9814 Y-82.6739 F120.00
G01 X138.9722 Y-82.6373 F120.00
G01 X138.9677 Y-82.6147 F120.00
G01 X138.9622 Y-82.5773 F120.00
G01 X138.9599 Y-82.5544 F120.00
G01 X138.9580 Y-82.5166 F120.00
G01 X138.9580 Y-82.4936 F120.00
G01 X138.9599 Y-82.4558 F120.00
G01 X138.9622 Y-82.4329 F120.00
G01 X138.9677 Y-82.3955 F120.00
G01 X138.9722 Y-82.3729 F120.00
G01 X138.9814 Y-82.3362 F120.00
G01 X138.9881 Y-82.3142 F120.00
G01 X139.0008 Y-82.2786 F120.00
G01 X139.0096 Y-82.2573 F120.00
G01 X139.0258 Y-82.2231 F120.00
G01 X139.0366 Y-82.2028 F120.00
G01 X139.0561 Y-82.1704 F120.00
G01 X139.0689 Y-82.1512 F120.00
G01 X139.0914 Y-82.1209 F120.00
G01 X139.1060 Y-82.1030 F120.00
G01 X139.1314 Y-82.0750 F120.00
G01 X139.1477 Y-82.0587 F120.00
G01 X139.1757 Y-82.0334 F120.00
G01 X139.1935 Y-82.0187 F120.00
G01 X139.2239 Y-81.9962 F120.00
G01 X139.2430 Y-81.9834 F120.00
G01 X139.2754 Y-81.9640 F120.00
G01 X139.2958 Y-81.9531 F120.00
G01 X139.3299 Y-81.9370 F120.00
G01 X139.3512 Y-81.9281 F120.00
G01 X139.3868 Y-81.9154 F120.00
G01 X139.4380 Y-81.9014 F120.00
G01 X139.4380 Y-83.1088 F120.00
G01 X139.4860 Y-83.1178 F120.00
G01 X139.4860 Y-81.8924 F120.00
G01 X139.5340 Y-81.8870 F120.00
G01 X139.5340 Y-83.1232 F120.00
G01 X139.5820 Y-83.1248 F120.00
G01 X139.5820 Y-81.8854 F120.00
G01 X139.6300 Y-81.8875 F120.00
G01 X139.6300 Y-83.1226 F120.00
G01 X139.6780 Y-83.1165 F120.00
G01 X139.6780 Y-81.8937 F120.00
G01 X139.7260 Y-81.9036 F120.00
G01 X139.7260 Y-83.1066 F120.00
G01 X139.7740 Y-83.0928 F120.00
G01 X139.7740 Y-81.9173 F120.00
G01 X139.8220 Y-81.9355 F120.00
G01 X139.8220 Y-83.0747 F120.00
G01 X139.8700 Y-83.0515 F120.00
G01 X139.8700 Y-81.9587 F120.00
G01 X139.9180 Y-81.9872 F120.00
G01 X139.9180 Y-83.0230 F120.00
G01 X139.9660 Y-82.9881 F120.00
G01 X139.9660 Y-82.0221 F120.00
G01 X140.0140 Y-82.0650 F120.00
G01 X140.0140 Y-82.9452 F120.00
G01 X140.0620 Y-82.8918 F120.00
G01 X140.0620 Y-82.1184 F120.00
G01 X140.1100 Y-82.1881 F120.00
G01 X140.1100 Y-82.8220 F120.00
G01 X140.1580 Y-82.7222 F120.00
G01 X140.1580 Y-82.2880 F120.00
M5
G00 X141.8283 Y-82.7109
G01 F60.00
M03 S1000.0
G01 F120.00
G01 X141.8283 Y-83.1891 F120.00
M5
G00 X141.8763 Y-82.6187
G01 F60.00
M03 S1000.0
G01 F120.00
G01 X141.8763 Y-83.2813 F120.00
G01 X141.9243 Y-83.3472 F120.00
G01 X141.9243 Y-82.5528 F120.00
G01 X141.9723 Y-82.5015 F120.00
G01 X141.9723 Y-83.3985 F120.00
G01 X142.0203 Y-83.4397 F120.00
G01 X142.0203 Y-82.4603 F120.00
G01 X142.0683 Y-82.4265 F120.00
G01 X142.0683 Y-83.4735 F120.00
G01 X142.1163 Y-83.5010 F120.00
G01 X142.1163 Y-82.3990 F120.00
G01 X142.1643 Y-82.3769 F120.00
G01 X142.1643 Y-83.5231 F120.00
G01 X142.2123 Y-83.5406 F120.00
G01 X142.2123 Y-82.3594 F120.00
G01 X142.2091 Y-82.3603 F120.00
G01 X142.2311 Y-82.3536 F120.00
G01 X142.2678 Y-82.3445 F120.00
G01 X142.2904 Y-82.3400 F120.00
G01 X142.3278 Y-82.3344 F120.00
G01 X142.3507 Y-82.3322 F120.00
G01 X142.3885 Y-82.3303 F120.00
G01 X142.4115 Y-82.3303 F120.00
G01 X142.4493 Y-82.3322 F120.00
G01 X142.4722 Y-82.3344 F120.00
G01 X142.5096 Y-82.3400 F120.00
G01 X142.5322 Y-82.3445 F120.00
G01 X142.5689 Y-82.3536 F120.00
G01 X142.5909 Y-82.3603 F120.00
G01 X142.6265 Y-82.3731 F120.00
G01 X142.6478 Y-82.3819 F120.00
G01 X142.6820 Y-82.3980 F120.00
G01 X142.7023 Y-82.4089 F120.00
G01 X142.7347 Y-82.4283 F120.00
G01 X142.7539 Y-82.4411 F120.00
G01 X142.7842 Y-82.4637 F120.00
G01 X142.8020 Y-82.4783 F120.00
G01 X142.8300 Y-82.5037 F120.00
G01 X142.8463 Y-82.5200 F120.00
G01 X142.8717 Y-82.5480 F120.00
G01 X142.8863 Y-82.5658 F120.00
G01 X142.9089 Y-82.5961 F120.00
G01 X142.9217 Y-82.6153 F120.00
G01 X142.9411 Y-82.6477 F120.00
G01 X142.9520 Y-82.6680 F120.00
G01 X142.9681 Y-82.7022 F120.00
G01 X142.9769 Y-82.7235 F120.00
G01 X142.9897 Y-82.7591 F120.00
G01 X142.9964 Y-82.7811 F120.00
G01 X143.0055 Y-82.8178 F120.00
G01 X143.0100 Y-82.8404 F120.00
G01 X143.0156 Y-82.8778 F120.00
G01 X143.0178 Y-82.9007 F120.00
G01 X143.0197 Y-82.9385 F120.00
G01 X143.0197 Y-82.9615 F120.00
G01 X143.0178 Y-82.9993 F120.00
G01 X143.0156 Y-83.0222 F120.00
G01 X143.0100 Y-83.0596 F120.00
G01 X143.0055 Y-83.0822 F120.00
G01 X142.9964 Y-83.1189 F120.00
G01 X142.9897 Y-83.1409 F120.00
G01 X142.9769 Y-83.1765 F120.00
G01 X142.9681 Y-83.1978 F120.00
G01 X142.9520 Y-83.2320 F120.00
G01 X142.9411 Y-83.2523 F120.00
G01 X142.9217 Y-83.2847 F120.00
G01 X142.9089 Y-83.3039 F120.00
G01 X142.8863 Y-83.3342 F120.00
G01 X142.8717 Y-83.3520 F120.00
G01 X142.8463 Y-83.3800 F120.00
G01 X142.8300 Y-83.3963 F120.00
G01 X142.8020 Y-83.4217 F120.00
G01 X142.7842 Y-83.4363 F120.00
G01 X142.7539 Y-83.4589 F120.00
G01 X142.7347 Y-83.4717 F120.00
G01 X142.7023 Y-83.4911 F120.00
G01 X142.6820 Y-83.5020 F120.00
G01 X142.6478 Y-83.5181 F120.00
G01 X142.6265 Y-83.5269 F120.00
G01 X142.5909 Y-83.5397 F120.00
G01 X142.5689 Y-83.5464 F120.00
G01 X142.5322 Y-83.5555 F120.00
G01 X142.5096 Y-83.5600 F120.00
G01 X142.4722 Y-83.5656 F120.00
G01 X142.4493 Y-83.5678 F120.00
G01 X142.4115 Y-83.5697 F120.00
G01 X142.3885 Y-83.5697 F120.00
G01 X142.3507 Y-83.5678 F120.00
G01 X142.3278 Y-83.5656 F120.00
G01 X142.2904 Y-83.5600 F120.00
G01 X142.2678 Y-83.5555 F120.00
G01 X142.2311 Y-83.5464 F120.00
G01 X142.2091 Y-83.5397 F120.00
G01 X142.1735 Y-83.5269 F120.00
G01 X142.1522 Y-83.5181 F120.00
G01 X142.1180 Y-83.5020 F120.00
G01 X142.0977 Y-83.4911 F120.00
G01 X142.0653 Y-83.4717 F120.00
G01 X142.0461 Y-83.4589 F120.00
G01 X142.0158 Y-83.4363 F120.00
G01 X141.9980 Y-83.4217 F120.00
G01 X141.9700 Y-83.3963 F120.00
G01 X141.9537 Y-83.3800 F120.00
G01 X141.9283 Y-83.3520 F120.00
G01 X141.9137 Y-83.3342 F120.00
G01 X141.8911 Y-83.3039 F120.00
G01 X141.8783 Y-83.2847 F120.00
G01 X141.8589 Y-83.2523 F120.00
G01 X141.8480 Y-83.2320 F120.00
G01 X141.8319 Y-83.1978 F120.00
G01 X141.8231 Y-83.1765 F120.00
G01 X141.8103 Y-83.1409 F120.00
G01 X141.8036 Y-83.1189 F120.00
G01 X141.7945 Y-83.0822 F120.00
G01 X141.7900 Y-83.0596 F120.00
G01 X141.7844 Y-83.0222 F120.00
G01 X141.7822 Y-82.9993 F120.00
G01 X141.7803 Y-82.9615 F120.00
G01 X141.7803 Y-82.9385 F120.00
G01 X141.7822 Y-82.9007 F120.00
G01 X141.7844 Y-82.8778 F120.00
G01 X141.7900 Y-82.8404 F120.00
G01 X141.7945 Y-82.8178 F120.00
G01 X141.8036 Y-82.7811 F120.00
G01 X141.8103 Y-82.7591 F120.00
G01 X141.8231 Y-82.7235 F120.00
G01 X141.8319 Y-82.7022 F120.00
G01 X141.8480 Y-82.6680 F120.00
G01 X141.8589 Y-82.6477 F120.00
G01 X141.8783 Y-82.6153 F120.00
G01 X141.8911 Y-82.5961 F120.00
G01 X141.9137 Y-82.5658 F120.00
G01 X141.9283 Y-82.5480 F120.00
G01 X141.9537 Y-82.5200 F120.00
G01 X141.9700 Y-82.5037 F120.00
G01 X141.9980 Y-82.4783 F120.00
G01 X142.0158 Y-82.4637 F120.00
G01 X142.0461 Y-82.4411 F120.00
G01 X142.0653 Y-82.4283 F120.00
G01 X142.0977 Y-82.4089 F120.00
G01 X142.1180 Y-82.3980 F120.00
G01 X142.1522 Y-82.3819 F120.00
G01 X142.1735 Y-82.3731 F120.00
G01 X142.2091 Y-82.3603 F120.00
G01 X142.2603 Y-82.3463 F120.00
G01 X142.2603 Y-83.5537 F120.00
G01 X142.3083 Y-83.5627 F120.00
G01 X142.3083 Y-82.3373 F120.00
G01 X142.3563 Y-82.3319 F120.00
G01 X142.3563 Y-83.5681 F120.00
G01 X142.4043 Y-83.5697 F120.00
G01 X142.4043 Y-82.3303 F120.00
G01 X142.4523 Y-82.3325 F120.00
G01 X142.4523 Y-83.5675 F120.00
G01 X142.5003 Y-83.5614 F120.00
G01 X142.5003 Y-82.3386 F120.00
G01 X142.5483 Y-82.3485 F120.00
G01 X142.5483 Y-83.5515 F120.00
G01 X142.5963 Y-83.5377 F120.00
G01 X142.5963 Y-82.3623 F120.00
G01 X142.6443 Y-82.3804 F120.00
G01 X142.6443 Y-83.5196 F120.00
G01 X142.6923 Y-83.4964 F120.00
G01 X142.6923 Y-82.4036 F120.00
G01 X142.7403 Y-82.4321 F120.00
G01 X142.7403 Y-83.4679 F120.00
G01 X142.7883 Y-83.4330 F120.00
G01 X142.7883 Y-82.4670 F120.00
G01 X142.8363 Y-82.5099 F120.00
G01 X142.8363 Y-83.3901 F120.00
G01 X142.8843 Y-83.3367 F120.00
G01 X142.8843 Y-82.5633 F120.00
G01 X142.9323 Y-82.6330 F120.00
G01 X142.9323 Y-83.2670 F120.00
G01 X142.9803 Y-83.1671 F120.00
G01 X142.9803 Y-82.7329 F120.00
M5
G00 X144.2180 Y-83.6089
G01 F60.00
M03 S1000.0
G01 F120.00
G01 X144.9505 Y-83.6089 F120.00
G01 X144.9025 Y-83.5609 F120.00
G01 X144.2364 Y-83.5609 F120.00
G01 X144.2684 Y-83.5129 F120.00
G01 X144.8545 Y-83.5129 F120.00
G01 X144.8065 Y-83.4649 F120.00
G01 X144.3151 Y-83.4649 F120.00
G01 X144.3631 Y-83.4169 F120.00
G01 X144.7585 Y-83.4169 F120.00
G01 X144.7066 Y-83.3689 F120.00
G01 X144.4150 Y-83.3689 F120.00
M5
G00 X144.2090 Y-83.6569
G01 F60.00
M03 S1000.0
G01 F120.00
G01 X144.9985 Y-83.6569 F120.00
G01 X145.0465 Y-83.7049 F120.00
G01 X144.0890 Y-83.7049 F120.00
G01 X144.0271 Y-83.7529 F120.00
G01 X145.0945 Y-83.7529 F120.00
G01 X145.1425 Y-83.8009 F120.00
G01 X143.9791 Y-83.8009 F120.00
G01 X143.9311 Y-83.8489 F120.00
G01 X145.1905 Y-83.8489 F120.00
G01 X145.2385 Y-83.8969 F120.00
G01 X143.8926 Y-83.8969 F120.00
G01 X143.8698 Y-83.9449 F120.00
G01 X145.2865 Y-83.9449 F120.00
G01 X145.3345 Y-83.9929 F120.00
G01 X143.8584 Y-83.9929 F120.00
M5
G00 X143.7749 Y-84.0409
G01 F60.00
M03 S1000.0
G01 F120.00
G01 X145.3825 Y-84.0409 F120.00
G01 X145.4305 Y-84.0889 F120.00
G01 X143.6919 Y-84.0889 F120.00
G01 X143.6431 Y-84.1369 F120.00
G01 X145.4785 Y-84.1369 F120.00
G01 X145.5265 Y-84.1849 F120.00
G01 X143.5951 Y-84.1849 F120.00
G01 X143.5509 Y-84.2329 F120.00
G01 X145.5745 Y-84.2329 F120.00
G01 X145.6225 Y-84.2809 F120.00
G01 X143.5232 Y-84.2809 F120.00
G01 X143.5080 Y-84.3289 F120.00
G01 X145.6705 Y-84.3289 F120.00
G01 X145.7079 Y-84.3769 F120.00
G01 X143.4919 Y-84.3769 F120.00
M5
G00 X143.3610 Y-84.4249
G01 F60.00
M03 S1000.0
G01 F120.00
G01 X145.7299 Y-84.4249 F120.00
G01 X145.7407 Y-84.4729 F120.00
G01 X143.3071 Y-84.4729 F120.00
G01 X143.2591 Y-84.5209 F120.00
G01 X145.7418 Y-84.5209 F120.00
G01 X145.7334 Y-84.5689 F120.00
G01 X143.2117 Y-84.5689 F120.00
G01 X143.1783 Y-84.6169 F120.00
G01 X145.7141 Y-84.6169 F120.00
G01 X145.6811 Y-84.6649 F120.00
G01 X143.1588 Y-84.6649 F120.00
M5
G00 X143.1498 Y-84.7129
G01 F60.00
M03 S1000.0
G01 F120.00
G01 X145.6339 Y-84.7129 F120.00
G01 X145.5859 Y-84.7609 F120.00
G01 X143.0370 Y-84.7609 F120.00
G01 X142.9711 Y-84.8089 F120.00
G01 X145.5325 Y-84.8089 F120.00
M5
G00 X142.7984 Y-85.0489
G01 F60.00
M03 S1000.0
G01 F120.00
G01 X145.2979 Y-85.0489 F120.00
G01 X145.3417 Y-85.0009 F120.00
G01 X142.8108 Y-85.0009 F120.00
G01 X142.8350 Y-84.9529 F120.00
G01 X145.3690 Y-84.9529 F120.00
G01 X145.3840 Y-84.9049 F120.00
G01 X142.8751 Y-84.9049 F120.00
G01 X142.9231 Y-84.8569 F120.00
G01 X145.4015 Y-84.8569 F120.00
M5
G00 X145.1203 Y-85.1929
G01 F60.00
M03 S1000.0
G01 F120.00
G01 X142.5871 Y-85.1929 F120.00
G01 X142.6369 Y-85.1449 F120.00
G01 X145.2012 Y-85.1449 F120.00
G01 X145.2499 Y-85.0969 F120.00
G01 X142.7296 Y-85.0969 F120.00
M5
G00 X142.4363 Y-85.4329
G01 F60.00
M03 S1000.0
G01 F120.00
G01 X144.9139 Y-85.4329 F120.00
G01 X144.9619 Y-85.3849 F120.00
G01 X142.4483 Y-85.3849 F120.00
G01 X142.4646 Y-85.3369 F120.00
G01 X144.9999 Y-85.3369 F120.00
G01 X145.0223 Y-85.2889 F120.00
G01 X142.4939 Y-85.2889 F120.00
G01 X142.5391 Y-85.2409 F120.00
G01 X145.0335 Y-85.2409 F120.00
M5
G00 X144.6832 Y-85.5769
G01 F60.00
M03 S1000.0
G01 F120.00
G01 X142.2031 Y-85.5769 F120.00
G01 X142.2511 Y-85.5289 F120.00
G01 X144.8050 Y-85.5289 F120.00
G01 X144.8659 Y-85.4809 F120.00
G01 X142.3073 Y-85.4809 F120.00
M5
G00 X141.7386 Y-86.1049
G01 F60.00
M03 S1000.0
G01 F120.00
G01 X144.2419 Y-86.1049 F120.00
G01 X144.2842 Y-86.0569 F120.00
G01 X141.7521 Y-86.0569 F120.00
G01 X141.7775 Y-86.0089 F120.00
G01 X144.3103 Y-86.0089 F120.00
G01 X144.3243 Y-85.9609 F120.00
G01 X141.8191 Y-85.9609 F120.00
G01 X141.8671 Y-85.9129 F120.00
G01 X144.3548 Y-85.9129 F120.00
G01 X144.4784 Y-85.8649 F120.00
G01 X141.9152 Y-85.8649 F120.00
G01 X141.9862 Y-85.8169 F120.00
G01 X144.5299 Y-85.8169 F120.00
G01 X144.5779 Y-85.7689 F120.00
G01 X142.0898 Y-85.7689 F120.00
G01 X142.0995 Y-85.7209 F120.00
G01 X144.6243 Y-85.7209 F120.00
G01 X144.6560 Y-85.6729 F120.00
G01 X142.1201 Y-85.6729 F120.00
G01 X142.1553 Y-85.6249 F120.00
G01 X144.6741 Y-85.6249 F120.00
M5
G00 X144.0713 Y-86.2489
G01 F60.00
M03 S1000.0
G01 F120.00
G01 X141.5311 Y-86.2489 F120.00
G01 X141.5819 Y-86.2009 F120.00
G01 X144.1456 Y-86.2009 F120.00
G01 X144.1939 Y-86.1529 F120.00
G01 X141.6903 Y-86.1529 F120.00
M5
G00 X141.3789 Y-86.4889
G01 F60.00
M03 S1000.0
G01 F120.00
G01 X143.8579 Y-86.4889 F120.00
G01 X143.9057 Y-86.4409 F120.00
G01 X141.3887 Y-86.4409 F120.00
G01 X141.4061 Y-86.3929 F120.00
G01 X143.9420 Y-86.3929 F120.00
G01 X143.9631 Y-86.3449 F120.00
G01 X141.4371 Y-86.3449 F120.00
G01 X141.4831 Y-86.2969 F120.00
G01 X143.9733 Y-86.2969 F120.00
M5
G00 X143.6252 Y-86.6329
G01 F60.00
M03 S1000.0
G01 F120.00
G01 X141.1471 Y-86.6329 F120.00
G01 X141.1951 Y-86.5849 F120.00
G01 X143.7524 Y-86.5849 F120.00
G01 X143.8099 Y-86.5369 F120.00
G01 X141.2540 Y-86.5369 F120.00
M5
G00 X140.6789 Y-87.1609
G01 F60.00
M03 S1000.0
G01 F120.00
G01 X143.1859 Y-87.1609 F120.00
G01 X143.2267 Y-87.1129 F120.00
G01 X140.6933 Y-87.1129 F120.00
G01 X140.7199 Y-87.0649 F120.00
G01 X143.2515 Y-87.0649 F120.00
G01 X143.2645 Y-87.0169 F120.00
G01 X140.7631 Y-87.0169 F120.00
G01 X140.8111 Y-86.9689 F120.00
G01 X143.3237 Y-86.9689 F120.00
G01 X143.4235 Y-86.9209 F120.00
G01 X140.8595 Y-86.9209 F120.00
G01 X140.9368 Y-86.8729 F120.00
G01 X143.4739 Y-86.8729 F120.00
G01 X143.5219 Y-86.8249 F120.00
G01 X141.0296 Y-86.8249 F120.00
G01 X141.0403 Y-86.7769 F120.00
G01 X143.5674 Y-86.7769 F120.00
G01 X143.5976 Y-86.7289 F120.00
G01 X141.0620 Y-86.7289 F120.00
G01 X141.0991 Y-86.6809 F120.00
G01 X143.6146 Y-86.6809 F120.00
M5
G00 X143.0215 Y-87.3049
G01 F60.00
M03 S1000.0
G01 F120.00
G01 X140.4751 Y-87.3049 F120.00
G01 X140.5273 Y-87.2569 F120.00
G01 X143.0898 Y-87.2569 F120.00
G01 X143.1379 Y-87.2089 F120.00
G01 X140.6572 Y-87.2089 F120.00
M5
G00 X140.3479 Y-87.4489
G01 F60.00
M03 S1000.0
G01 F120.00
G01 X142.8838 Y-87.4489 F120.00
G01 X142.9038 Y-87.4009 F120.00
G01 X140.3802 Y-87.4009 F120.00
G01 X140.4271 Y-87.3529 F120.00
G01 X142.9131 Y-87.3529 F120.00
M5
G00 X142.8495 Y-87.4969
G01 F60.00
M03 S1000.0
G01 F120.00
G01 X140.3292 Y-87.4969 F120.00
G01 X140.3213 Y-87.5449 F120.00
G01 X142.8019 Y-87.5449 F120.00
G01 X142.7539 Y-87.5929 F120.00
G01 X140.3229 Y-87.5929 F120.00
G01 X140.3342 Y-87.6409 F120.00
G01 X142.6987 Y-87.6409 F120.00
M5
G00 X142.5685 Y-87.6889
G01 F60.00
M03 S1000.0
G01 F120.00
G01 X140.3569 Y-87.6889 F120.00
G01 X140.3927 Y-87.7343 F120.00
G01 X140.3822 Y-87.7231 F120.00
G01 X140.3707 Y-87.7090 F120.00
G01 X140.3571 Y-87.6892 F120.00
G01 X140.3541 Y-87.6842 F120.00
G01 X140.3455 Y-87.6682 F120.00
G01 X140.3360 Y-87.6461 F120.00
G01 X140.3340 Y-87.6405 F120.00
G01 X140.3273 Y-87.6174 F120.00
G01 X140.3229 Y-87.5938 F120.00
G01 X140.3209 Y-87.5699 F120.00
G01 X140.3212 Y-87.5458 F120.00
G01 X140.3238 Y-87.5219 F120.00
G01 X140.3288 Y-87.4984 F120.00
G01 X140.3360 Y-87.4755 F120.00
G01 X140.3430 Y-87.4587 F120.00
G01 X140.3541 Y-87.4374 F120.00
G01 X140.3672 Y-87.4173 F120.00
G01 X140.3822 Y-87.3985 F120.00
G01 X140.3927 Y-87.3873 F120.00
G01 X140.4982 Y-87.2817 F120.00
G01 X140.5094 Y-87.2713 F120.00
G01 X140.5282 Y-87.2563 F120.00
G01 X140.5483 Y-87.2431 F120.00
G01 X140.5696 Y-87.2321 F120.00
G01 X140.5864 Y-87.2251 F120.00
G01 X140.5920 Y-87.2231 F120.00
G01 X140.6150 Y-87.2164 F120.00
G01 X140.6329 Y-87.2129 F120.00
G01 X140.6493 Y-87.2110 F120.00
G01 X140.6537 Y-87.2101 F120.00
G01 X140.6605 Y-87.2073 F120.00
G01 X140.6635 Y-87.2053 F120.00
G01 X140.6669 Y-87.2024 F120.00
G01 X140.6714 Y-87.1966 F120.00
G01 X140.6744 Y-87.1899 F120.00
G01 X140.6753 Y-87.1856 F120.00
G01 X140.6774 Y-87.1684 F120.00
G01 X140.6823 Y-87.1449 F120.00
G01 X140.6896 Y-87.1220 F120.00
G01 X140.6965 Y-87.1052 F120.00
G01 X140.6991 Y-87.0999 F120.00
G01 X140.7106 Y-87.0788 F120.00
G01 X140.7242 Y-87.0590 F120.00
G01 X140.7357 Y-87.0449 F120.00
G01 X140.7462 Y-87.0337 F120.00
G01 X140.8518 Y-86.9282 F120.00
G01 X140.8630 Y-86.9177 F120.00
G01 X140.8817 Y-86.9027 F120.00
G01 X140.9019 Y-86.8896 F120.00
G01 X140.9232 Y-86.8785 F120.00
G01 X140.9400 Y-86.8716 F120.00
G01 X140.9455 Y-86.8696 F120.00
G01 X140.9686 Y-86.8629 F120.00
G01 X140.9864 Y-86.8593 F120.00
G01 X141.0029 Y-86.8574 F120.00
G01 X141.0072 Y-86.8566 F120.00
G01 X141.0140 Y-86.8537 F120.00
G01 X141.0171 Y-86.8517 F120.00
G01 X141.0204 Y-86.8489 F120.00
G01 X141.0229 Y-86.8461 F120.00
G01 X141.0253 Y-86.8424 F120.00
G01 X141.0281 Y-86.8356 F120.00
G01 X141.0290 Y-86.8313 F120.00
G01 X141.0309 Y-86.8148 F120.00
G01 X141.0345 Y-86.7970 F120.00
G01 X141.0359 Y-86.7913 F120.00
G01 X141.0431 Y-86.7684 F120.00
G01 X141.0526 Y-86.7463 F120.00
G01 X141.0642 Y-86.7252 F120.00
G01 X141.0743 Y-86.7102 F120.00
G01 X141.0893 Y-86.6914 F120.00
G01 X141.0998 Y-86.6802 F120.00
G01 X141.2119 Y-86.5684 F120.00
G01 X141.2165 Y-86.5642 F120.00
G01 X141.2353 Y-86.5491 F120.00
G01 X141.2554 Y-86.5360 F120.00
G01 X141.2768 Y-86.5250 F120.00
G01 X141.2991 Y-86.5160 F120.00
G01 X141.3164 Y-86.5108 F120.00
G01 X141.3400 Y-86.5058 F120.00
G01 X141.3572 Y-86.5038 F120.00
G01 X141.3615 Y-86.5028 F120.00
G01 X141.3682 Y-86.4998 F120.00
G01 X141.3740 Y-86.4953 F120.00
G01 X141.3785 Y-86.4895 F120.00
G01 X141.3815 Y-86.4828 F120.00
G01 X141.3824 Y-86.4785 F120.00
G01 X141.3845 Y-86.4613 F120.00
G01 X141.3894 Y-86.4378 F120.00
G01 X141.3967 Y-86.4148 F120.00
G01 X141.4036 Y-86.3981 F120.00
G01 X141.4147 Y-86.3767 F120.00
G01 X141.4278 Y-86.3566 F120.00
G01 X141.4429 Y-86.3378 F120.00
G01 X141.4533 Y-86.3266 F120.00
G01 X141.5589 Y-86.2211 F120.00
G01 X141.5701 Y-86.2106 F120.00
G01 X141.5888 Y-86.1956 F120.00
G01 X141.6090 Y-86.1825 F120.00
G01 X141.6303 Y-86.1714 F120.00
G01 X141.6471 Y-86.1645 F120.00
G01 X141.6526 Y-86.1625 F120.00
G01 X141.6757 Y-86.1558 F120.00
G01 X141.6935 Y-86.1522 F120.00
G01 X141.7100 Y-86.1503 F120.00
G01 X141.7143 Y-86.1495 F120.00
G01 X141.7211 Y-86.1466 F120.00
G01 X141.7242 Y-86.1446 F120.00
G01 X141.7275 Y-86.1418 F120.00
G01 X141.7321 Y-86.1360 F120.00
G01 X141.7350 Y-86.1292 F120.00
G01 X141.7360 Y-86.1249 F120.00
G01 X141.7380 Y-86.1077 F120.00
G01 X141.7430 Y-86.0842 F120.00
G01 X141.7502 Y-86.0613 F120.00
G01 X141.7572 Y-86.0445 F120.00
G01 X141.7683 Y-86.0232 F120.00
G01 X141.7814 Y-86.0030 F120.00
G01 X141.7964 Y-85.9843 F120.00
G01 X141.8006 Y-85.9796 F120.00
G01 X141.9124 Y-85.8675 F120.00
G01 X141.9236 Y-85.8571 F120.00
G01 X141.9424 Y-85.8420 F120.00
G01 X141.9625 Y-85.8289 F120.00
G01 X141.9839 Y-85.8179 F120.00
G01 X142.0006 Y-85.8109 F120.00
G01 X142.0062 Y-85.8089 F120.00
G01 X142.0293 Y-85.8022 F120.00
G01 X142.0471 Y-85.7987 F120.00
G01 X142.0635 Y-85.7968 F120.00
G01 X142.0679 Y-85.7959 F120.00
G01 X142.0747 Y-85.7931 F120.00
G01 X142.0777 Y-85.7911 F120.00
G01 X142.0811 Y-85.7882 F120.00
G01 X142.0856 Y-85.7824 F120.00
G01 X142.0886 Y-85.7757 F120.00
G01 X142.0896 Y-85.7714 F120.00
G01 X142.0916 Y-85.7542 F120.00
G01 X142.0965 Y-85.7307 F120.00
G01 X142.1038 Y-85.7077 F120.00
G01 X142.1107 Y-85.6910 F120.00
G01 X142.1133 Y-85.6856 F120.00
G01 X142.1248 Y-85.6646 F120.00
G01 X142.1384 Y-85.6448 F120.00
G01 X142.1500 Y-85.6307 F120.00
G01 X142.1604 Y-85.6195 F120.00
G01 X142.2660 Y-85.5140 F120.00
G01 X142.2772 Y-85.5035 F120.00
G01 X142.2959 Y-85.4885 F120.00
G01 X142.3161 Y-85.4754 F120.00
G01 X142.3374 Y-85.4643 F120.00
G01 X142.3542 Y-85.4574 F120.00
G01 X142.3597 Y-85.4554 F120.00
G01 X142.3828 Y-85.4487 F120.00
G01 X142.4006 Y-85.4451 F120.00
G01 X142.4171 Y-85.4432 F120.00
G01 X142.4214 Y-85.4423 F120.00
G01 X142.4282 Y-85.4395 F120.00
G01 X142.4313 Y-85.4375 F120.00
G01 X142.4346 Y-85.4346 F120.00
G01 X142.4371 Y-85.4319 F120.00
G01 X142.4395 Y-85.4282 F120.00
G01 X142.4423 Y-85.4214 F120.00
G01 X142.4432 Y-85.4171 F120.00
G01 X142.4451 Y-85.4006 F120.00
G01 X142.4487 Y-85.3828 F120.00
G01 X142.4501 Y-85.3771 F120.00
G01 X142.4573 Y-85.3542 F120.00
G01 X142.4668 Y-85.3321 F120.00
G01 X142.4784 Y-85.3110 F120.00
G01 X142.4885 Y-85.2959 F120.00
G01 X142.5035 Y-85.2772 F120.00
G01 X142.5140 Y-85.2660 F120.00
G01 X142.6261 Y-85.1542 F120.00
G01 X142.6307 Y-85.1500 F120.00
G01 X142.6495 Y-85.1349 F120.00
G01 X142.6696 Y-85.1218 F120.00
G01 X142.6910 Y-85.1107 F120.00
G01 X142.7133 Y-85.1018 F120.00
G01 X142.7307 Y-85.0965 F120.00
G01 X142.7542 Y-85.0916 F120.00
G01 X142.7714 Y-85.0896 F120.00
G01 X142.7757 Y-85.0886 F120.00
G01 X142.7824 Y-85.0856 F120.00
G01 X142.7882 Y-85.0811 F120.00
G01 X142.7906 Y-85.0783 F120.00
G01 X142.7931 Y-85.0747 F120.00
G01 X142.7959 Y-85.0679 F120.00
G01 X142.7968 Y-85.0636 F120.00
G01 X142.7987 Y-85.0471 F120.00
G01 X142.8022 Y-85.0293 F120.00
G01 X142.8037 Y-85.0235 F120.00
G01 X142.8109 Y-85.0006 F120.00
G01 X142.8204 Y-84.9785 F120.00
G01 X142.8320 Y-84.9575 F120.00
G01 X142.8420 Y-84.9424 F120.00
G01 X142.8571 Y-84.9236 F120.00
G01 X142.8675 Y-84.9124 F120.00
G01 X142.9796 Y-84.8006 F120.00
G01 X142.9843 Y-84.7964 F120.00
G01 X143.0030 Y-84.7814 F120.00
G01 X143.0232 Y-84.7683 F120.00
G01 X143.0445 Y-84.7572 F120.00
G01 X143.0668 Y-84.7483 F120.00
G01 X143.0842 Y-84.7430 F120.00
G01 X143.1077 Y-84.7380 F120.00
G01 X143.1249 Y-84.7360 F120.00
G01 X143.1292 Y-84.7350 F120.00
G01 X143.1360 Y-84.7321 F120.00
G01 X143.1418 Y-84.7275 F120.00
G01 X143.1463 Y-84.7217 F120.00
G01 X143.1492 Y-84.7150 F120.00
G01 X143.1502 Y-84.7107 F120.00
G01 X143.1522 Y-84.6935 F120.00
G01 X143.1572 Y-84.6700 F120.00
G01 X143.1645 Y-84.6471 F120.00
G01 X143.1714 Y-84.6303 F120.00
G01 X143.1825 Y-84.6090 F120.00
G01 X143.1956 Y-84.5888 F120.00
G01 X143.2106 Y-84.5701 F120.00
G01 X143.2148 Y-84.5654 F120.00
G01 X143.3266 Y-84.4533 F120.00
G01 X143.3378 Y-84.4429 F120.00
G01 X143.3566 Y-84.4278 F120.00
G01 X143.3767 Y-84.4147 F120.00
G01 X143.3981 Y-84.4036 F120.00
G01 X143.4148 Y-84.3967 F120.00
G01 X143.4204 Y-84.3947 F120.00
G01 X143.4435 Y-84.3880 F120.00
G01 X143.4613 Y-84.3845 F120.00
G01 X143.4778 Y-84.3825 F120.00
G01 X143.4821 Y-84.3817 F120.00
G01 X143.4889 Y-84.3789 F120.00
G01 X143.4920 Y-84.3769 F120.00
G01 X143.4953 Y-84.3740 F120.00
G01 X143.4977 Y-84.3712 F120.00
G01 X143.5002 Y-84.3676 F120.00
G01 X143.5030 Y-84.3608 F120.00
G01 X143.5039 Y-84.3564 F120.00
G01 X143.5058 Y-84.3400 F120.00
G01 X143.5093 Y-84.3222 F120.00
G01 X143.5108 Y-84.3164 F120.00
G01 X143.5180 Y-84.2935 F120.00
G01 X143.5275 Y-84.2714 F120.00
G01 X143.5391 Y-84.2504 F120.00
G01 X143.5491 Y-84.2353 F120.00
G01 X143.5642 Y-84.2165 F120.00
G01 X143.5746 Y-84.2053 F120.00
G01 X143.6802 Y-84.0998 F120.00
G01 X143.6914 Y-84.0893 F120.00
G01 X143.7101 Y-84.0743 F120.00
G01 X143.7252 Y-84.0642 F120.00
G01 X143.7303 Y-84.0612 F120.00
G01 X143.7516 Y-84.0501 F120.00
G01 X143.7739 Y-84.0412 F120.00
G01 X143.7913 Y-84.0359 F120.00
G01 X143.8148 Y-84.0309 F120.00
G01 X143.8320 Y-84.0289 F120.00
G01 X143.8364 Y-84.0279 F120.00
G01 X143.8431 Y-84.0249 F120.00
G01 X143.8489 Y-84.0204 F120.00
G01 X143.8513 Y-84.0177 F120.00
G01 X143.8537 Y-84.0140 F120.00
G01 X143.8566 Y-84.0072 F120.00
G01 X143.8574 Y-84.0029 F120.00
G01 X143.8593 Y-83.9864 F120.00
G01 X143.8629 Y-83.9686 F120.00
G01 X143.8643 Y-83.9629 F120.00
G01 X143.8716 Y-83.9400 F120.00
G01 X143.8810 Y-83.9179 F120.00
G01 X143.8926 Y-83.8968 F120.00
G01 X143.9027 Y-83.8817 F120.00
G01 X143.9177 Y-83.8630 F120.00
G01 X143.9282 Y-83.8518 F120.00
G01 X144.0403 Y-83.7399 F120.00
G01 X144.0449 Y-83.7357 F120.00
G01 X144.0637 Y-83.7207 F120.00
G01 X144.0838 Y-83.7076 F120.00
G01 X144.1052 Y-83.6965 F120.00
G01 X144.1275 Y-83.6876 F120.00
G01 X144.1449 Y-83.6823 F120.00
G01 X144.1684 Y-83.6774 F120.00
G01 X144.1856 Y-83.6753 F120.00
G01 X144.1899 Y-83.6744 F120.00
G01 X144.1966 Y-83.6714 F120.00
G01 X144.2024 Y-83.6669 F120.00
G01 X144.2048 Y-83.6641 F120.00
G01 X144.2073 Y-83.6605 F120.00
G01 X144.2101 Y-83.6537 F120.00
G01 X144.2110 Y-83.6493 F120.00
G01 X144.2129 Y-83.6329 F120.00
G01 X144.2164 Y-83.6150 F120.00
G01 X144.2179 Y-83.6093 F120.00
G01 X144.2251 Y-83.5864 F120.00
G01 X144.2346 Y-83.5643 F120.00
G01 X144.2462 Y-83.5433 F120.00
G01 X144.2563 Y-83.5282 F120.00
G01 X144.2713 Y-83.5094 F120.00
G01 X144.2817 Y-83.4982 F120.00
G01 X144.3873 Y-83.3927 F120.00
G01 X144.3985 Y-83.3822 F120.00
G01 X144.4173 Y-83.3672 F120.00
G01 X144.4374 Y-83.3541 F120.00
G01 X144.4534 Y-83.3455 F120.00
G01 X144.4587 Y-83.3430 F120.00
G01 X144.4810 Y-83.3340 F120.00
G01 X144.5041 Y-83.3273 F120.00
G01 X144.5219 Y-83.3238 F120.00
G01 X144.5278 Y-83.3229 F120.00
G01 X144.5517 Y-83.3209 F120.00
G01 X144.5757 Y-83.3212 F120.00
G01 X144.5996 Y-83.3238 F120.00
G01 X144.6231 Y-83.3288 F120.00
G01 X144.6405 Y-83.3340 F120.00
G01 X144.6461 Y-83.3360 F120.00
G01 X144.6682 Y-83.3455 F120.00
G01 X144.6892 Y-83.3571 F120.00
G01 X144.7043 Y-83.3672 F120.00
G01 X144.7231 Y-83.3822 F120.00
G01 X144.7343 Y-83.3927 F120.00
G01 X145.6707 Y-84.3290 F120.00
G01 X145.6811 Y-84.3403 F120.00
G01 X145.6927 Y-84.3543 F120.00
G01 X145.6962 Y-84.3590 F120.00
G01 X145.7093 Y-84.3792 F120.00
G01 X145.7204 Y-84.4005 F120.00
G01 X145.7293 Y-84.4228 F120.00
G01 X145.7360 Y-84.4459 F120.00
G01 X145.7404 Y-84.4695 F120.00
G01 X145.7425 Y-84.4935 F120.00
G01 X145.7422 Y-84.5175 F120.00
G01 X145.7395 Y-84.5414 F120.00
G01 X145.7346 Y-84.5649 F120.00
G01 X145.7273 Y-84.5878 F120.00
G01 X145.7204 Y-84.6046 F120.00
G01 X145.7093 Y-84.6259 F120.00
G01 X145.6962 Y-84.6461 F120.00
G01 X145.6811 Y-84.6648 F120.00
G01 X145.6707 Y-84.6761 F120.00
G01 X145.5651 Y-84.7816 F120.00
G01 X145.5539 Y-84.7921 F120.00
G01 X145.5352 Y-84.8071 F120.00
G01 X145.5150 Y-84.8202 F120.00
G01 X145.4937 Y-84.8313 F120.00
G01 X145.4769 Y-84.8382 F120.00
G01 X145.4714 Y-84.8402 F120.00
G01 X145.4483 Y-84.8469 F120.00
G01 X145.4305 Y-84.8504 F120.00
G01 X145.4140 Y-84.8524 F120.00
G01 X145.4097 Y-84.8532 F120.00
G01 X145.4029 Y-84.8560 F120.00
G01 X145.3998 Y-84.8580 F120.00
G01 X145.3965 Y-84.8609 F120.00
G01 X145.3919 Y-84.8667 F120.00
G01 X145.3890 Y-84.8734 F120.00
G01 X145.3880 Y-84.8777 F120.00
G01 X145.3860 Y-84.8950 F120.00
G01 X145.3810 Y-84.9185 F120.00
G01 X145.3737 Y-84.9414 F120.00
G01 X145.3668 Y-84.9582 F120.00
G01 X145.3557 Y-84.9795 F120.00
G01 X145.3426 Y-84.9996 F120.00
G01 X145.3276 Y-85.0184 F120.00
G01 X145.3171 Y-85.0296 F120.00
G01 X145.2116 Y-85.1352 F120.00
G01 X145.2004 Y-85.1456 F120.00
G01 X145.1816 Y-85.1606 F120.00
G01 X145.1615 Y-85.1737 F120.00
G01 X145.1401 Y-85.1848 F120.00
G01 X145.1234 Y-85.1918 F120.00
G01 X145.1178 Y-85.1938 F120.00
G01 X145.0947 Y-85.2005 F120.00
G01 X145.0769 Y-85.2040 F120.00
G01 X145.0604 Y-85.2059 F120.00
G01 X145.0561 Y-85.2068 F120.00
G01 X145.0493 Y-85.2096 F120.00
G01 X145.0462 Y-85.2116 F120.00
G01 X145.0429 Y-85.2145 F120.00
G01 X145.0384 Y-85.2203 F120.00
G01 X145.0354 Y-85.2270 F120.00
G01 X145.0344 Y-85.2313 F120.00
G01 X145.0324 Y-85.2485 F120.00
G01 X145.0274 Y-85.2720 F120.00
G01 X145.0202 Y-85.2949 F120.00
G01 X145.0132 Y-85.3117 F120.00
G01 X145.0022 Y-85.3330 F120.00
G01 X144.9891 Y-85.3532 F120.00
G01 X144.9740 Y-85.3719 F120.00
G01 X144.9636 Y-85.3832 F120.00
G01 X144.8580 Y-85.4887 F120.00
G01 X144.8468 Y-85.4992 F120.00
G01 X144.8281 Y-85.5142 F120.00
G01 X144.8079 Y-85.5273 F120.00
G01 X144.7866 Y-85.5384 F120.00
G01 X144.7698 Y-85.5453 F120.00
G01 X144.7643 Y-85.5473 F120.00
G01 X144.7412 Y-85.5540 F120.00
G01 X144.7234 Y-85.5575 F120.00
G01 X144.7069 Y-85.5595 F120.00
G01 X144.7026 Y-85.5603 F120.00
G01 X144.6958 Y-85.5631 F120.00
G01 X144.6927 Y-85.5652 F120.00
G01 X144.6894 Y-85.5680 F120.00
G01 X144.6848 Y-85.5738 F120.00
G01 X144.6819 Y-85.5805 F120.00
G01 X144.6809 Y-85.5848 F120.00
G01 X144.6789 Y-85.6021 F120.00
G01 X144.6739 Y-85.6256 F120.00
G01 X144.6666 Y-85.6485 F120.00
G01 X144.6597 Y-85.6653 F120.00
G01 X144.6486 Y-85.6866 F120.00
G01 X144.6355 Y-85.7067 F120.00
G01 X144.6205 Y-85.7255 F120.00
G01 X144.6100 Y-85.7367 F120.00
G01 X144.5045 Y-85.8423 F120.00
G01 X144.4933 Y-85.8527 F120.00
G01 X144.4745 Y-85.8677 F120.00
G01 X144.4544 Y-85.8809 F120.00
G01 X144.4330 Y-85.8919 F120.00
G01 X144.4163 Y-85.8989 F120.00
G01 X144.4107 Y-85.9009 F120.00
G01 X144.3876 Y-85.9076 F120.00
G01 X144.3698 Y-85.9111 F120.00
G01 X144.3533 Y-85.9130 F120.00
G01 X144.3490 Y-85.9139 F120.00
G01 X144.3422 Y-85.9167 F120.00
G01 X144.3391 Y-85.9187 F120.00
G01 X144.3358 Y-85.9216 F120.00
G01 X144.3313 Y-85.9274 F120.00
G01 X144.3283 Y-85.9341 F120.00
G01 X144.3273 Y-85.9384 F120.00
G01 X144.3253 Y-85.9556 F120.00
G01 X144.3203 Y-85.9791 F120.00
G01 X144.3131 Y-86.0020 F120.00
G01 X144.3061 Y-86.0188 F120.00
G01 X144.2951 Y-86.0401 F120.00
G01 X144.2820 Y-86.0603 F120.00
G01 X144.2669 Y-86.0791 F120.00
G01 X144.2565 Y-86.0903 F120.00
G01 X144.1509 Y-86.1958 F120.00
G01 X144.1397 Y-86.2063 F120.00
G01 X144.1210 Y-86.2213 F120.00
G01 X144.1008 Y-86.2344 F120.00
G01 X144.0795 Y-86.2455 F120.00
G01 X144.0627 Y-86.2524 F120.00
G01 X144.0572 Y-86.2544 F120.00
G01 X144.0341 Y-86.2611 F120.00
G01 X144.0163 Y-86.2647 F120.00
G01 X143.9998 Y-86.2666 F120.00
G01 X143.9955 Y-86.2674 F120.00
G01 X143.9887 Y-86.2703 F120.00
G01 X143.9856 Y-86.2723 F120.00
G01 X143.9822 Y-86.2751 F120.00
G01 X143.9777 Y-86.2809 F120.00
G01 X143.9747 Y-86.2876 F120.00
G01 X143.9738 Y-86.2920 F120.00
G01 X143.9718 Y-86.3092 F120.00
G01 X143.9668 Y-86.3327 F120.00
G01 X143.9595 Y-86.3556 F120.00
G01 X143.9526 Y-86.3724 F120.00
G01 X143.9415 Y-86.3937 F120.00
G01 X143.9284 Y-86.4138 F120.00
G01 X143.9134 Y-86.4326 F120.00
G01 X143.9029 Y-86.4438 F120.00
G01 X143.7974 Y-86.5494 F120.00
G01 X143.7862 Y-86.5598 F120.00
G01 X143.7674 Y-86.5749 F120.00
G01 X143.7473 Y-86.5880 F120.00
G01 X143.7259 Y-86.5990 F120.00
G01 X143.7091 Y-86.6060 F120.00
G01 X143.7036 Y-86.6080 F120.00
G01 X143.6805 Y-86.6147 F120.00
G01 X143.6627 Y-86.6182 F120.00
G01 X143.6462 Y-86.6201 F120.00
G01 X143.6419 Y-86.6210 F120.00
G01 X143.6351 Y-86.6238 F120.00
G01 X143.6320 Y-86.6258 F120.00
G01 X143.6287 Y-86.6287 F120.00
G01 X143.6242 Y-86.6345 F120.00
G01 X143.6212 Y-86.6412 F120.00
G01 X143.6202 Y-86.6455 F120.00
G01 X143.6182 Y-86.6627 F120.00
G01 X143.6132 Y-86.6862 F120.00
G01 X143.6060 Y-86.7091 F120.00
G01 X143.5990 Y-86.7259 F120.00
G01 X143.5880 Y-86.7473 F120.00
G01 X143.5748 Y-86.7674 F120.00
G01 X143.5598 Y-86.7862 F120.00
G01 X143.5494 Y-86.7974 F120.00
G01 X143.4438 Y-86.9029 F120.00
G01 X143.4326 Y-86.9134 F120.00
G01 X143.4138 Y-86.9284 F120.00
G01 X143.3937 Y-86.9415 F120.00
G01 X143.3724 Y-86.9526 F120.00
G01 X143.3556 Y-86.9595 F120.00
G01 X143.3501 Y-86.9615 F120.00
G01 X143.3270 Y-86.9682 F120.00
G01 X143.3092 Y-86.9718 F120.00
G01 X143.2927 Y-86.9737 F120.00
G01 X143.2884 Y-86.9745 F120.00
G01 X143.2816 Y-86.9774 F120.00
G01 X143.2785 Y-86.9794 F120.00
G01 X143.2751 Y-86.9822 F120.00
G01 X143.2706 Y-86.9880 F120.00
G01 X143.2676 Y-86.9947 F120.00
G01 X143.2667 Y-86.9991 F120.00
G01 X143.2647 Y-87.0163 F120.00
G01 X143.2597 Y-87.0398 F120.00
G01 X143.2524 Y-87.0627 F120.00
G01 X143.2455 Y-87.0795 F120.00
G01 X143.2344 Y-87.1008 F120.00
G01 X143.2213 Y-87.1210 F120.00
G01 X143.2063 Y-87.1397 F120.00
G01 X143.1958 Y-87.1509 F120.00
G01 X143.0903 Y-87.2565 F120.00
G01 X143.0791 Y-87.2669 F120.00
G01 X143.0603 Y-87.2820 F120.00
G01 X143.0401 Y-87.2951 F120.00
G01 X143.0188 Y-87.3061 F120.00
G01 X143.0020 Y-87.3131 F120.00
G01 X142.9965 Y-87.3151 F120.00
G01 X142.9734 Y-87.3218 F120.00
G01 X142.9556 Y-87.3253 F120.00
G01 X142.9391 Y-87.3272 F120.00
G01 X142.9348 Y-87.3281 F120.00
G01 X142.9280 Y-87.3309 F120.00
G01 X142.9249 Y-87.3329 F120.00
G01 X142.9216 Y-87.3358 F120.00
G01 X142.9171 Y-87.3416 F120.00
G01 X142.9141 Y-87.3483 F120.00
G01 X142.9131 Y-87.3526 F120.00
G01 X142.9111 Y-87.3698 F120.00
G01 X142.9061 Y-87.3933 F120.00
G01 X142.8989 Y-87.4163 F120.00
G01 X142.8919 Y-87.4330 F120.00
G01 X142.8809 Y-87.4544 F120.00
G01 X142.8677 Y-87.4745 F120.00
G01 X142.8527 Y-87.4933 F120.00
G01 X142.8485 Y-87.4979 F120.00
G01 X142.7367 Y-87.6100 F120.00
G01 X142.7255 Y-87.6205 F120.00
G01 X142.7067 Y-87.6355 F120.00
G01 X142.6866 Y-87.6486 F120.00
G01 X142.6653 Y-87.6597 F120.00
G01 X142.6485 Y-87.6666 F120.00
G01 X142.6429 Y-87.6686 F120.00
G01 X142.6199 Y-87.6753 F120.00
G01 X142.6021 Y-87.6789 F120.00
G01 X142.5856 Y-87.6808 F120.00
G01 X142.5812 Y-87.6817 F120.00
G01 X142.5745 Y-87.6845 F120.00
G01 X142.5714 Y-87.6865 F120.00
G01 X142.5680 Y-87.6894 F120.00
G01 X142.5635 Y-87.6951 F120.00
G01 X142.5605 Y-87.7019 F120.00
G01 X142.5596 Y-87.7062 F120.00
G01 X142.5575 Y-87.7234 F120.00
G01 X142.5540 Y-87.7412 F120.00
G01 X142.5526 Y-87.7469 F120.00
G01 X142.5453 Y-87.7698 F120.00
G01 X142.5384 Y-87.7866 F120.00
G01 X142.5273 Y-87.8079 F120.00
G01 X142.5142 Y-87.8281 F120.00
G01 X142.5107 Y-87.8328 F120.00
G01 X142.4992 Y-87.8468 F120.00
G01 X142.4950 Y-87.8515 F120.00
G01 X142.4887 Y-87.8580 F120.00
G01 X142.3832 Y-87.9636 F120.00
G01 X142.3719 Y-87.9740 F120.00
G01 X142.3579 Y-87.9856 F120.00
G01 X142.3532 Y-87.9891 F120.00
G01 X142.3330 Y-88.0022 F120.00
G01 X142.3117 Y-88.0133 F120.00
G01 X142.2949 Y-88.0202 F120.00
G01 X142.2894 Y-88.0222 F120.00
G01 X142.2720 Y-88.0275 F120.00
G01 X142.2663 Y-88.0289 F120.00
G01 X142.2485 Y-88.0324 F120.00
G01 X142.2320 Y-88.0343 F120.00
G01 X142.2277 Y-88.0352 F120.00
G01 X142.2209 Y-88.0380 F120.00
G01 X142.2178 Y-88.0400 F120.00
G01 X142.2145 Y-88.0429 F120.00
G01 X142.2100 Y-88.0487 F120.00
G01 X142.2070 Y-88.0554 F120.00
G01 X142.2060 Y-88.0597 F120.00
G01 X142.2040 Y-88.0769 F120.00
G01 X142.1990 Y-88.1004 F120.00
G01 X142.1918 Y-88.1234 F120.00
G01 X142.1848 Y-88.1401 F120.00
G01 X142.1823 Y-88.1455 F120.00
G01 X142.1707 Y-88.1665 F120.00
G01 X142.1571 Y-88.1863 F120.00
G01 X142.1456 Y-88.2004 F120.00
G01 X142.1352 Y-88.2116 F120.00
G01 X142.0296 Y-88.3171 F120.00
G01 X142.0184 Y-88.3276 F120.00
G01 X141.9996 Y-88.3426 F120.00
G01 X141.9795 Y-88.3557 F120.00
G01 X141.9582 Y-88.3668 F120.00
G01 X141.9414 Y-88.3738 F120.00
G01 X141.9358 Y-88.3757 F120.00
G01 X141.9128 Y-88.3824 F120.00
G01 X141.8950 Y-88.3860 F120.00
G01 X141.8785 Y-88.3879 F120.00
G01 X141.8741 Y-88.3888 F120.00
G01 X141.8674 Y-88.3916 F120.00
G01 X141.8643 Y-88.3936 F120.00
G01 X141.8609 Y-88.3965 F120.00
G01 X141.8585 Y-88.3992 F120.00
G01 X141.8560 Y-88.4029 F120.00
G01 X141.8532 Y-88.4097 F120.00
G01 X141.8524 Y-88.4140 F120.00
G01 X141.8504 Y-88.4305 F120.00
G01 X141.8469 Y-88.4483 F120.00
G01 X141.8455 Y-88.4540 F120.00
G01 X141.8382 Y-88.4769 F120.00
G01 X141.8288 Y-88.4990 F120.00
G01 X141.8202 Y-88.5150 F120.00
G01 X141.8172 Y-88.5201 F120.00
G01 X141.8036 Y-88.5399 F120.00
G01 X141.7921 Y-88.5539 F120.00
G01 X141.7816 Y-88.5651 F120.00
G01 X141.6761 Y-88.6707 F120.00
G01 X141.6648 Y-88.6811 F120.00
G01 X141.6508 Y-88.6927 F120.00
G01 X141.6461 Y-88.6962 F120.00
G01 X141.6259 Y-88.7093 F120.00
G01 X141.6046 Y-88.7204 F120.00
G01 X141.5878 Y-88.7273 F120.00
G01 X141.5823 Y-88.7293 F120.00
G01 X141.5592 Y-88.7360 F120.00
G01 X141.5356 Y-88.7404 F120.00
G01 X141.5175 Y-88.7422 F120.00
G01 X141.5116 Y-88.7425 F120.00
G01 X141.4876 Y-88.7422 F120.00
G01 X141.4637 Y-88.7395 F120.00
G01 X141.4459 Y-88.7360 F120.00
G01 X141.4402 Y-88.7346 F120.00
G01 X141.4173 Y-88.7273 F120.00
G01 X141.3952 Y-88.7178 F120.00
G01 X141.3792 Y-88.7093 F120.00
G01 X141.3741 Y-88.7063 F120.00
G01 X141.3543 Y-88.6927 F120.00
G01 X141.3403 Y-88.6811 F120.00
G01 X141.3290 Y-88.6707 F120.00
G01 X140.3927 Y-87.7343 F120.00
G01 X140.3952 Y-87.7369 F120.00
G01 X142.5549 Y-87.7369 F120.00
G01 X142.5391 Y-87.7849 F120.00
G01 X140.4432 Y-87.7849 F120.00
G01 X140.4912 Y-87.8329 F120.00
G01 X142.5106 Y-87.8329 F120.00
G01 X142.4659 Y-87.8809 F120.00
G01 X140.5392 Y-87.8809 F120.00
G01 X140.5872 Y-87.9289 F120.00
G01 X142.4179 Y-87.9289 F120.00
G01 X142.3685 Y-87.9769 F120.00
G01 X140.6352 Y-87.9769 F120.00
G01 X140.6832 Y-88.0249 F120.00
G01 X142.2805 Y-88.0249 F120.00
M5
G00 X142.2046 Y-88.0729
G01 F60.00
M03 S1000.0
G01 F120.00
G01 X140.7312 Y-88.0729 F120.00
G01 X140.7792 Y-88.1209 F120.00
G01 X142.1927 Y-88.1209 F120.00
G01 X142.1691 Y-88.1689 F120.00
G01 X140.8272 Y-88.1689 F120.00
G01 X140.8752 Y-88.2169 F120.00
G01 X142.1299 Y-88.2169 F120.00
G01 X142.0819 Y-88.2649 F120.00
G01 X140.9232 Y-88.2649 F120.00
G01 X140.9712 Y-88.3129 F120.00
G01 X142.0339 Y-88.3129 F120.00
G01 X141.9699 Y-88.3609 F120.00
G01 X141.0192 Y-88.3609 F120.00
G01 X141.0672 Y-88.4089 F120.00
G01 X141.8535 Y-88.4089 F120.00
M5
G00 X141.8446 Y-88.4569
G01 F60.00
M03 S1000.0
G01 F120.00
G01 X141.1152 Y-88.4569 F120.00
G01 X141.1632 Y-88.5049 F120.00
G01 X141.8256 Y-88.5049 F120.00
G01 X141.7929 Y-88.5529 F120.00
G01 X141.2112 Y-88.5529 F120.00
G01 X141.2592 Y-88.6009 F120.00
G01 X141.7459 Y-88.6009 F120.00
G01 X141.6979 Y-88.6489 F120.00
G01 X141.3072 Y-88.6489 F120.00
G01 X141.3601 Y-88.6969 F120.00
G01 X141.6450 Y-88.6969 F120.00
M5
G00 X141.3567 Y-89.2555
G01 F60.00
M03 S1000.0
G01 F120.00
G01 X141.6484 Y-89.2555 F120.00
G01 X141.7003 Y-89.3035 F120.00
G01 X141.3048 Y-89.3035 F120.00
G01 X141.2568 Y-89.3515 F120.00
G01 X141.7483 Y-89.3515 F120.00
G01 X141.7949 Y-89.3995 F120.00
G01 X141.2088 Y-89.3995 F120.00
G01 X141.1608 Y-89.4475 F120.00
G01 X141.8269 Y-89.4475 F120.00
G01 X141.8453 Y-89.4955 F120.00
G01 X141.1128 Y-89.4955 F120.00
G01 X141.0648 Y-89.5435 F120.00
G01 X141.8543 Y-89.5435 F120.00
M5
G00 X141.9744 Y-89.5915
G01 F60.00
M03 S1000.0
G01 F120.00
G01 X141.0168 Y-89.5915 F120.00
G01 X140.9688 Y-89.6395 F120.00
G01 X142.0363 Y-89.6395 F120.00
G01 X142.0843 Y-89.6875 F120.00
G01 X140.9208 Y-89.6875 F120.00
G01 X140.8728 Y-89.7355 F120.00
G01 X142.1323 Y-89.7355 F120.00
G01 X142.1708 Y-89.7835 F120.00
G01 X140.8248 Y-89.7835 F120.00
G01 X140.7768 Y-89.8315 F120.00
G01 X142.1935 Y-89.8315 F120.00
G01 X142.2049 Y-89.8795 F120.00
G01 X140.7288 Y-89.8795 F120.00
G01 X140.6808 Y-89.9275 F120.00
G01 X142.2885 Y-89.9275 F120.00
G01 X142.3714 Y-89.9755 F120.00
G01 X140.6328 Y-89.9755 F120.00
G01 X140.5848 Y-90.0235 F120.00
G01 X142.4203 Y-90.0235 F120.00
G01 X142.4683 Y-90.0715 F120.00
G01 X140.5368 Y-90.0715 F120.00
G01 X140.4888 Y-90.1195 F120.00
G01 X142.5124 Y-90.1195 F120.00
G01 X142.5401 Y-90.1675 F120.00
G01 X140.4408 Y-90.1675 F120.00
G01 X140.3928 Y-90.2155 F120.00
G01 X142.5553 Y-90.2155 F120.00
M5
G00 X142.5714 Y-90.2635
G01 F60.00
M03 S1000.0
G01 F120.00
G01 X140.3554 Y-90.2635 F120.00
M5
G00 X142.9135 Y-90.5995
G01 F60.00
M03 S1000.0
G01 F120.00
G01 X140.4295 Y-90.5995 F120.00
G01 X140.3822 Y-90.5515 F120.00
G01 X142.9046 Y-90.5515 F120.00
G01 X142.8851 Y-90.5035 F120.00
G01 X140.3492 Y-90.5035 F120.00
G01 X140.3300 Y-90.4555 F120.00
G01 X142.8516 Y-90.4555 F120.00
G01 X142.8043 Y-90.4075 F120.00
G01 X140.3215 Y-90.4075 F120.00
G01 X140.3226 Y-90.3595 F120.00
G01 X142.7563 Y-90.3595 F120.00
G01 X142.7023 Y-90.3115 F120.00
G01 X140.3334 Y-90.3115 F120.00
M5
G00 X143.0263 Y-90.6475
G01 F60.00
M03 S1000.0
G01 F120.00
G01 X140.4775 Y-90.6475 F120.00
G01 X140.5309 Y-90.6955 F120.00
G01 X143.0923 Y-90.6955 F120.00
G01 X143.1403 Y-90.7435 F120.00
G01 X140.6618 Y-90.7435 F120.00
M5
G00 X140.6755 Y-90.7659
G01 F60.00
M03 S1000.0
G01 F120.00
G01 X140.6739 Y-90.7587 F120.00
G01 X140.6706 Y-90.7521 F120.00
G01 X140.6658 Y-90.7466 F120.00
G01 X140.6623 Y-90.7439 F120.00
G01 X140.6592 Y-90.7420 F120.00
G01 X140.6551 Y-90.7403 F120.00
G01 X140.6515 Y-90.7394 F120.00
G01 X140.6329 Y-90.7371 F120.00
G01 X140.6150 Y-90.7336 F120.00
G01 X140.6093 Y-90.7321 F120.00
G01 X140.5864 Y-90.7249 F120.00
G01 X140.5643 Y-90.7154 F120.00
G01 X140.5483 Y-90.7069 F120.00
G01 X140.5433 Y-90.7038 F120.00
G01 X140.5234 Y-90.6902 F120.00
G01 X140.5094 Y-90.6787 F120.00
G01 X140.4982 Y-90.6683 F120.00
G01 X140.3927 Y-90.5627 F120.00
G01 X140.3822 Y-90.5515 F120.00
G01 X140.3707 Y-90.5375 F120.00
G01 X140.3571 Y-90.5176 F120.00
G01 X140.3541 Y-90.5126 F120.00
G01 X140.3430 Y-90.4913 F120.00
G01 X140.3340 Y-90.4690 F120.00
G01 X140.3273 Y-90.4459 F120.00
G01 X140.3238 Y-90.4281 F120.00
G01 X140.3229 Y-90.4222 F120.00
G01 X140.3209 Y-90.3983 F120.00
G01 X140.3212 Y-90.3743 F120.00
G01 X140.3229 Y-90.3562 F120.00
G01 X140.3238 Y-90.3504 F120.00
G01 X140.3288 Y-90.3269 F120.00
G01 X140.3360 Y-90.3039 F120.00
G01 X140.3430 Y-90.2872 F120.00
G01 X140.3455 Y-90.2818 F120.00
G01 X140.3571 Y-90.2608 F120.00
G01 X140.3707 Y-90.2410 F120.00
G01 X140.3822 Y-90.2269 F120.00
G01 X140.3927 Y-90.2157 F120.00
G01 X141.3290 Y-89.2793 F120.00
G01 X141.3403 Y-89.2689 F120.00
G01 X141.3543 Y-89.2573 F120.00
G01 X141.3590 Y-89.2538 F120.00
G01 X141.3792 Y-89.2407 F120.00
G01 X141.4005 Y-89.2296 F120.00
G01 X141.4173 Y-89.2227 F120.00
G01 X141.4228 Y-89.2207 F120.00
G01 X141.4459 Y-89.2140 F120.00
G01 X141.4695 Y-89.2096 F120.00
G01 X141.4876 Y-89.2078 F120.00
G01 X141.4935 Y-89.2075 F120.00
G01 X141.5175 Y-89.2078 F120.00
G01 X141.5414 Y-89.2105 F120.00
G01 X141.5592 Y-89.2140 F120.00
G01 X141.5649 Y-89.2154 F120.00
G01 X141.5878 Y-89.2227 F120.00
G01 X141.6099 Y-89.2322 F120.00
G01 X141.6259 Y-89.2407 F120.00
G01 X141.6310 Y-89.2437 F120.00
G01 X141.6508 Y-89.2573 F120.00
G01 X141.6648 Y-89.2689 F120.00
G01 X141.6761 Y-89.2793 F120.00
G01 X141.7816 Y-89.3849 F120.00
G01 X141.7921 Y-89.3961 F120.00
G01 X141.8036 Y-89.4101 F120.00
G01 X141.8071 Y-89.4148 F120.00
G01 X141.8202 Y-89.4350 F120.00
G01 X141.8313 Y-89.4563 F120.00
G01 X141.8382 Y-89.4731 F120.00
G01 X141.8402 Y-89.4786 F120.00
G01 X141.8469 Y-89.5017 F120.00
G01 X141.8504 Y-89.5195 F120.00
G01 X141.8524 Y-89.5360 F120.00
G01 X141.8532 Y-89.5403 F120.00
G01 X141.8560 Y-89.5471 F120.00
G01 X141.8585 Y-89.5508 F120.00
G01 X141.8609 Y-89.5535 F120.00
G01 X141.8643 Y-89.5564 F120.00
G01 X141.8674 Y-89.5584 F120.00
G01 X141.8741 Y-89.5612 F120.00
G01 X141.8785 Y-89.5621 F120.00
G01 X141.8950 Y-89.5640 F120.00
G01 X141.9128 Y-89.5676 F120.00
G01 X141.9185 Y-89.5690 F120.00
G01 X141.9414 Y-89.5763 F120.00
G01 X141.9635 Y-89.5857 F120.00
G01 X141.9845 Y-89.5973 F120.00
G01 X141.9996 Y-89.6074 F120.00
G01 X142.0184 Y-89.6224 F120.00
G01 X142.0296 Y-89.6329 F120.00
G01 X142.1352 Y-89.7384 F120.00
G01 X142.1456 Y-89.7496 F120.00
G01 X142.1606 Y-89.7684 F120.00
G01 X142.1707 Y-89.7835 F120.00
G01 X142.1737 Y-89.7885 F120.00
G01 X142.1848 Y-89.8099 F120.00
G01 X142.1938 Y-89.8322 F120.00
G01 X142.1990 Y-89.8496 F120.00
G01 X142.2040 Y-89.8731 F120.00
G01 X142.2060 Y-89.8903 F120.00
G01 X142.2070 Y-89.8946 F120.00
G01 X142.2100 Y-89.9013 F120.00
G01 X142.2145 Y-89.9071 F120.00
G01 X142.2178 Y-89.9100 F120.00
G01 X142.2209 Y-89.9120 F120.00
G01 X142.2277 Y-89.9148 F120.00
G01 X142.2320 Y-89.9157 F120.00
G01 X142.2485 Y-89.9176 F120.00
G01 X142.2663 Y-89.9211 F120.00
G01 X142.2720 Y-89.9226 F120.00
G01 X142.2949 Y-89.9298 F120.00
G01 X142.3170 Y-89.9393 F120.00
G01 X142.3381 Y-89.9509 F120.00
G01 X142.3532 Y-89.9609 F120.00
G01 X142.3719 Y-89.9760 F120.00
G01 X142.3832 Y-89.9864 F120.00
G01 X142.4950 Y-90.0985 F120.00
G01 X142.4992 Y-90.1032 F120.00
G01 X142.5142 Y-90.1219 F120.00
G01 X142.5273 Y-90.1421 F120.00
G01 X142.5384 Y-90.1634 F120.00
G01 X142.5473 Y-90.1857 F120.00
G01 X142.5526 Y-90.2031 F120.00
G01 X142.5575 Y-90.2266 F120.00
G01 X142.5596 Y-90.2438 F120.00
G01 X142.5605 Y-90.2481 F120.00
G01 X142.5635 Y-90.2549 F120.00
G01 X142.5680 Y-90.2606 F120.00
G01 X142.5714 Y-90.2635 F120.00
G01 X142.5745 Y-90.2655 F120.00
G01 X142.5812 Y-90.2683 F120.00
G01 X142.5856 Y-90.2692 F120.00
G01 X142.6021 Y-90.2711 F120.00
G01 X142.6199 Y-90.2747 F120.00
G01 X142.6256 Y-90.2761 F120.00
G01 X142.6485 Y-90.2834 F120.00
G01 X142.6706 Y-90.2928 F120.00
G01 X142.6916 Y-90.3044 F120.00
G01 X142.7067 Y-90.3145 F120.00
G01 X142.7255 Y-90.3295 F120.00
G01 X142.7367 Y-90.3400 F120.00
G01 X142.8485 Y-90.4521 F120.00
G01 X142.8527 Y-90.4567 F120.00
G01 X142.8677 Y-90.4755 F120.00
G01 X142.8809 Y-90.4956 F120.00
G01 X142.8919 Y-90.5170 F120.00
G01 X142.9009 Y-90.5393 F120.00
G01 X142.9061 Y-90.5567 F120.00
G01 X142.9111 Y-90.5802 F120.00
G01 X142.9131 Y-90.5974 F120.00
G01 X142.9141 Y-90.6017 F120.00
G01 X142.9171 Y-90.6084 F120.00
G01 X142.9216 Y-90.6142 F120.00
G01 X142.9249 Y-90.6171 F120.00
G01 X142.9280 Y-90.6191 F120.00
G01 X142.9348 Y-90.6219 F120.00
G01 X142.9391 Y-90.6228 F120.00
G01 X142.9556 Y-90.6247 F120.00
G01 X142.9734 Y-90.6282 F120.00
G01 X142.9791 Y-90.6297 F120.00
G01 X143.0020 Y-90.6369 F120.00
G01 X143.0241 Y-90.6464 F120.00
G01 X143.0452 Y-90.6580 F120.00
G01 X143.0603 Y-90.6680 F120.00
G01 X143.0791 Y-90.6831 F120.00
G01 X143.0903 Y-90.6935 F120.00
G01 X143.1958 Y-90.7991 F120.00
G01 X143.2063 Y-90.8103 F120.00
G01 X143.2213 Y-90.8290 F120.00
G01 X143.2344 Y-90.8492 F120.00
G01 X143.2455 Y-90.8705 F120.00
G01 X143.2544 Y-90.8928 F120.00
G01 X143.2597 Y-90.9102 F120.00
G01 X143.2647 Y-90.9337 F120.00
G01 X143.2667 Y-90.9509 F120.00
G01 X143.2676 Y-90.9553 F120.00
G01 X143.2706 Y-90.9620 F120.00
G01 X143.2751 Y-90.9678 F120.00
G01 X143.2785 Y-90.9706 F120.00
G01 X143.2816 Y-90.9726 F120.00
G01 X143.2884 Y-90.9755 F120.00
G01 X143.2927 Y-90.9763 F120.00
G01 X143.3092 Y-90.9782 F120.00
G01 X143.3270 Y-90.9818 F120.00
G01 X143.3327 Y-90.9832 F120.00
G01 X143.3556 Y-90.9905 F120.00
G01 X143.3777 Y-90.9999 F120.00
G01 X143.3988 Y-91.0115 F120.00
G01 X143.4138 Y-91.0216 F120.00
G01 X143.4326 Y-91.0366 F120.00
G01 X143.4438 Y-91.0471 F120.00
G01 X143.5494 Y-91.1526 F120.00
G01 X143.5598 Y-91.1638 F120.00
G01 X143.5749 Y-91.1826 F120.00
G01 X143.5880 Y-91.2027 F120.00
G01 X143.5990 Y-91.2241 F120.00
G01 X143.6080 Y-91.2464 F120.00
G01 X143.6132 Y-91.2638 F120.00
G01 X143.6182 Y-91.2873 F120.00
G01 X143.6202 Y-91.3045 F120.00
G01 X143.6212 Y-91.3088 F120.00
G01 X143.6242 Y-91.3155 F120.00
G01 X143.6287 Y-91.3213 F120.00
G01 X143.6320 Y-91.3242 F120.00
G01 X143.6351 Y-91.3262 F120.00
G01 X143.6419 Y-91.3290 F120.00
G01 X143.6462 Y-91.3299 F120.00
G01 X143.6627 Y-91.3318 F120.00
G01 X143.6805 Y-91.3353 F120.00
G01 X143.6862 Y-91.3368 F120.00
G01 X143.7091 Y-91.3440 F120.00
G01 X143.7312 Y-91.3535 F120.00
G01 X143.7523 Y-91.3651 F120.00
G01 X143.7674 Y-91.3752 F120.00
G01 X143.7862 Y-91.3902 F120.00
G01 X143.7974 Y-91.4006 F120.00
G01 X143.9029 Y-91.5062 F120.00
G01 X143.9134 Y-91.5174 F120.00
G01 X143.9284 Y-91.5362 F120.00
G01 X143.9415 Y-91.5563 F120.00
G01 X143.9526 Y-91.5776 F120.00
G01 X143.9615 Y-91.5999 F120.00
G01 X143.9668 Y-91.6173 F120.00
G01 X143.9718 Y-91.6408 F120.00
G01 X143.9738 Y-91.6580 F120.00
G01 X143.9747 Y-91.6624 F120.00
G01 X143.9777 Y-91.6691 F120.00
G01 X143.9822 Y-91.6749 F120.00
G01 X143.9856 Y-91.6777 F120.00
G01 X143.9887 Y-91.6797 F120.00
G01 X143.9955 Y-91.6826 F120.00
G01 X143.9998 Y-91.6834 F120.00
G01 X144.0163 Y-91.6853 F120.00
G01 X144.0341 Y-91.6889 F120.00
G01 X144.0398 Y-91.6903 F120.00
G01 X144.0627 Y-91.6976 F120.00
G01 X144.0848 Y-91.7070 F120.00
G01 X144.1059 Y-91.7186 F120.00
G01 X144.1210 Y-91.7287 F120.00
G01 X144.1397 Y-91.7437 F120.00
G01 X144.1509 Y-91.7542 F120.00
G01 X144.2565 Y-91.8597 F120.00
G01 X144.2669 Y-91.8709 F120.00
G01 X144.2820 Y-91.8897 F120.00
G01 X144.2951 Y-91.9099 F120.00
G01 X144.3061 Y-91.9312 F120.00
G01 X144.3151 Y-91.9535 F120.00
G01 X144.3203 Y-91.9709 F120.00
G01 X144.3253 Y-91.9944 F120.00
G01 X144.3273 Y-92.0116 F120.00
G01 X144.3283 Y-92.0159 F120.00
G01 X144.3313 Y-92.0226 F120.00
G01 X144.3358 Y-92.0284 F120.00
G01 X144.3391 Y-92.0313 F120.00
G01 X144.3422 Y-92.0333 F120.00
G01 X144.3490 Y-92.0361 F120.00
G01 X144.3533 Y-92.0370 F120.00
G01 X144.3698 Y-92.0389 F120.00
G01 X144.3876 Y-92.0424 F120.00
G01 X144.3933 Y-92.0439 F120.00
G01 X144.4163 Y-92.0511 F120.00
G01 X144.4384 Y-92.0606 F120.00
G01 X144.4594 Y-92.0722 F120.00
G01 X144.4745 Y-92.0823 F120.00
G01 X144.4933 Y-92.0973 F120.00
G01 X144.5045 Y-92.1077 F120.00
G01 X144.6100 Y-92.2133 F120.00
G01 X144.6205 Y-92.2245 F120.00
G01 X144.6355 Y-92.2433 F120.00
G01 X144.6486 Y-92.2634 F120.00
G01 X144.6597 Y-92.2847 F120.00
G01 X144.6686 Y-92.3071 F120.00
G01 X144.6739 Y-92.3244 F120.00
G01 X144.6789 Y-92.3479 F120.00
G01 X144.6809 Y-92.3652 F120.00
G01 X144.6819 Y-92.3695 F120.00
G01 X144.6848 Y-92.3762 F120.00
G01 X144.6894 Y-92.3820 F120.00
G01 X144.6927 Y-92.3848 F120.00
G01 X144.6958 Y-92.3869 F120.00
G01 X144.7026 Y-92.3897 F120.00
G01 X144.7069 Y-92.3905 F120.00
G01 X144.7234 Y-92.3925 F120.00
G01 X144.7412 Y-92.3960 F120.00
G01 X144.7469 Y-92.3974 F120.00
G01 X144.7698 Y-92.4047 F120.00
G01 X144.7919 Y-92.4141 F120.00
G01 X144.8130 Y-92.4257 F120.00
G01 X144.8281 Y-92.4358 F120.00
G01 X144.8468 Y-92.4508 F120.00
G01 X144.8580 Y-92.4613 F120.00
G01 X144.9636 Y-92.5668 F120.00
G01 X144.9740 Y-92.5781 F120.00
G01 X144.9891 Y-92.5968 F120.00
G01 X145.0022 Y-92.6170 F120.00
G01 X145.0133 Y-92.6383 F120.00
G01 X145.0222 Y-92.6606 F120.00
G01 X145.0275 Y-92.6780 F120.00
G01 X145.0324 Y-92.7015 F120.00
G01 X145.0344 Y-92.7187 F120.00
G01 X145.0354 Y-92.7230 F120.00
G01 X145.0384 Y-92.7297 F120.00
G01 X145.0429 Y-92.7355 F120.00
G01 X145.0462 Y-92.7384 F120.00
G01 X145.0493 Y-92.7404 F120.00
G01 X145.0561 Y-92.7432 F120.00
G01 X145.0604 Y-92.7441 F120.00
G01 X145.0769 Y-92.7460 F120.00
G01 X145.0947 Y-92.7495 F120.00
G01 X145.1004 Y-92.7510 F120.00
G01 X145.1234 Y-92.7582 F120.00
G01 X145.1455 Y-92.7677 F120.00
G01 X145.1665 Y-92.7793 F120.00
G01 X145.1816 Y-92.7894 F120.00
G01 X145.2004 Y-92.8044 F120.00
G01 X145.2116 Y-92.8148 F120.00
G01 X145.3171 Y-92.9204 F120.00
G01 X145.3276 Y-92.9316 F120.00
G01 X145.3426 Y-92.9504 F120.00
G01 X145.3557 Y-92.9705 F120.00
G01 X145.3668 Y-92.9918 F120.00
G01 X145.3757 Y-93.0142 F120.00
G01 X145.3810 Y-93.0315 F120.00
G01 X145.3860 Y-93.0550 F120.00
G01 X145.3880 Y-93.0723 F120.00
G01 X145.3890 Y-93.0766 F120.00
G01 X145.3919 Y-93.0833 F120.00
G01 X145.3965 Y-93.0891 F120.00
G01 X145.3998 Y-93.0920 F120.00
G01 X145.4029 Y-93.0940 F120.00
G01 X145.4097 Y-93.0968 F120.00
G01 X145.4140 Y-93.0976 F120.00
G01 X145.4305 Y-93.0996 F120.00
G01 X145.4483 Y-93.1031 F120.00
G01 X145.4540 Y-93.1045 F120.00
G01 X145.4769 Y-93.1118 F120.00
G01 X145.4990 Y-93.1212 F120.00
G01 X145.5201 Y-93.1328 F120.00
G01 X145.5352 Y-93.1429 F120.00
G01 X145.5539 Y-93.1579 F120.00
G01 X145.5651 Y-93.1684 F120.00
G01 X145.6769 Y-93.2805 F120.00
G01 X145.6811 Y-93.2852 F120.00
G01 X145.6962 Y-93.3039 F120.00
G01 X145.7093 Y-93.3241 F120.00
G01 X145.7178 Y-93.3401 F120.00
G01 X145.7204 Y-93.3454 F120.00
G01 X145.7293 Y-93.3677 F120.00
G01 X145.7360 Y-93.3908 F120.00
G01 X145.7404 Y-93.4144 F120.00
G01 X145.7425 Y-93.4384 F120.00
G01 X145.7425 Y-93.4565 F120.00
G01 X145.7422 Y-93.4624 F120.00
G01 X145.7395 Y-93.4863 F120.00
G01 X145.7346 Y-93.5098 F120.00
G01 X145.7273 Y-93.5327 F120.00
G01 X145.7178 Y-93.5548 F120.00
G01 X145.7093 Y-93.5708 F120.00
G01 X145.7063 Y-93.5759 F120.00
G01 X145.6927 Y-93.5957 F120.00
G01 X145.6811 Y-93.6097 F120.00
G01 X145.6704 Y-93.6212 F120.00
G01 X144.7343 Y-94.5573 F120.00
G01 X144.7231 Y-94.5678 F120.00
G01 X144.7090 Y-94.5793 F120.00
G01 X144.7043 Y-94.5828 F120.00
G01 X144.6842 Y-94.5959 F120.00
G01 X144.6628 Y-94.6070 F120.00
G01 X144.6461 Y-94.6140 F120.00
G01 X144.6405 Y-94.6160 F120.00
G01 X144.6174 Y-94.6227 F120.00
G01 X144.5938 Y-94.6271 F120.00
G01 X144.5757 Y-94.6288 F120.00
G01 X144.5699 Y-94.6291 F120.00
G01 X144.5458 Y-94.6288 F120.00
G01 X144.5219 Y-94.6262 F120.00
G01 X144.5041 Y-94.6227 F120.00
G01 X144.4984 Y-94.6212 F120.00
G01 X144.4755 Y-94.6140 F120.00
G01 X144.4534 Y-94.6045 F120.00
G01 X144.4374 Y-94.5959 F120.00
G01 X144.4324 Y-94.5929 F120.00
G01 X144.4125 Y-94.5793 F120.00
G01 X144.3985 Y-94.5678 F120.00
G01 X144.3873 Y-94.5573 F120.00
G01 X144.2817 Y-94.4518 F120.00
G01 X144.2713 Y-94.4406 F120.00
G01 X144.2598 Y-94.4266 F120.00
G01 X144.2563 Y-94.4218 F120.00
G01 X144.2431 Y-94.4017 F120.00
G01 X144.2321 Y-94.3804 F120.00
G01 X144.2251 Y-94.3636 F120.00
G01 X144.2231 Y-94.3580 F120.00
G01 X144.2164 Y-94.3350 F120.00
G01 X144.2129 Y-94.3171 F120.00
G01 X144.2110 Y-94.3007 F120.00
G01 X144.2101 Y-94.2963 F120.00
G01 X144.2073 Y-94.2895 F120.00
G01 X144.2048 Y-94.2859 F120.00
G01 X144.2024 Y-94.2831 F120.00
G01 X144.1991 Y-94.2802 F120.00
G01 X144.1960 Y-94.2782 F120.00
G01 X144.1892 Y-94.2754 F120.00
G01 X144.1849 Y-94.2746 F120.00
G01 X144.1684 Y-94.2726 F120.00
G01 X144.1506 Y-94.2691 F120.00
G01 X144.1449 Y-94.2677 F120.00
G01 X144.1220 Y-94.2604 F120.00
G01 X144.0999 Y-94.2509 F120.00
G01 X144.0788 Y-94.2394 F120.00
G01 X144.0637 Y-94.2293 F120.00
G01 X144.0449 Y-94.2143 F120.00
G01 X144.0337 Y-94.2038 F120.00
G01 X143.9282 Y-94.0982 F120.00
G01 X143.9177 Y-94.0870 F120.00
G01 X143.9027 Y-94.0683 F120.00
G01 X143.8926 Y-94.0532 F120.00
G01 X143.8896 Y-94.0481 F120.00
G01 X143.8785 Y-94.0268 F120.00
G01 X143.8696 Y-94.0045 F120.00
G01 X143.8643 Y-93.9871 F120.00
G01 X143.8593 Y-93.9636 F120.00
G01 X143.8573 Y-93.9464 F120.00
G01 X143.8564 Y-93.9421 F120.00
G01 X143.8534 Y-93.9354 F120.00
G01 X143.8489 Y-93.9296 F120.00
G01 X143.8455 Y-93.9267 F120.00
G01 X143.8424 Y-93.9247 F120.00
G01 X143.8356 Y-93.9219 F120.00
G01 X143.8313 Y-93.9210 F120.00
G01 X143.8148 Y-93.9191 F120.00
G01 X143.7970 Y-93.9155 F120.00
G01 X143.7913 Y-93.9141 F120.00
G01 X143.7684 Y-93.9069 F120.00
G01 X143.7463 Y-93.8974 F120.00
G01 X143.7252 Y-93.8858 F120.00
G01 X143.7102 Y-93.8757 F120.00
G01 X143.6914 Y-93.8607 F120.00
G01 X143.6802 Y-93.8502 F120.00
G01 X143.5684 Y-93.7381 F120.00
G01 X143.5642 Y-93.7335 F120.00
G01 X143.5491 Y-93.7147 F120.00
G01 X143.5360 Y-93.6946 F120.00
G01 X143.5250 Y-93.6732 F120.00
G01 X143.5160 Y-93.6509 F120.00
G01 X143.5108 Y-93.6336 F120.00
G01 X143.5058 Y-93.6100 F120.00
G01 X143.5038 Y-93.5928 F120.00
G01 X143.5028 Y-93.5885 F120.00
G01 X143.4998 Y-93.5818 F120.00
G01 X143.4953 Y-93.5760 F120.00
G01 X143.4920 Y-93.5731 F120.00
G01 X143.4889 Y-93.5711 F120.00
G01 X143.4821 Y-93.5683 F120.00
G01 X143.4778 Y-93.5675 F120.00
G01 X143.4613 Y-93.5655 F120.00
G01 X143.4435 Y-93.5620 F120.00
G01 X143.4378 Y-93.5606 F120.00
G01 X143.4148 Y-93.5533 F120.00
G01 X143.3928 Y-93.5438 F120.00
G01 X143.3717 Y-93.5323 F120.00
G01 X143.3566 Y-93.5222 F120.00
G01 X143.3378 Y-93.5071 F120.00
G01 X143.3266 Y-93.4967 F120.00
G01 X143.2148 Y-93.3846 F120.00
G01 X143.2106 Y-93.3799 F120.00
G01 X143.1956 Y-93.3612 F120.00
G01 X143.1825 Y-93.3410 F120.00
G01 X143.1714 Y-93.3197 F120.00
G01 X143.1625 Y-93.2974 F120.00
G01 X143.1572 Y-93.2800 F120.00
G01 X143.1522 Y-93.2565 F120.00
G01 X143.1502 Y-93.2393 F120.00
G01 X143.1492 Y-93.2350 F120.00
G01 X143.1463 Y-93.2283 F120.00
G01 X143.1418 Y-93.2225 F120.00
G01 X143.1384 Y-93.2196 F120.00
G01 X143.1353 Y-93.2176 F120.00
G01 X143.1285 Y-93.2148 F120.00
G01 X143.1242 Y-93.2139 F120.00
G01 X143.1077 Y-93.2120 F120.00
G01 X143.0899 Y-93.2084 F120.00
G01 X143.0842 Y-93.2070 F120.00
G01 X143.0613 Y-93.1998 F120.00
G01 X143.0392 Y-93.1903 F120.00
G01 X143.0181 Y-93.1787 F120.00
G01 X143.0030 Y-93.1686 F120.00
G01 X142.9843 Y-93.1536 F120.00
G01 X142.9731 Y-93.1431 F120.00
G01 X142.8675 Y-93.0376 F120.00
G01 X142.8571 Y-93.0264 F120.00
G01 X142.8420 Y-93.0076 F120.00
G01 X142.8289 Y-92.9875 F120.00
G01 X142.8179 Y-92.9661 F120.00
G01 X142.8089 Y-92.9438 F120.00
G01 X142.8037 Y-92.9265 F120.00
G01 X142.7987 Y-92.9029 F120.00
G01 X142.7967 Y-92.8857 F120.00
G01 X142.7957 Y-92.8814 F120.00
G01 X142.7927 Y-92.8747 F120.00
G01 X142.7882 Y-92.8689 F120.00
G01 X142.7849 Y-92.8660 F120.00
G01 X142.7818 Y-92.8640 F120.00
G01 X142.7750 Y-92.8612 F120.00
G01 X142.7707 Y-92.8603 F120.00
G01 X142.7542 Y-92.8584 F120.00
G01 X142.7364 Y-92.8549 F120.00
G01 X142.7307 Y-92.8535 F120.00
G01 X142.7077 Y-92.8462 F120.00
G01 X142.6856 Y-92.8367 F120.00
G01 X142.6646 Y-92.8252 F120.00
G01 X142.6495 Y-92.8151 F120.00
G01 X142.6307 Y-92.8000 F120.00
G01 X142.6195 Y-92.7896 F120.00
G01 X142.5140 Y-92.6840 F120.00
G01 X142.5035 Y-92.6728 F120.00
G01 X142.4885 Y-92.6541 F120.00
G01 X142.4754 Y-92.6339 F120.00
G01 X142.4643 Y-92.6126 F120.00
G01 X142.4554 Y-92.5903 F120.00
G01 X142.4501 Y-92.5729 F120.00
G01 X142.4451 Y-92.5494 F120.00
G01 X142.4431 Y-92.5322 F120.00
G01 X142.4421 Y-92.5279 F120.00
G01 X142.4392 Y-92.5211 F120.00
G01 X142.4346 Y-92.5154 F120.00
G01 X142.4313 Y-92.5125 F120.00
G01 X142.4282 Y-92.5105 F120.00
G01 X142.4214 Y-92.5077 F120.00
G01 X142.4171 Y-92.5068 F120.00
G01 X142.4006 Y-92.5049 F120.00
G01 X142.3828 Y-92.5013 F120.00
G01 X142.3771 Y-92.4999 F120.00
G01 X142.3542 Y-92.4927 F120.00
G01 X142.3321 Y-92.4832 F120.00
G01 X142.3110 Y-92.4716 F120.00
G01 X142.2959 Y-92.4615 F120.00
G01 X142.2772 Y-92.4465 F120.00
G01 X142.2660 Y-92.4360 F120.00
G01 X142.1604 Y-92.3305 F120.00
G01 X142.1500 Y-92.3193 F120.00
G01 X142.1349 Y-92.3005 F120.00
G01 X142.1218 Y-92.2804 F120.00
G01 X142.1107 Y-92.2590 F120.00
G01 X142.1018 Y-92.2367 F120.00
G01 X142.0965 Y-92.2193 F120.00
G01 X142.0916 Y-92.1958 F120.00
G01 X142.0896 Y-92.1786 F120.00
G01 X142.0886 Y-92.1743 F120.00
G01 X142.0856 Y-92.1676 F120.00
G01 X142.0811 Y-92.1618 F120.00
G01 X142.0777 Y-92.1589 F120.00
G01 X142.0747 Y-92.1569 F120.00
G01 X142.0679 Y-92.1541 F120.00
G01 X142.0636 Y-92.1532 F120.00
G01 X142.0471 Y-92.1513 F120.00
G01 X142.0293 Y-92.1478 F120.00
G01 X142.0235 Y-92.1463 F120.00
G01 X142.0006 Y-92.1391 F120.00
G01 X141.9785 Y-92.1296 F120.00
G01 X141.9575 Y-92.1180 F120.00
G01 X141.9424 Y-92.1080 F120.00
G01 X141.9236 Y-92.0929 F120.00
G01 X141.9124 Y-92.0825 F120.00
G01 X141.8069 Y-91.9769 F120.00
G01 X141.7964 Y-91.9657 F120.00
G01 X141.7814 Y-91.9470 F120.00
G01 X141.7683 Y-91.9268 F120.00
G01 X141.7572 Y-91.9055 F120.00
G01 X141.7483 Y-91.8832 F120.00
G01 X141.7430 Y-91.8658 F120.00
G01 X141.7380 Y-91.8423 F120.00
G01 X141.7360 Y-91.8251 F120.00
G01 X141.7350 Y-91.8208 F120.00
G01 X141.7321 Y-91.8140 F120.00
G01 X141.7275 Y-91.8082 F120.00
G01 X141.7242 Y-91.8054 F120.00
G01 X141.7211 Y-91.8034 F120.00
G01 X141.7143 Y-91.8005 F120.00
G01 X141.7100 Y-91.7997 F120.00
G01 X141.6935 Y-91.7978 F120.00
G01 X141.6757 Y-91.7942 F120.00
G01 X141.6700 Y-91.7928 F120.00
G01 X141.6471 Y-91.7855 F120.00
G01 X141.6250 Y-91.7761 F120.00
G01 X141.6039 Y-91.7645 F120.00
G01 X141.5888 Y-91.7544 F120.00
G01 X141.5701 Y-91.7394 F120.00
G01 X141.5589 Y-91.7289 F120.00
G01 X141.4533 Y-91.6234 F120.00
G01 X141.4429 Y-91.6122 F120.00
G01 X141.4278 Y-91.5934 F120.00
G01 X141.4147 Y-91.5733 F120.00
G01 X141.4036 Y-91.5519 F120.00
G01 X141.3947 Y-91.5296 F120.00
G01 X141.3894 Y-91.5122 F120.00
G01 X141.3845 Y-91.4887 F120.00
G01 X141.3824 Y-91.4715 F120.00
G01 X141.3815 Y-91.4672 F120.00
G01 X141.3785 Y-91.4605 F120.00
G01 X141.3740 Y-91.4547 F120.00
G01 X141.3706 Y-91.4518 F120.00
G01 X141.3676 Y-91.4498 F120.00
G01 X141.3608 Y-91.4470 F120.00
G01 X141.3564 Y-91.4461 F120.00
G01 X141.3400 Y-91.4442 F120.00
G01 X141.3222 Y-91.4407 F120.00
G01 X141.3164 Y-91.4392 F120.00
G01 X141.2935 Y-91.4320 F120.00
G01 X141.2714 Y-91.4225 F120.00
G01 X141.2504 Y-91.4109 F120.00
G01 X141.2353 Y-91.4009 F120.00
G01 X141.2165 Y-91.3858 F120.00
G01 X141.2053 Y-91.3754 F120.00
G01 X141.0998 Y-91.2698 F120.00
G01 X141.0893 Y-91.2586 F120.00
G01 X141.0743 Y-91.2399 F120.00
G01 X141.0612 Y-91.2197 F120.00
G01 X141.0501 Y-91.1984 F120.00
G01 X141.0412 Y-91.1761 F120.00
G01 X141.0359 Y-91.1587 F120.00
G01 X141.0309 Y-91.1352 F120.00
G01 X141.0289 Y-91.1180 F120.00
G01 X141.0279 Y-91.1136 F120.00
G01 X141.0249 Y-91.1069 F120.00
G01 X141.0204 Y-91.1011 F120.00
G01 X141.0171 Y-91.0983 F120.00
G01 X141.0140 Y-91.0963 F120.00
G01 X141.0072 Y-91.0934 F120.00
G01 X141.0029 Y-91.0926 F120.00
G01 X140.9864 Y-91.0907 F120.00
G01 X140.9686 Y-91.0871 F120.00
G01 X140.9629 Y-91.0857 F120.00
G01 X140.9400 Y-91.0784 F120.00
G01 X140.9179 Y-91.0690 F120.00
G01 X140.8968 Y-91.0574 F120.00
G01 X140.8817 Y-91.0473 F120.00
G01 X140.8630 Y-91.0323 F120.00
G01 X140.8518 Y-91.0218 F120.00
G01 X140.7462 Y-90.9163 F120.00
G01 X140.7357 Y-90.9051 F120.00
G01 X140.7207 Y-90.8863 F120.00
G01 X140.7076 Y-90.8662 F120.00
G01 X140.6965 Y-90.8448 F120.00
G01 X140.6876 Y-90.8225 F120.00
G01 X140.6823 Y-90.8051 F120.00
G01 X140.6774 Y-90.7816 F120.00
G01 X140.6755 Y-90.7659 F120.00
M5
G00 X140.6793 Y-90.7915
G01 F60.00
M03 S1000.0
G01 F120.00
G01 X143.1883 Y-90.7915 F120.00
G01 X143.2283 Y-90.8395 F120.00
G01 X140.6943 Y-90.8395 F120.00
G01 X140.7216 Y-90.8875 F120.00
G01 X143.2525 Y-90.8875 F120.00
G01 X143.2649 Y-90.9355 F120.00
G01 X140.7655 Y-90.9355 F120.00
G01 X140.8135 Y-90.9835 F120.00
G01 X143.3338 Y-90.9835 F120.00
G01 X143.4264 Y-91.0315 F120.00
G01 X140.8621 Y-91.0315 F120.00
G01 X140.9431 Y-91.0795 F120.00
G01 X143.4763 Y-91.0795 F120.00
G01 X143.5243 Y-91.1275 F120.00
G01 X141.0299 Y-91.1275 F120.00
G01 X141.0410 Y-91.1755 F120.00
G01 X143.5694 Y-91.1755 F120.00
G01 X143.5988 Y-91.2235 F120.00
G01 X141.0635 Y-91.2235 F120.00
G01 X141.1015 Y-91.2715 F120.00
G01 X143.6151 Y-91.2715 F120.00
M5
G00 X143.6271 Y-91.3195
G01 F60.00
M03 S1000.0
G01 F120.00
G01 X141.1495 Y-91.3195 F120.00
G01 X141.1975 Y-91.3675 F120.00
G01 X143.7560 Y-91.3675 F120.00
G01 X143.8123 Y-91.4155 F120.00
G01 X141.2584 Y-91.4155 F120.00
M5
G00 X141.3801 Y-91.4635
G01 F60.00
M03 S1000.0
G01 F120.00
G01 X143.8603 Y-91.4635 F120.00
G01 X143.9080 Y-91.5115 F120.00
G01 X141.3893 Y-91.5115 F120.00
G01 X141.4074 Y-91.5595 F120.00
G01 X143.9432 Y-91.5595 F120.00
G01 X143.9638 Y-91.6075 F120.00
G01 X141.4391 Y-91.6075 F120.00
G01 X141.4855 Y-91.6555 F120.00
G01 X143.9735 Y-91.6555 F120.00
M5
G00 X144.0771 Y-91.7035
G01 F60.00
M03 S1000.0
G01 F120.00
G01 X141.5335 Y-91.7035 F120.00
G01 X141.5850 Y-91.7515 F120.00
G01 X144.1481 Y-91.7515 F120.00
G01 X144.1963 Y-91.7995 F120.00
G01 X141.7086 Y-91.7995 F120.00
M5
G00 X141.7391 Y-91.8475
G01 F60.00
M03 S1000.0
G01 F120.00
G01 X144.2443 Y-91.8475 F120.00
G01 X144.2859 Y-91.8955 F120.00
G01 X141.7531 Y-91.8955 F120.00
G01 X141.7791 Y-91.9435 F120.00
G01 X144.3113 Y-91.9435 F120.00
G01 X144.3247 Y-91.9915 F120.00
G01 X141.8215 Y-91.9915 F120.00
G01 X141.8695 Y-92.0395 F120.00
G01 X144.3731 Y-92.0395 F120.00
G01 X144.4814 Y-92.0875 F120.00
G01 X141.9177 Y-92.0875 F120.00
G01 X141.9920 Y-92.1355 F120.00
G01 X144.5323 Y-92.1355 F120.00
G01 X144.5803 Y-92.1835 F120.00
G01 X142.0901 Y-92.1835 F120.00
G01 X142.1002 Y-92.2315 F120.00
G01 X144.6263 Y-92.2315 F120.00
G01 X144.6572 Y-92.2795 F120.00
G01 X142.1214 Y-92.2795 F120.00
G01 X142.1576 Y-92.3275 F120.00
G01 X144.6747 Y-92.3275 F120.00
M5
G00 X144.6845 Y-92.3755
G01 F60.00
M03 S1000.0
G01 F120.00
G01 X142.2055 Y-92.3755 F120.00
G01 X142.2535 Y-92.4235 F120.00
G01 X144.8093 Y-92.4235 F120.00
G01 X144.8683 Y-92.4715 F120.00
G01 X142.3109 Y-92.4715 F120.00
M5
G00 X142.4381 Y-92.5195
G01 F60.00
M03 S1000.0
G01 F120.00
G01 X144.9163 Y-92.5195 F120.00
G01 X144.9642 Y-92.5675 F120.00
G01 X142.4488 Y-92.5675 F120.00
G01 X142.4657 Y-92.6155 F120.00
G01 X145.0013 Y-92.6155 F120.00
G01 X145.0231 Y-92.6635 F120.00
G01 X142.4959 Y-92.6635 F120.00
G01 X142.5415 Y-92.7115 F120.00
G01 X145.0337 Y-92.7115 F120.00
M5
G00 X145.1265 Y-92.7595
G01 F60.00
M03 S1000.0
G01 F120.00
G01 X142.5895 Y-92.7595 F120.00
G01 X142.6399 Y-92.8075 F120.00
G01 X145.2039 Y-92.8075 F120.00
G01 X145.2523 Y-92.8555 F120.00
G01 X142.7397 Y-92.8555 F120.00
M5
G00 X142.7988 Y-92.9035
G01 F60.00
M03 S1000.0
G01 F120.00
G01 X145.3003 Y-92.9035 F120.00
G01 X145.3434 Y-92.9515 F120.00
G01 X142.8118 Y-92.9515 F120.00
G01 X142.8366 Y-92.9995 F120.00
G01 X145.3700 Y-92.9995 F120.00
G01 X145.3845 Y-93.0475 F120.00
G01 X142.8775 Y-93.0475 F120.00
G01 X142.9255 Y-93.0955 F120.00
G01 X145.4061 Y-93.0955 F120.00
M5
G00 X145.5360 Y-93.1435
G01 F60.00
M03 S1000.0
G01 F120.00
G01 X142.9735 Y-93.1435 F120.00
G01 X143.0418 Y-93.1915 F120.00
G01 X145.5883 Y-93.1915 F120.00
G01 X145.6363 Y-93.2395 F120.00
G01 X143.1502 Y-93.2395 F120.00
M5
G00 X143.1595 Y-93.2875
G01 F60.00
M03 S1000.0
G01 F120.00
G01 X145.6831 Y-93.2875 F120.00
G01 X145.7154 Y-93.3355 F120.00
G01 X143.1796 Y-93.3355 F120.00
G01 X143.2139 Y-93.3835 F120.00
G01 X145.7341 Y-93.3835 F120.00
G01 X145.7421 Y-93.4315 F120.00
G01 X143.2615 Y-93.4315 F120.00
G01 X143.3095 Y-93.4795 F120.00
G01 X145.7405 Y-93.4795 F120.00
G01 X145.7292 Y-93.5275 F120.00
G01 X143.3646 Y-93.5275 F120.00
M5
G00 X143.4948 Y-93.5755
G01 F60.00
M03 S1000.0
G01 F120.00
G01 X145.7065 Y-93.5755 F120.00
G01 X145.6681 Y-93.6235 F120.00
G01 X143.5085 Y-93.6235 F120.00
G01 X143.5243 Y-93.6715 F120.00
G01 X145.6201 Y-93.6715 F120.00
G01 X145.5721 Y-93.7195 F120.00
G01 X143.5527 Y-93.7195 F120.00
G01 X143.5975 Y-93.7675 F120.00
G01 X145.5241 Y-93.7675 F120.00
G01 X145.4761 Y-93.8155 F120.00
G01 X143.6455 Y-93.8155 F120.00
G01 X143.6948 Y-93.8635 F120.00
G01 X145.4281 Y-93.8635 F120.00
G01 X145.3801 Y-93.9115 F120.00
G01 X143.7828 Y-93.9115 F120.00
M5
G00 X143.8587 Y-93.9595
G01 F60.00
M03 S1000.0
G01 F120.00
G01 X145.3321 Y-93.9595 F120.00
G01 X145.2841 Y-94.0075 F120.00
G01 X143.8707 Y-94.0075 F120.00
G01 X143.8942 Y-94.0555 F120.00
G01 X145.2361 Y-94.0555 F120.00
G01 X145.1881 Y-94.1035 F120.00
G01 X143.9335 Y-94.1035 F120.00
G01 X143.9815 Y-94.1515 F120.00
G01 X145.1401 Y-94.1515 F120.00
G01 X145.0921 Y-94.1995 F120.00
G01 X144.0295 Y-94.1995 F120.00
G01 X144.0935 Y-94.2475 F120.00
G01 X145.0441 Y-94.2475 F120.00
G01 X144.9961 Y-94.2955 F120.00
G01 X144.2099 Y-94.2955 F120.00
M5
G00 X144.2187 Y-94.3435
G01 F60.00
M03 S1000.0
G01 F120.00
G01 X144.9481 Y-94.3435 F120.00
G01 X144.9001 Y-94.3915 F120.00
G01 X144.2377 Y-94.3915 F120.00
G01 X144.2704 Y-94.4395 F120.00
G01 X144.8521 Y-94.4395 F120.00
G01 X144.8041 Y-94.4875 F120.00
G01 X144.3175 Y-94.4875 F120.00
G01 X144.3655 Y-94.5355 F120.00
G01 X144.7561 Y-94.5355 F120.00
G01 X144.7033 Y-94.5835 F120.00
G01 X144.4183 Y-94.5835 F120.00
M5
G00 X143.4681 Y-94.9077
G01 F60.00
M03 S1000.0
G01 F120.00
G01 X143.4681 Y-95.3419 F120.00
G01 X143.4201 Y-95.4417 F120.00
G01 X143.4201 Y-94.8078 F120.00
G01 X143.3721 Y-94.7381 F120.00
G01 X143.3721 Y-95.5115 F120.00
G01 X143.3241 Y-95.5649 F120.00
G01 X143.3241 Y-94.6847 F120.00
G01 X143.2761 Y-94.6418 F120.00
G01 X143.2761 Y-95.6078 F120.00
G01 X143.2281 Y-95.6427 F120.00
G01 X143.2281 Y-94.6069 F120.00
G01 X143.1801 Y-94.5784 F120.00
G01 X143.1801 Y-95.6712 F120.00
G01 X143.1321 Y-95.6944 F120.00
G01 X143.1321 Y-94.5552 F120.00
G01 X143.0841 Y-94.5370 F120.00
G01 X143.0841 Y-95.7125 F120.00
G01 X143.0361 Y-95.7263 F120.00
G01 X143.0361 Y-94.5233 F120.00
G01 X142.9881 Y-94.5134 F120.00
G01 X142.9881 Y-95.7362 F120.00
G01 X142.9401 Y-95.7423 F120.00
G01 X142.9401 Y-94.5072 F120.00
G01 X142.8921 Y-94.5051 F120.00
G01 X142.8921 Y-95.7445 F120.00
G01 X142.8441 Y-95.7429 F120.00
G01 X142.8441 Y-94.5067 F120.00
G01 X142.7961 Y-94.5121 F120.00
G01 X142.7961 Y-95.7375 F120.00
G01 X142.7481 Y-95.7285 F120.00
G01 X142.7481 Y-94.5211 F120.00
G01 X142.6969 Y-94.5351 F120.00
G01 X142.6613 Y-94.5479 F120.00
G01 X142.6400 Y-94.5567 F120.00
G01 X142.6058 Y-94.5728 F120.00
G01 X142.5855 Y-94.5837 F120.00
G01 X142.5531 Y-94.6031 F120.00
G01 X142.5339 Y-94.6159 F120.00
G01 X142.5036 Y-94.6384 F120.00
G01 X142.4857 Y-94.6531 F120.00
G01 X142.4577 Y-94.6784 F120.00
G01 X142.4414 Y-94.6948 F120.00
G01 X142.4161 Y-94.7227 F120.00
G01 X142.4014 Y-94.7406 F120.00
G01 X142.3789 Y-94.7709 F120.00
G01 X142.3661 Y-94.7901 F120.00
G01 X142.3467 Y-94.8225 F120.00
G01 X142.3358 Y-94.8428 F120.00
G01 X142.3197 Y-94.8770 F120.00
G01 X142.3108 Y-94.8983 F120.00
G01 X142.2981 Y-94.9339 F120.00
G01 X142.2914 Y-94.9559 F120.00
G01 X142.2822 Y-94.9926 F120.00
G01 X142.2777 Y-95.0152 F120.00
G01 X142.2722 Y-95.0526 F120.00
G01 X142.2699 Y-95.0755 F120.00
G01 X142.2681 Y-95.1133 F120.00
G01 X142.2681 Y-95.1363 F120.00
G01 X142.2699 Y-95.1741 F120.00
G01 X142.2722 Y-95.1970 F120.00
G01 X142.2777 Y-95.2344 F120.00
G01 X142.2822 Y-95.2570 F120.00
G01 X142.2914 Y-95.2936 F120.00
G01 X142.2981 Y-95.3157 F120.00
G01 X142.3108 Y-95.3513 F120.00
G01 X142.3197 Y-95.3726 F120.00
G01 X142.3358 Y-95.4067 F120.00
G01 X142.3467 Y-95.4271 F120.00
G01 X142.3661 Y-95.4595 F120.00
G01 X142.3789 Y-95.4787 F120.00
G01 X142.4014 Y-95.5090 F120.00
G01 X142.4161 Y-95.5268 F120.00
G01 X142.4414 Y-95.5548 F120.00
G01 X142.4577 Y-95.5711 F120.00
G01 X142.4857 Y-95.5965 F120.00
G01 X142.5036 Y-95.6111 F120.00
G01 X142.5339 Y-95.6336 F120.00
G01 X142.5531 Y-95.6465 F120.00
G01 X142.5855 Y-95.6659 F120.00
G01 X142.6058 Y-95.6768 F120.00
G01 X142.6400 Y-95.6929 F120.00
G01 X142.6613 Y-95.7017 F120.00
G01 X142.6969 Y-95.7145 F120.00
G01 X142.7189 Y-95.7212 F120.00
G01 X142.7556 Y-95.7303 F120.00
G01 X142.7782 Y-95.7348 F120.00
G01 X142.8156 Y-95.7404 F120.00
G01 X142.8385 Y-95.7426 F120.00
G01 X142.8763 Y-95.7445 F120.00
G01 X142.8993 Y-95.7445 F120.00
G01 X142.9371 Y-95.7426 F120.00
G01 X142.9600 Y-95.7404 F120.00
G01 X142.9974 Y-95.7348 F120.00
G01 X143.0200 Y-95.7303 F120.00
G01 X143.0566 Y-95.7212 F120.00
G01 X143.0787 Y-95.7145 F120.00
G01 X143.1143 Y-95.7017 F120.00
G01 X143.1356 Y-95.6929 F120.00
G01 X143.1697 Y-95.6768 F120.00
G01 X143.1901 Y-95.6659 F120.00
G01 X143.2225 Y-95.6465 F120.00
G01 X143.2417 Y-95.6336 F120.00
G01 X143.2720 Y-95.6111 F120.00
G01 X143.2898 Y-95.5965 F120.00
G01 X143.3178 Y-95.5711 F120.00
G01 X143.3341 Y-95.5548 F120.00
G01 X143.3595 Y-95.5268 F120.00
G01 X143.3741 Y-95.5090 F120.00
G01 X143.3966 Y-95.4787 F120.00
G01 X143.4095 Y-95.4595 F120.00
G01 X143.4289 Y-95.4271 F120.00
G01 X143.4397 Y-95.4067 F120.00
G01 X143.4559 Y-95.3726 F120.00
G01 X143.4647 Y-95.3513 F120.00
G01 X143.4775 Y-95.3157 F120.00
G01 X143.4841 Y-95.2936 F120.00
G01 X143.4933 Y-95.2570 F120.00
G01 X143.4978 Y-95.2344 F120.00
G01 X143.5034 Y-95.1970 F120.00
G01 X143.5056 Y-95.1741 F120.00
G01 X143.5075 Y-95.1363 F120.00
G01 X143.5075 Y-95.1133 F120.00
G01 X143.5056 Y-95.0755 F120.00
G01 X143.5034 Y-95.0526 F120.00
G01 X143.4978 Y-95.0152 F120.00
G01 X143.4933 Y-94.9926 F120.00
G01 X143.4841 Y-94.9559 F120.00
G01 X143.4775 Y-94.9339 F120.00
G01 X143.4647 Y-94.8983 F120.00
G01 X143.4559 Y-94.8770 F120.00
G01 X143.4397 Y-94.8428 F120.00
G01 X143.4289 Y-94.8225 F120.00
G01 X143.4095 Y-94.7901 F120.00
G01 X143.3966 Y-94.7709 F120.00
G01 X143.3741 Y-94.7406 F120.00
G01 X143.3595 Y-94.7227 F120.00
G01 X143.3341 Y-94.6948 F120.00
G01 X143.3178 Y-94.6784 F120.00
G01 X143.2898 Y-94.6531 F120.00
G01 X143.2720 Y-94.6384 F120.00
G01 X143.2417 Y-94.6159 F120.00
G01 X143.2225 Y-94.6031 F120.00
G01 X143.1901 Y-94.5837 F120.00
G01 X143.1697 Y-94.5728 F120.00
G01 X143.1356 Y-94.5567 F120.00
G01 X143.1143 Y-94.5479 F120.00
G01 X143.0787 Y-94.5351 F120.00
G01 X143.0566 Y-94.5284 F120.00
G01 X143.0200 Y-94.5192 F120.00
G01 X142.9974 Y-94.5148 F120.00
G01 X142.9600 Y-94.5092 F120.00
G01 X142.9371 Y-94.5069 F120.00
G01 X142.8993 Y-94.5051 F120.00
G01 X142.8763 Y-94.5051 F120.00
G01 X142.8385 Y-94.5069 F120.00
G01 X142.8156 Y-94.5092 F120.00
G01 X142.7782 Y-94.5148 F120.00
G01 X142.7556 Y-94.5192 F120.00
G01 X142.7189 Y-94.5284 F120.00
G01 X142.6969 Y-94.5351 F120.00
G01 X142.7001 Y-94.5341 F120.00
G01 X142.7001 Y-95.7154 F120.00
G01 X142.6521 Y-95.6979 F120.00
G01 X142.6521 Y-94.5517 F120.00
G01 X142.6041 Y-94.5738 F120.00
G01 X142.6041 Y-95.6758 F120.00
G01 X142.5561 Y-95.6483 F120.00
G01 X142.5561 Y-94.6013 F120.00
G01 X142.5081 Y-94.6351 F120.00
G01 X142.5081 Y-95.6145 F120.00
G01 X142.4601 Y-95.5733 F120.00
G01 X142.4601 Y-94.6763 F120.00
G01 X142.4121 Y-94.7276 F120.00
G01 X142.4121 Y-95.5220 F120.00
G01 X142.3641 Y-95.4561 F120.00
G01 X142.3641 Y-94.7935 F120.00
M5
G00 X142.3161 Y-94.8856
G01 F60.00
M03 S1000.0
G01 F120.00
G01 X142.3161 Y-95.3639 F120.00
M5
G00 X142.8104 Y-96.4939
G01 F60.00
M03 S1000.0
G01 F120.00
G01 X142.8104 Y-97.1565 F120.00
G01 X142.8584 Y-97.2224 F120.00
G01 X142.8584 Y-96.4280 F120.00
G01 X142.9064 Y-96.3767 F120.00
G01 X142.9064 Y-97.2737 F120.00
G01 X142.9544 Y-97.3149 F120.00
G01 X142.9544 Y-96.3355 F120.00
G01 X143.0024 Y-96.3017 F120.00
G01 X143.0024 Y-97.3487 F120.00
G01 X143.0504 Y-97.3762 F120.00
G01 X143.0504 Y-96.2742 F120.00
G01 X143.0984 Y-96.2521 F120.00
G01 X143.0984 Y-97.3983 F120.00
G01 X143.1464 Y-97.4159 F120.00
G01 X143.1464 Y-96.2346 F120.00
G01 X143.1431 Y-96.2355 F120.00
G01 X143.1652 Y-96.2288 F120.00
G01 X143.2019 Y-96.2197 F120.00
G01 X143.2245 Y-96.2152 F120.00
G01 X143.2619 Y-96.2096 F120.00
G01 X143.2848 Y-96.2074 F120.00
G01 X143.3225 Y-96.2055 F120.00
G01 X143.3456 Y-96.2055 F120.00
G01 X143.3833 Y-96.2074 F120.00
G01 X143.4063 Y-96.2096 F120.00
G01 X143.4437 Y-96.2152 F120.00
G01 X143.4663 Y-96.2197 F120.00
G01 X143.5029 Y-96.2288 F120.00
G01 X143.5250 Y-96.2355 F120.00
G01 X143.5606 Y-96.2483 F120.00
G01 X143.5819 Y-96.2571 F120.00
G01 X143.6160 Y-96.2732 F120.00
G01 X143.6364 Y-96.2841 F120.00
G01 X143.6688 Y-96.3035 F120.00
G01 X143.6879 Y-96.3164 F120.00
G01 X143.7183 Y-96.3389 F120.00
G01 X143.7361 Y-96.3535 F120.00
G01 X143.7641 Y-96.3789 F120.00
G01 X143.7804 Y-96.3952 F120.00
G01 X143.8058 Y-96.4232 F120.00
G01 X143.8204 Y-96.4410 F120.00
G01 X143.8429 Y-96.4713 F120.00
G01 X143.8557 Y-96.4905 F120.00
G01 X143.8752 Y-96.5229 F120.00
G01 X143.8860 Y-96.5433 F120.00
G01 X143.9022 Y-96.5774 F120.00
G01 X143.9110 Y-96.5987 F120.00
G01 X143.9237 Y-96.6343 F120.00
G01 X143.9304 Y-96.6564 F120.00
G01 X143.9396 Y-96.6930 F120.00
G01 X143.9441 Y-96.7156 F120.00
G01 X143.9497 Y-96.7530 F120.00
G01 X143.9519 Y-96.7759 F120.00
G01 X143.9538 Y-96.8137 F120.00
G01 X143.9538 Y-96.8367 F120.00
G01 X143.9519 Y-96.8745 F120.00
G01 X143.9497 Y-96.8974 F120.00
G01 X143.9441 Y-96.9348 F120.00
G01 X143.9396 Y-96.9574 F120.00
G01 X143.9304 Y-96.9941 F120.00
G01 X143.9237 Y-97.0161 F120.00
