(G-CODE GENERATED BY FLATCAM v8.994 - www.flatcam.org - Version Date: 2020/11/7)

(Name: HOKUSHIME_Silk_Screen_mt_paint_cnc)
(Type: G-code from Geometry)
(Units: MM)

(Created on Sunday, 18 May 2025 at 09:53)

(This preprocessor is used with a motion controller loaded with GRBL firmware. )
(It is for the case when it is used together with a LASER connected on the SPINDLE connector.)

(Feedrate: 120.0 mm/min)
(Feedrate rapids: 1500.0 mm/min)

(Z Focus: 2.0 mm)
(Steps per circle: 64)
(Preprocessor Geometry: GRBL_laser)

(X range:  128.6800 ...  177.9450  mm)
(Y range: -118.4200 ...  -74.6800  mm)

(Laser Power - Spindle Speed: 5000.0)

G21
G90
G17
G94

G01 F120.00

M5
G01 F120.00
G00 X131.1050 Y-77.1952
G01 F60.00
M03 S5000.0
G01 F120.00
G01 X133.0950 Y-77.1952 F120.00
G01 X133.0950 Y-77.2354 F120.00
G01 X131.1050 Y-77.2354 F120.00
G01 X131.1050 Y-77.2756 F120.00
G01 X133.0950 Y-77.2756 F120.00
G01 X133.0950 Y-77.3158 F120.00
G01 X131.1050 Y-77.3158 F120.00
G01 X131.1050 Y-77.3560 F120.00
G01 X133.0950 Y-77.3560 F120.00
G01 X133.0950 Y-77.3962 F120.00
G01 X131.1050 Y-77.3962 F120.00
G01 X131.1050 Y-77.4364 F120.00
G01 X133.0950 Y-77.4364 F120.00
G01 X133.0950 Y-77.4766 F120.00
G01 X131.1050 Y-77.4766 F120.00
G01 X131.1050 Y-77.5168 F120.00
G01 X133.0950 Y-77.5168 F120.00
G01 X133.0950 Y-77.5570 F120.00
G01 X131.1050 Y-77.5570 F120.00
G01 X131.1050 Y-77.5972 F120.00
G01 X133.0950 Y-77.5972 F120.00
G01 X133.0950 Y-77.6374 F120.00
G01 X131.1050 Y-77.6374 F120.00
G01 X131.1050 Y-77.6776 F120.00
G01 X133.0950 Y-77.6776 F120.00
G01 X133.0950 Y-77.7178 F120.00
G01 X131.1050 Y-77.7178 F120.00
G01 X131.1050 Y-77.7580 F120.00
G01 X133.0950 Y-77.7580 F120.00
G01 X133.0950 Y-77.7982 F120.00
G01 X131.1050 Y-77.7982 F120.00
G01 X131.1050 Y-77.8384 F120.00
G01 X133.0950 Y-77.8384 F120.00
G01 X133.0950 Y-77.8786 F120.00
G01 X131.1050 Y-77.8786 F120.00
G01 X131.1050 Y-77.9188 F120.00
G01 X133.0950 Y-77.9188 F120.00
G01 X133.0950 Y-77.9590 F120.00
G01 X131.1050 Y-77.9590 F120.00
G01 X131.1050 Y-77.9992 F120.00
G01 X133.0950 Y-77.9992 F120.00
G01 X133.0950 Y-78.0394 F120.00
G01 X131.1050 Y-78.0394 F120.00
G01 X131.1050 Y-78.0796 F120.00
G01 X133.0950 Y-78.0796 F120.00
G01 X133.0950 Y-78.1198 F120.00
G01 X131.1050 Y-78.1198 F120.00
G01 X131.1050 Y-78.1600 F120.00
G01 X133.0950 Y-78.1600 F120.00
G01 X133.0950 Y-78.2002 F120.00
G01 X131.1050 Y-78.2002 F120.00
G01 X131.1050 Y-78.2404 F120.00
G01 X133.0950 Y-78.2404 F120.00
G01 X133.0950 Y-78.2806 F120.00
G01 X131.1050 Y-78.2806 F120.00
G01 X131.1050 Y-78.3208 F120.00
G01 X133.0950 Y-78.3208 F120.00
G01 X133.0950 Y-78.3610 F120.00
G01 X131.1050 Y-78.3610 F120.00
G01 X131.1050 Y-78.4012 F120.00
G01 X133.0950 Y-78.4012 F120.00
G01 X133.0950 Y-78.4414 F120.00
G01 X131.1050 Y-78.4414 F120.00
G01 X131.1050 Y-78.4816 F120.00
G01 X133.0950 Y-78.4816 F120.00
G01 X133.0950 Y-78.5218 F120.00
G01 X131.1050 Y-78.5218 F120.00
G01 X131.1050 Y-78.5620 F120.00
G01 X133.0950 Y-78.5620 F120.00
M5
G00 X134.0550 Y-78.5950
G01 F60.00
M03 S5000.0
G01 F120.00
G01 X134.0550 Y-77.1550 F120.00
G01 X136.0450 Y-77.1550 F120.00
G01 X136.0450 Y-78.5950 F120.00
G01 X134.0550 Y-78.5950 F120.00
M5
G00 X134.2986 Y-79.8452
G01 F60.00
M03 S5000.0
G01 F120.00
G01 X135.4514 Y-79.8452 F120.00
G01 X135.4950 Y-79.8854 F120.00
G01 X134.2550 Y-79.8854 F120.00
M5
G00 X134.2290 Y-79.9256
G01 F60.00
M03 S5000.0
G01 F120.00
G01 X135.5210 Y-79.9256 F120.00
G01 X135.5367 Y-79.9658 F120.00
G01 X134.2133 Y-79.9658 F120.00
G01 X134.2060 Y-80.0060 F120.00
G01 X135.5440 Y-80.0060 F120.00
G01 X135.5450 Y-80.0462 F120.00
G01 X134.2050 Y-80.0462 F120.00
G01 X134.2050 Y-80.0864 F120.00
G01 X135.5450 Y-80.0864 F120.00
G01 X135.5450 Y-80.1266 F120.00
G01 X134.2050 Y-80.1266 F120.00
G01 X134.2050 Y-80.1668 F120.00
G01 X135.5450 Y-80.1668 F120.00
G01 X135.5450 Y-80.2070 F120.00
G01 X134.2050 Y-80.2070 F120.00
G01 X134.2050 Y-80.2472 F120.00
G01 X135.5450 Y-80.2472 F120.00
G01 X135.5450 Y-80.2874 F120.00
G01 X134.2050 Y-80.2874 F120.00
G01 X134.2050 Y-80.3276 F120.00
G01 X135.5450 Y-80.3276 F120.00
G01 X135.5450 Y-80.3678 F120.00
G01 X134.2050 Y-80.3678 F120.00
G01 X134.2050 Y-80.4080 F120.00
G01 X135.5450 Y-80.4080 F120.00
G01 X135.5450 Y-80.4482 F120.00
G01 X134.2050 Y-80.4482 F120.00
G01 X134.2050 Y-80.4884 F120.00
G01 X135.5450 Y-80.4884 F120.00
G01 X135.5450 Y-80.5286 F120.00
G01 X134.2050 Y-80.5286 F120.00
G01 X134.2050 Y-80.5688 F120.00
G01 X135.5450 Y-80.5688 F120.00
G01 X135.5450 Y-80.6090 F120.00
G01 X134.2050 Y-80.6090 F120.00
G01 X134.2050 Y-80.6492 F120.00
G01 X135.5450 Y-80.6492 F120.00
G01 X135.5450 Y-80.6894 F120.00
G01 X134.2050 Y-80.6894 F120.00
G01 X134.2053 Y-80.7296 F120.00
G01 X135.5447 Y-80.7296 F120.00
G01 X135.5403 Y-80.7698 F120.00
G01 X134.2097 Y-80.7698 F120.00
G01 X134.2222 Y-80.8100 F120.00
G01 X135.5278 Y-80.8100 F120.00
G01 X135.5057 Y-80.8502 F120.00
G01 X134.2443 Y-80.8502 F120.00
G01 X134.2803 Y-80.8904 F120.00
G01 X135.4697 Y-80.8904 F120.00
G01 X135.4025 Y-80.9306 F120.00
G01 X134.3475 Y-80.9306 F120.00
M5
G00 X134.2986 Y-81.8452
G01 F60.00
M03 S5000.0
G01 F120.00
G01 X135.4514 Y-81.8452 F120.00
G01 X135.4950 Y-81.8854 F120.00
G01 X134.2550 Y-81.8854 F120.00
M5
G00 X134.2290 Y-81.9256
G01 F60.00
M03 S5000.0
G01 F120.00
G01 X135.5210 Y-81.9256 F120.00
G01 X135.5367 Y-81.9658 F120.00
G01 X134.2133 Y-81.9658 F120.00
G01 X134.2060 Y-82.0060 F120.00
G01 X135.5440 Y-82.0060 F120.00
G01 X135.5450 Y-82.0462 F120.00
G01 X134.2050 Y-82.0462 F120.00
G01 X134.2050 Y-82.0864 F120.00
G01 X135.5450 Y-82.0864 F120.00
G01 X135.5450 Y-82.1266 F120.00
G01 X134.2050 Y-82.1266 F120.00
G01 X134.2050 Y-82.1668 F120.00
G01 X135.5450 Y-82.1668 F120.00
G01 X135.5450 Y-82.2070 F120.00
G01 X134.2050 Y-82.2070 F120.00
G01 X134.2050 Y-82.2472 F120.00
G01 X135.5450 Y-82.2472 F120.00
G01 X135.5450 Y-82.2874 F120.00
G01 X134.2050 Y-82.2874 F120.00
G01 X134.2050 Y-82.3276 F120.00
G01 X135.5450 Y-82.3276 F120.00
G01 X135.5450 Y-82.3678 F120.00
G01 X134.2050 Y-82.3678 F120.00
G01 X134.2050 Y-82.4080 F120.00
G01 X135.5450 Y-82.4080 F120.00
G01 X135.5450 Y-82.4482 F120.00
G01 X134.2050 Y-82.4482 F120.00
G01 X134.2050 Y-82.4884 F120.00
G01 X135.5450 Y-82.4884 F120.00
G01 X135.5450 Y-82.5286 F120.00
G01 X134.2050 Y-82.5286 F120.00
G01 X134.2050 Y-82.5688 F120.00
G01 X135.5450 Y-82.5688 F120.00
G01 X135.5450 Y-82.6090 F120.00
G01 X134.2050 Y-82.6090 F120.00
G01 X134.2050 Y-82.6492 F120.00
G01 X135.5450 Y-82.6492 F120.00
G01 X135.5450 Y-82.6894 F120.00
G01 X134.2050 Y-82.6894 F120.00
G01 X134.2053 Y-82.7296 F120.00
G01 X135.5447 Y-82.7296 F120.00
G01 X135.5403 Y-82.7698 F120.00
G01 X134.2097 Y-82.7698 F120.00
G01 X134.2222 Y-82.8100 F120.00
G01 X135.5278 Y-82.8100 F120.00
G01 X135.5057 Y-82.8502 F120.00
G01 X134.2443 Y-82.8502 F120.00
G01 X134.2803 Y-82.8904 F120.00
G01 X135.4697 Y-82.8904 F120.00
G01 X135.4025 Y-82.9306 F120.00
G01 X134.3475 Y-82.9306 F120.00
M5
G00 X135.3243 Y-81.8050
G01 F60.00
M03 S5000.0
G01 F120.00
G01 X135.3466 Y-81.8061 F120.00
G01 X135.3679 Y-81.8093 F120.00
G01 X135.3889 Y-81.8145 F120.00
G01 X135.4092 Y-81.8218 F120.00
G01 X135.4287 Y-81.8310 F120.00
G01 X135.4472 Y-81.8421 F120.00
G01 X135.4645 Y-81.8550 F120.00
G01 X135.4805 Y-81.8695 F120.00
G01 X135.4950 Y-81.8855 F120.00
G01 X135.5079 Y-81.9028 F120.00
G01 X135.5190 Y-81.9213 F120.00
G01 X135.5282 Y-81.9408 F120.00
G01 X135.5355 Y-81.9611 F120.00
G01 X135.5407 Y-81.9821 F120.00
G01 X135.5439 Y-82.0034 F120.00
G01 X135.5450 Y-82.0257 F120.00
G01 X135.5450 Y-82.7243 F120.00
G01 X135.5439 Y-82.7466 F120.00
G01 X135.5407 Y-82.7679 F120.00
G01 X135.5355 Y-82.7889 F120.00
G01 X135.5282 Y-82.8092 F120.00
G01 X135.5190 Y-82.8287 F120.00
G01 X135.5079 Y-82.8472 F120.00
G01 X135.4950 Y-82.8645 F120.00
G01 X135.4805 Y-82.8805 F120.00
G01 X135.4645 Y-82.8950 F120.00
G01 X135.4472 Y-82.9079 F120.00
G01 X135.4287 Y-82.9190 F120.00
G01 X135.4092 Y-82.9282 F120.00
G01 X135.3889 Y-82.9355 F120.00
G01 X135.3679 Y-82.9407 F120.00
G01 X135.3466 Y-82.9439 F120.00
G01 X135.3243 Y-82.9450 F120.00
G01 X134.4257 Y-82.9450 F120.00
G01 X134.4034 Y-82.9439 F120.00
G01 X134.3821 Y-82.9407 F120.00
G01 X134.3611 Y-82.9355 F120.00
G01 X134.3408 Y-82.9282 F120.00
G01 X134.3213 Y-82.9190 F120.00
G01 X134.3028 Y-82.9079 F120.00
G01 X134.2855 Y-82.8950 F120.00
G01 X134.2695 Y-82.8805 F120.00
G01 X134.2550 Y-82.8645 F120.00
G01 X134.2421 Y-82.8472 F120.00
G01 X134.2310 Y-82.8287 F120.00
G01 X134.2218 Y-82.8092 F120.00
G01 X134.2145 Y-82.7889 F120.00
G01 X134.2093 Y-82.7679 F120.00
G01 X134.2061 Y-82.7466 F120.00
G01 X134.2050 Y-82.7243 F120.00
G01 X134.2050 Y-82.0257 F120.00
G01 X134.2061 Y-82.0034 F120.00
G01 X134.2093 Y-81.9821 F120.00
G01 X134.2145 Y-81.9611 F120.00
G01 X134.2218 Y-81.9408 F120.00
G01 X134.2310 Y-81.9213 F120.00
G01 X134.2421 Y-81.9028 F120.00
G01 X134.2550 Y-81.8855 F120.00
G01 X134.2695 Y-81.8695 F120.00
G01 X134.2855 Y-81.8550 F120.00
G01 X134.3028 Y-81.8421 F120.00
G01 X134.3213 Y-81.8310 F120.00
G01 X134.3408 Y-81.8218 F120.00
G01 X134.3611 Y-81.8145 F120.00
G01 X134.3821 Y-81.8093 F120.00
G01 X134.4034 Y-81.8061 F120.00
G01 X134.4257 Y-81.8050 F120.00
G01 X135.3243 Y-81.8050 F120.00
M5
G00 X135.3243 Y-79.8050
G01 F60.00
M03 S5000.0
G01 F120.00
G01 X135.3466 Y-79.8061 F120.00
G01 X135.3679 Y-79.8093 F120.00
G01 X135.3889 Y-79.8145 F120.00
G01 X135.4092 Y-79.8218 F120.00
G01 X135.4287 Y-79.8310 F120.00
G01 X135.4472 Y-79.8421 F120.00
G01 X135.4645 Y-79.8550 F120.00
G01 X135.4805 Y-79.8695 F120.00
G01 X135.4950 Y-79.8855 F120.00
G01 X135.5079 Y-79.9028 F120.00
G01 X135.5190 Y-79.9213 F120.00
G01 X135.5282 Y-79.9408 F120.00
G01 X135.5355 Y-79.9611 F120.00
G01 X135.5407 Y-79.9821 F120.00
G01 X135.5439 Y-80.0034 F120.00
G01 X135.5450 Y-80.0257 F120.00
G01 X135.5450 Y-80.7243 F120.00
G01 X135.5439 Y-80.7466 F120.00
G01 X135.5407 Y-80.7679 F120.00
G01 X135.5355 Y-80.7889 F120.00
G01 X135.5282 Y-80.8092 F120.00
G01 X135.5190 Y-80.8287 F120.00
G01 X135.5079 Y-80.8472 F120.00
G01 X135.4950 Y-80.8645 F120.00
G01 X135.4805 Y-80.8805 F120.00
G01 X135.4645 Y-80.8950 F120.00
G01 X135.4472 Y-80.9079 F120.00
G01 X135.4287 Y-80.9190 F120.00
G01 X135.4092 Y-80.9282 F120.00
G01 X135.3889 Y-80.9355 F120.00
G01 X135.3679 Y-80.9407 F120.00
G01 X135.3466 Y-80.9439 F120.00
G01 X135.3243 Y-80.9450 F120.00
G01 X134.4257 Y-80.9450 F120.00
G01 X134.4034 Y-80.9439 F120.00
G01 X134.3821 Y-80.9407 F120.00
G01 X134.3611 Y-80.9355 F120.00
G01 X134.3408 Y-80.9282 F120.00
G01 X134.3213 Y-80.9190 F120.00
G01 X134.3028 Y-80.9079 F120.00
G01 X134.2855 Y-80.8950 F120.00
G01 X134.2695 Y-80.8805 F120.00
G01 X134.2550 Y-80.8645 F120.00
G01 X134.2421 Y-80.8472 F120.00
G01 X134.2310 Y-80.8287 F120.00
G01 X134.2218 Y-80.8092 F120.00
G01 X134.2145 Y-80.7889 F120.00
G01 X134.2093 Y-80.7679 F120.00
G01 X134.2061 Y-80.7466 F120.00
G01 X134.2050 Y-80.7243 F120.00
G01 X134.2050 Y-80.0257 F120.00
G01 X134.2061 Y-80.0034 F120.00
G01 X134.2093 Y-79.9821 F120.00
G01 X134.2145 Y-79.9611 F120.00
G01 X134.2218 Y-79.9408 F120.00
G01 X134.2310 Y-79.9213 F120.00
G01 X134.2421 Y-79.9028 F120.00
G01 X134.2550 Y-79.8855 F120.00
G01 X134.2695 Y-79.8695 F120.00
G01 X134.2855 Y-79.8550 F120.00
G01 X134.3028 Y-79.8421 F120.00
G01 X134.3213 Y-79.8310 F120.00
G01 X134.3408 Y-79.8218 F120.00
G01 X134.3611 Y-79.8145 F120.00
G01 X134.3821 Y-79.8093 F120.00
G01 X134.4034 Y-79.8061 F120.00
G01 X134.4257 Y-79.8050 F120.00
G01 X135.3243 Y-79.8050 F120.00
M5
G00 X136.0450 Y-78.5620
G01 F60.00
M03 S5000.0
G01 F120.00
G01 X134.0550 Y-78.5620 F120.00
G01 X134.0550 Y-78.5218 F120.00
G01 X136.0450 Y-78.5218 F120.00
G01 X136.0450 Y-78.4816 F120.00
G01 X134.0550 Y-78.4816 F120.00
G01 X134.0550 Y-78.4414 F120.00
G01 X136.0450 Y-78.4414 F120.00
G01 X136.0450 Y-78.4012 F120.00
G01 X134.0550 Y-78.4012 F120.00
G01 X134.0550 Y-78.3610 F120.00
G01 X136.0450 Y-78.3610 F120.00
G01 X136.0450 Y-78.3208 F120.00
G01 X134.0550 Y-78.3208 F120.00
G01 X134.0550 Y-78.2806 F120.00
G01 X136.0450 Y-78.2806 F120.00
G01 X136.0450 Y-78.2404 F120.00
G01 X134.0550 Y-78.2404 F120.00
G01 X134.0550 Y-78.2002 F120.00
G01 X136.0450 Y-78.2002 F120.00
G01 X136.0450 Y-78.1600 F120.00
G01 X134.0550 Y-78.1600 F120.00
G01 X134.0550 Y-78.1198 F120.00
G01 X136.0450 Y-78.1198 F120.00
G01 X136.0450 Y-78.0796 F120.00
G01 X134.0550 Y-78.0796 F120.00
G01 X134.0550 Y-78.0394 F120.00
G01 X136.0450 Y-78.0394 F120.00
G01 X136.0450 Y-77.9992 F120.00
G01 X134.0550 Y-77.9992 F120.00
G01 X134.0550 Y-77.9590 F120.00
G01 X136.0450 Y-77.9590 F120.00
G01 X136.0450 Y-77.9188 F120.00
G01 X134.0550 Y-77.9188 F120.00
G01 X134.0550 Y-77.8786 F120.00
G01 X136.0450 Y-77.8786 F120.00
G01 X136.0450 Y-77.8384 F120.00
G01 X134.0550 Y-77.8384 F120.00
G01 X134.0550 Y-77.7982 F120.00
G01 X136.0450 Y-77.7982 F120.00
G01 X136.0450 Y-77.7580 F120.00
G01 X134.0550 Y-77.7580 F120.00
G01 X134.0550 Y-77.7178 F120.00
G01 X136.0450 Y-77.7178 F120.00
G01 X136.0450 Y-77.6776 F120.00
G01 X134.0550 Y-77.6776 F120.00
G01 X134.0550 Y-77.6374 F120.00
G01 X136.0450 Y-77.6374 F120.00
G01 X136.0450 Y-77.5972 F120.00
G01 X134.0550 Y-77.5972 F120.00
G01 X134.0550 Y-77.5570 F120.00
G01 X136.0450 Y-77.5570 F120.00
G01 X136.0450 Y-77.5168 F120.00
G01 X134.0550 Y-77.5168 F120.00
G01 X134.0550 Y-77.4766 F120.00
G01 X136.0450 Y-77.4766 F120.00
G01 X136.0450 Y-77.4364 F120.00
G01 X134.0550 Y-77.4364 F120.00
G01 X134.0550 Y-77.3962 F120.00
G01 X136.0450 Y-77.3962 F120.00
G01 X136.0450 Y-77.3560 F120.00
G01 X134.0550 Y-77.3560 F120.00
G01 X134.0550 Y-77.3158 F120.00
G01 X136.0450 Y-77.3158 F120.00
G01 X136.0450 Y-77.2756 F120.00
G01 X134.0550 Y-77.2756 F120.00
G01 X134.0550 Y-77.2354 F120.00
G01 X136.0450 Y-77.2354 F120.00
G01 X136.0450 Y-77.1952 F120.00
G01 X134.0550 Y-77.1952 F120.00
M5
G00 X139.5463 Y-78.8418
G01 F60.00
M03 S5000.0
G01 F120.00
G01 X139.9322 Y-78.8418 F120.00
M5
G00 X139.8813 Y-78.8820
G01 F60.00
M03 S5000.0
G01 F120.00
G01 X139.5249 Y-78.8820 F120.00
G01 X139.5059 Y-78.9222 F120.00
G01 X139.8421 Y-78.9222 F120.00
M5
G00 X139.8117 Y-78.9624
G01 F60.00
M03 S5000.0
G01 F120.00
G01 X139.4913 Y-78.9624 F120.00
G01 X139.4781 Y-79.0026 F120.00
G01 X139.7882 Y-79.0026 F120.00
M5
G00 X139.7701 Y-79.0428
G01 F60.00
M03 S5000.0
G01 F120.00
G01 X139.4681 Y-79.0428 F120.00
G01 X139.4604 Y-79.0830 F120.00
G01 X139.7565 Y-79.0830 F120.00
M5
G00 X139.7472 Y-79.1232
G01 F60.00
M03 S5000.0
G01 F120.00
G01 X139.4544 Y-79.1232 F120.00
G01 X139.4518 Y-79.1634 F120.00
G01 X139.7418 Y-79.1634 F120.00
M5
G00 X139.7401 Y-79.2036
G01 F60.00
M03 S5000.0
G01 F120.00
G01 X139.4502 Y-79.2036 F120.00
G01 X139.4522 Y-79.2438 F120.00
G01 X139.7423 Y-79.2438 F120.00
M5
G00 X139.7483 Y-79.2840
G01 F60.00
M03 S5000.0
G01 F120.00
G01 X139.4555 Y-79.2840 F120.00
G01 X139.4615 Y-79.3242 F120.00
G01 X139.7583 Y-79.3242 F120.00
M5
G00 X139.7727 Y-79.3644
G01 F60.00
M03 S5000.0
G01 F120.00
G01 X139.4699 Y-79.3644 F120.00
G01 X139.4799 Y-79.4046 F120.00
G01 X139.7919 Y-79.4046 F120.00
M5
G00 X139.8168 Y-79.4448
G01 F60.00
M03 S5000.0
G01 F120.00
G01 X139.4939 Y-79.4448 F120.00
G01 X139.5093 Y-79.4850 F120.00
G01 X139.8486 Y-79.4850 F120.00
M5
G00 X139.8892 Y-79.5252
G01 F60.00
M03 S5000.0
G01 F120.00
G01 X139.5283 Y-79.5252 F120.00
G01 X139.5506 Y-79.5654 F120.00
G01 X139.9442 Y-79.5654 F120.00
M5
G00 X140.0286 Y-79.6056
G01 F60.00
M03 S5000.0
G01 F120.00
G01 X139.5755 Y-79.6056 F120.00
G01 X139.6053 Y-79.6458 F120.00
G01 X140.7347 Y-79.6458 F120.00
G01 X140.7645 Y-79.6056 F120.00
G01 X140.3114 Y-79.6056 F120.00
M5
G00 X140.3958 Y-79.5654
G01 F60.00
M03 S5000.0
G01 F120.00
G01 X140.7894 Y-79.5654 F120.00
G01 X140.8117 Y-79.5252 F120.00
G01 X140.4508 Y-79.5252 F120.00
M5
G00 X140.4914 Y-79.4850
G01 F60.00
M03 S5000.0
G01 F120.00
G01 X140.8307 Y-79.4850 F120.00
G01 X140.8462 Y-79.4448 F120.00
G01 X140.5232 Y-79.4448 F120.00
M5
G00 X140.5481 Y-79.4046
G01 F60.00
M03 S5000.0
G01 F120.00
G01 X140.8601 Y-79.4046 F120.00
G01 X140.8701 Y-79.3644 F120.00
G01 X140.5673 Y-79.3644 F120.00
M5
G00 X140.5817 Y-79.3242
G01 F60.00
M03 S5000.0
G01 F120.00
G01 X140.8785 Y-79.3242 F120.00
G01 X140.8845 Y-79.2840 F120.00
G01 X140.5917 Y-79.2840 F120.00
M5
G00 X140.5977 Y-79.2438
G01 F60.00
M03 S5000.0
G01 F120.00
G01 X140.8878 Y-79.2438 F120.00
G01 X140.8898 Y-79.2036 F120.00
G01 X140.5999 Y-79.2036 F120.00
G01 X140.6000 Y-79.2015 F120.00
G01 X140.6000 Y-79.2007 F120.00
G01 X140.6000 Y-79.1985 F120.00
G01 X140.5978 Y-79.1564 F120.00
G01 X140.5917 Y-79.1161 F120.00
G01 X140.5810 Y-79.0738 F120.00
G01 X140.5673 Y-79.0354 F120.00
G01 X140.5492 Y-78.9973 F120.00
G01 X140.5275 Y-78.9611 F120.00
G01 X140.5014 Y-78.9261 F120.00
G01 X140.4741 Y-78.8959 F120.00
G01 X140.4428 Y-78.8676 F120.00
G01 X140.4089 Y-78.8425 F120.00
G01 X140.3727 Y-78.8208 F120.00
G01 X140.3346 Y-78.8027 F120.00
G01 X140.2948 Y-78.7885 F120.00
G01 X140.2539 Y-78.7783 F120.00
G01 X140.2121 Y-78.7721 F120.00
G01 X140.1700 Y-78.7700 F120.00
G01 X140.1279 Y-78.7721 F120.00
G01 X140.0861 Y-78.7783 F120.00
G01 X140.0452 Y-78.7885 F120.00
G01 X140.0054 Y-78.8027 F120.00
G01 X139.9673 Y-78.8208 F120.00
G01 X139.9311 Y-78.8425 F120.00
G01 X139.8972 Y-78.8676 F120.00
G01 X139.8659 Y-78.8959 F120.00
G01 X139.8376 Y-78.9272 F120.00
G01 X139.8125 Y-78.9611 F120.00
G01 X139.7908 Y-78.9973 F120.00
G01 X139.7727 Y-79.0354 F120.00
G01 X139.7585 Y-79.0752 F120.00
G01 X139.7483 Y-79.1161 F120.00
G01 X139.7420 Y-79.1593 F120.00
G01 X139.7400 Y-79.2000 F120.00
G01 X139.7421 Y-79.2421 F120.00
G01 X139.7483 Y-79.2839 F120.00
G01 X139.7585 Y-79.3248 F120.00
G01 X139.7727 Y-79.3646 F120.00
G01 X139.7908 Y-79.4027 F120.00
G01 X139.8125 Y-79.4389 F120.00
G01 X139.8376 Y-79.4728 F120.00
G01 X139.8659 Y-79.5041 F120.00
G01 X139.8972 Y-79.5324 F120.00
G01 X139.9311 Y-79.5575 F120.00
G01 X139.9673 Y-79.5792 F120.00
G01 X140.0054 Y-79.5973 F120.00
G01 X140.0452 Y-79.6115 F120.00
G01 X140.0861 Y-79.6217 F120.00
G01 X140.1293 Y-79.6280 F120.00
G01 X140.1700 Y-79.6300 F120.00
G01 X140.2136 Y-79.6277 F120.00
G01 X140.2553 Y-79.6214 F120.00
G01 X140.2948 Y-79.6115 F120.00
G01 X140.3332 Y-79.5978 F120.00
G01 X140.3727 Y-79.5792 F120.00
G01 X140.4089 Y-79.5575 F120.00
G01 X140.4428 Y-79.5324 F120.00
G01 X140.4730 Y-79.5051 F120.00
G01 X140.5024 Y-79.4728 F120.00
G01 X140.5275 Y-79.4389 F120.00
G01 X140.5492 Y-79.4027 F120.00
G01 X140.5673 Y-79.3646 F120.00
G01 X140.5815 Y-79.3248 F120.00
G01 X140.5917 Y-79.2839 F120.00
G01 X140.5979 Y-79.2421 F120.00
G01 X140.6000 Y-79.2015 F120.00
M5
G00 X140.5982 Y-79.1634
G01 F60.00
M03 S5000.0
G01 F120.00
G01 X140.8882 Y-79.1634 F120.00
G01 X140.8900 Y-79.2000 F120.00
G01 X140.8865 Y-79.2706 F120.00
G01 X140.8761 Y-79.3405 F120.00
G01 X140.8590 Y-79.4090 F120.00
G01 X140.8352 Y-79.4755 F120.00
G01 X140.8050 Y-79.5394 F120.00
G01 X140.7686 Y-79.6000 F120.00
G01 X140.7265 Y-79.6567 F120.00
G01 X140.6791 Y-79.7091 F120.00
G01 X140.6267 Y-79.7565 F120.00
G01 X140.5700 Y-79.7986 F120.00
G01 X140.5094 Y-79.8350 F120.00
G01 X140.4455 Y-79.8652 F120.00
G01 X140.3790 Y-79.8890 F120.00
G01 X140.3105 Y-79.9061 F120.00
G01 X140.2406 Y-79.9165 F120.00
G01 X140.1700 Y-79.9200 F120.00
G01 X140.0994 Y-79.9165 F120.00
G01 X140.0295 Y-79.9061 F120.00
G01 X139.9610 Y-79.8890 F120.00
G01 X139.8945 Y-79.8652 F120.00
G01 X139.8306 Y-79.8350 F120.00
G01 X139.7700 Y-79.7986 F120.00
G01 X139.7133 Y-79.7565 F120.00
G01 X139.6609 Y-79.7091 F120.00
G01 X139.6135 Y-79.6567 F120.00
G01 X139.5714 Y-79.6000 F120.00
G01 X139.5350 Y-79.5394 F120.00
G01 X139.5048 Y-79.4755 F120.00
G01 X139.4810 Y-79.4090 F120.00
G01 X139.4639 Y-79.3405 F120.00
G01 X139.4535 Y-79.2706 F120.00
G01 X139.4500 Y-79.2000 F120.00
G01 X139.4535 Y-79.1294 F120.00
G01 X139.4639 Y-79.0595 F120.00
G01 X139.4810 Y-78.9910 F120.00
G01 X139.5048 Y-78.9245 F120.00
G01 X139.5350 Y-78.8606 F120.00
G01 X139.5714 Y-78.8000 F120.00
G01 X139.6135 Y-78.7433 F120.00
G01 X139.6609 Y-78.6909 F120.00
G01 X139.7133 Y-78.6435 F120.00
G01 X139.7700 Y-78.6014 F120.00
G01 X139.8306 Y-78.5650 F120.00
G01 X139.8945 Y-78.5348 F120.00
G01 X139.9610 Y-78.5110 F120.00
G01 X140.0295 Y-78.4939 F120.00
G01 X140.0994 Y-78.4835 F120.00
G01 X140.1700 Y-78.4800 F120.00
G01 X140.2406 Y-78.4835 F120.00
G01 X140.3105 Y-78.4939 F120.00
G01 X140.3790 Y-78.5110 F120.00
G01 X140.4455 Y-78.5348 F120.00
G01 X140.5094 Y-78.5650 F120.00
G01 X140.5700 Y-78.6014 F120.00
G01 X140.6267 Y-78.6435 F120.00
G01 X140.6791 Y-78.6909 F120.00
G01 X140.7265 Y-78.7433 F120.00
G01 X140.7686 Y-78.8000 F120.00
G01 X140.8050 Y-78.8606 F120.00
G01 X140.8352 Y-78.9245 F120.00
G01 X140.8590 Y-78.9910 F120.00
G01 X140.8761 Y-79.0595 F120.00
G01 X140.8865 Y-79.1294 F120.00
G01 X140.8900 Y-79.2000 F120.00
G01 X140.8856 Y-79.1232 F120.00
G01 X140.5928 Y-79.1232 F120.00
M5
G00 X140.5835 Y-79.0830
G01 F60.00
M03 S5000.0
G01 F120.00
G01 X140.8796 Y-79.0830 F120.00
G01 X140.8719 Y-79.0428 F120.00
G01 X140.5699 Y-79.0428 F120.00
M5
G00 X140.5518 Y-79.0026
G01 F60.00
M03 S5000.0
G01 F120.00
G01 X140.8619 Y-79.0026 F120.00
G01 X140.8487 Y-78.9624 F120.00
G01 X140.5284 Y-78.9624 F120.00
M5
G00 X140.4979 Y-78.9222
G01 F60.00
M03 S5000.0
G01 F120.00
G01 X140.8341 Y-78.9222 F120.00
G01 X140.8151 Y-78.8820 F120.00
G01 X140.4587 Y-78.8820 F120.00
M5
G00 X140.4078 Y-78.8418
G01 F60.00
M03 S5000.0
G01 F120.00
G01 X140.7937 Y-78.8418 F120.00
G01 X140.7696 Y-78.8016 F120.00
G01 X140.3315 Y-78.8016 F120.00
G01 X140.4046 Y-78.5202 F120.00
G01 X139.9354 Y-78.5202 F120.00
G01 X139.8404 Y-78.5604 F120.00
G01 X140.4996 Y-78.5604 F120.00
G01 X140.5687 Y-78.6006 F120.00
G01 X139.7713 Y-78.6006 F120.00
G01 X139.7168 Y-78.6408 F120.00
G01 X140.6232 Y-78.6408 F120.00
G01 X140.6682 Y-78.6810 F120.00
G01 X139.6718 Y-78.6810 F120.00
G01 X139.6335 Y-78.7212 F120.00
G01 X140.7065 Y-78.7212 F120.00
G01 X140.7400 Y-78.7614 F120.00
G01 X139.6000 Y-78.7614 F120.00
G01 X139.5704 Y-78.8016 F120.00
G01 X140.0085 Y-78.8016 F120.00
M5
G00 X139.6400 Y-79.6860
G01 F60.00
M03 S5000.0
G01 F120.00
G01 X140.7000 Y-79.6860 F120.00
G01 X140.6602 Y-79.7262 F120.00
G01 X139.6798 Y-79.7262 F120.00
G01 X139.7266 Y-79.7664 F120.00
G01 X140.6134 Y-79.7664 F120.00
G01 X140.5567 Y-79.8066 F120.00
G01 X139.7833 Y-79.8066 F120.00
G01 X139.8557 Y-79.8468 F120.00
G01 X140.4843 Y-79.8468 F120.00
G01 X140.3845 Y-79.8870 F120.00
G01 X139.9555 Y-79.8870 F120.00
M5
G00 X144.5200 Y-79.6860
G01 F60.00
M03 S5000.0
G01 F120.00
G01 X145.5800 Y-79.6860 F120.00
G01 X145.5402 Y-79.7262 F120.00
G01 X144.5598 Y-79.7262 F120.00
G01 X144.6066 Y-79.7664 F120.00
G01 X145.4934 Y-79.7664 F120.00
G01 X145.4367 Y-79.8066 F120.00
G01 X144.6633 Y-79.8066 F120.00
G01 X144.7357 Y-79.8468 F120.00
G01 X145.3643 Y-79.8468 F120.00
G01 X145.2645 Y-79.8870 F120.00
G01 X144.8355 Y-79.8870 F120.00
M5
G00 X144.9086 Y-79.6056
G01 F60.00
M03 S5000.0
G01 F120.00
G01 X144.4555 Y-79.6056 F120.00
G01 X144.4853 Y-79.6458 F120.00
G01 X145.6147 Y-79.6458 F120.00
G01 X145.6445 Y-79.6056 F120.00
G01 X145.1914 Y-79.6056 F120.00
M5
G00 X145.2758 Y-79.5654
G01 F60.00
M03 S5000.0
G01 F120.00
G01 X145.6694 Y-79.5654 F120.00
G01 X145.6917 Y-79.5252 F120.00
G01 X145.3308 Y-79.5252 F120.00
M5
G00 X145.3714 Y-79.4850
G01 F60.00
M03 S5000.0
G01 F120.00
G01 X145.7107 Y-79.4850 F120.00
G01 X145.7262 Y-79.4448 F120.00
G01 X145.4032 Y-79.4448 F120.00
M5
G00 X145.4281 Y-79.4046
G01 F60.00
M03 S5000.0
G01 F120.00
G01 X145.7401 Y-79.4046 F120.00
G01 X145.7501 Y-79.3644 F120.00
G01 X145.4473 Y-79.3644 F120.00
M5
G00 X145.4617 Y-79.3242
G01 F60.00
M03 S5000.0
G01 F120.00
G01 X145.7585 Y-79.3242 F120.00
G01 X145.7645 Y-79.2840 F120.00
G01 X145.4717 Y-79.2840 F120.00
M5
G00 X145.4777 Y-79.2438
G01 F60.00
M03 S5000.0
G01 F120.00
G01 X145.7678 Y-79.2438 F120.00
G01 X145.7698 Y-79.2036 F120.00
G01 X145.4799 Y-79.2036 F120.00
G01 X145.4800 Y-79.2015 F120.00
G01 X145.4800 Y-79.2007 F120.00
G01 X145.4800 Y-79.1985 F120.00
G01 X145.4778 Y-79.1564 F120.00
G01 X145.4717 Y-79.1161 F120.00
G01 X145.4610 Y-79.0738 F120.00
G01 X145.4473 Y-79.0354 F120.00
G01 X145.4292 Y-78.9973 F120.00
G01 X145.4075 Y-78.9611 F120.00
G01 X145.3814 Y-78.9261 F120.00
G01 X145.3541 Y-78.8959 F120.00
G01 X145.3228 Y-78.8676 F120.00
G01 X145.2889 Y-78.8425 F120.00
G01 X145.2527 Y-78.8208 F120.00
G01 X145.2146 Y-78.8027 F120.00
G01 X145.1748 Y-78.7885 F120.00
G01 X145.1339 Y-78.7783 F120.00
G01 X145.0921 Y-78.7721 F120.00
G01 X145.0500 Y-78.7700 F120.00
G01 X145.0079 Y-78.7721 F120.00
G01 X144.9661 Y-78.7783 F120.00
G01 X144.9252 Y-78.7885 F120.00
G01 X144.8854 Y-78.8027 F120.00
G01 X144.8473 Y-78.8208 F120.00
G01 X144.8111 Y-78.8425 F120.00
G01 X144.7772 Y-78.8676 F120.00
G01 X144.7459 Y-78.8959 F120.00
G01 X144.7176 Y-78.9272 F120.00
G01 X144.6925 Y-78.9611 F120.00
G01 X144.6708 Y-78.9973 F120.00
G01 X144.6527 Y-79.0354 F120.00
G01 X144.6385 Y-79.0752 F120.00
G01 X144.6283 Y-79.1161 F120.00
G01 X144.6220 Y-79.1593 F120.00
G01 X144.6200 Y-79.2000 F120.00
G01 X144.6221 Y-79.2421 F120.00
G01 X144.6283 Y-79.2839 F120.00
G01 X144.6385 Y-79.3248 F120.00
G01 X144.6527 Y-79.3646 F120.00
G01 X144.6708 Y-79.4027 F120.00
G01 X144.6925 Y-79.4389 F120.00
G01 X144.7176 Y-79.4728 F120.00
G01 X144.7459 Y-79.5041 F120.00
G01 X144.7772 Y-79.5324 F120.00
G01 X144.8111 Y-79.5575 F120.00
G01 X144.8473 Y-79.5792 F120.00
G01 X144.8854 Y-79.5973 F120.00
G01 X144.9252 Y-79.6115 F120.00
G01 X144.9661 Y-79.6217 F120.00
G01 X145.0093 Y-79.6280 F120.00
G01 X145.0500 Y-79.6300 F120.00
G01 X145.0936 Y-79.6277 F120.00
G01 X145.1353 Y-79.6214 F120.00
G01 X145.1748 Y-79.6115 F120.00
G01 X145.2132 Y-79.5978 F120.00
G01 X145.2527 Y-79.5792 F120.00
G01 X145.2889 Y-79.5575 F120.00
G01 X145.3228 Y-79.5324 F120.00
G01 X145.3530 Y-79.5051 F120.00
G01 X145.3824 Y-79.4728 F120.00
G01 X145.4075 Y-79.4389 F120.00
G01 X145.4292 Y-79.4027 F120.00
G01 X145.4473 Y-79.3646 F120.00
G01 X145.4615 Y-79.3248 F120.00
G01 X145.4717 Y-79.2839 F120.00
G01 X145.4779 Y-79.2421 F120.00
G01 X145.4800 Y-79.2015 F120.00
M5
G00 X145.4782 Y-79.1634
G01 F60.00
M03 S5000.0
G01 F120.00
G01 X145.7682 Y-79.1634 F120.00
G01 X145.7700 Y-79.2000 F120.00
G01 X145.7665 Y-79.2706 F120.00
G01 X145.7561 Y-79.3405 F120.00
G01 X145.7390 Y-79.4090 F120.00
G01 X145.7152 Y-79.4755 F120.00
G01 X145.6850 Y-79.5394 F120.00
G01 X145.6486 Y-79.6000 F120.00
G01 X145.6065 Y-79.6567 F120.00
G01 X145.5591 Y-79.7091 F120.00
G01 X145.5067 Y-79.7565 F120.00
G01 X145.4500 Y-79.7986 F120.00
G01 X145.3894 Y-79.8350 F120.00
G01 X145.3255 Y-79.8652 F120.00
G01 X145.2590 Y-79.8890 F120.00
G01 X145.1905 Y-79.9061 F120.00
G01 X145.1206 Y-79.9165 F120.00
G01 X145.0500 Y-79.9200 F120.00
G01 X144.9794 Y-79.9165 F120.00
G01 X144.9095 Y-79.9061 F120.00
G01 X144.8410 Y-79.8890 F120.00
G01 X144.7745 Y-79.8652 F120.00
G01 X144.7106 Y-79.8350 F120.00
G01 X144.6500 Y-79.7986 F120.00
G01 X144.5933 Y-79.7565 F120.00
G01 X144.5409 Y-79.7091 F120.00
G01 X144.4935 Y-79.6567 F120.00
G01 X144.4514 Y-79.6000 F120.00
G01 X144.4150 Y-79.5394 F120.00
G01 X144.3848 Y-79.4755 F120.00
G01 X144.3610 Y-79.4090 F120.00
G01 X144.3439 Y-79.3405 F120.00
G01 X144.3335 Y-79.2706 F120.00
G01 X144.3300 Y-79.2000 F120.00
G01 X144.3335 Y-79.1294 F120.00
G01 X144.3439 Y-79.0595 F120.00
G01 X144.3610 Y-78.9910 F120.00
G01 X144.3848 Y-78.9245 F120.00
G01 X144.4150 Y-78.8606 F120.00
G01 X144.4514 Y-78.8000 F120.00
G01 X144.4935 Y-78.7433 F120.00
G01 X144.5409 Y-78.6909 F120.00
G01 X144.5933 Y-78.6435 F120.00
G01 X144.6500 Y-78.6014 F120.00
G01 X144.7106 Y-78.5650 F120.00
G01 X144.7745 Y-78.5348 F120.00
G01 X144.8410 Y-78.5110 F120.00
G01 X144.9095 Y-78.4939 F120.00
G01 X144.9794 Y-78.4835 F120.00
G01 X145.0500 Y-78.4800 F120.00
G01 X145.1206 Y-78.4835 F120.00
G01 X145.1905 Y-78.4939 F120.00
G01 X145.2590 Y-78.5110 F120.00
G01 X145.3255 Y-78.5348 F120.00
G01 X145.3894 Y-78.5650 F120.00
G01 X145.4500 Y-78.6014 F120.00
G01 X145.5067 Y-78.6435 F120.00
G01 X145.5591 Y-78.6909 F120.00
G01 X145.6065 Y-78.7433 F120.00
G01 X145.6486 Y-78.8000 F120.00
G01 X145.6850 Y-78.8606 F120.00
G01 X145.7152 Y-78.9245 F120.00
G01 X145.7390 Y-78.9910 F120.00
G01 X145.7561 Y-79.0595 F120.00
G01 X145.7665 Y-79.1294 F120.00
G01 X145.7700 Y-79.2000 F120.00
G01 X145.7656 Y-79.1232 F120.00
G01 X145.4728 Y-79.1232 F120.00
M5
G00 X145.4635 Y-79.0830
G01 F60.00
M03 S5000.0
G01 F120.00
G01 X145.7596 Y-79.0830 F120.00
G01 X145.7519 Y-79.0428 F120.00
G01 X145.4499 Y-79.0428 F120.00
M5
G00 X145.4318 Y-79.0026
G01 F60.00
M03 S5000.0
G01 F120.00
G01 X145.7419 Y-79.0026 F120.00
G01 X145.7287 Y-78.9624 F120.00
G01 X145.4084 Y-78.9624 F120.00
M5
G00 X145.3779 Y-78.9222
G01 F60.00
M03 S5000.0
G01 F120.00
G01 X145.7141 Y-78.9222 F120.00
G01 X145.6951 Y-78.8820 F120.00
G01 X145.3387 Y-78.8820 F120.00
M5
G00 X145.2878 Y-78.8418
G01 F60.00
M03 S5000.0
G01 F120.00
G01 X145.6737 Y-78.8418 F120.00
G01 X145.6496 Y-78.8016 F120.00
G01 X145.2115 Y-78.8016 F120.00
G01 X145.2846 Y-78.5202 F120.00
G01 X144.8154 Y-78.5202 F120.00
G01 X144.7204 Y-78.5604 F120.00
G01 X145.3796 Y-78.5604 F120.00
G01 X145.4487 Y-78.6006 F120.00
G01 X144.6513 Y-78.6006 F120.00
G01 X144.5968 Y-78.6408 F120.00
G01 X145.5032 Y-78.6408 F120.00
G01 X145.5482 Y-78.6810 F120.00
G01 X144.5518 Y-78.6810 F120.00
G01 X144.5135 Y-78.7212 F120.00
G01 X145.5865 Y-78.7212 F120.00
G01 X145.6200 Y-78.7614 F120.00
G01 X144.4800 Y-78.7614 F120.00
G01 X144.4504 Y-78.8016 F120.00
G01 X144.8885 Y-78.8016 F120.00
M5
G00 X144.8122 Y-78.8418
G01 F60.00
M03 S5000.0
G01 F120.00
G01 X144.4263 Y-78.8418 F120.00
M5
G00 X144.7613 Y-78.8820
G01 F60.00
M03 S5000.0
G01 F120.00
G01 X144.4049 Y-78.8820 F120.00
G01 X144.3859 Y-78.9222 F120.00
G01 X144.7221 Y-78.9222 F120.00
M5
G00 X144.6917 Y-78.9624
G01 F60.00
M03 S5000.0
G01 F120.00
G01 X144.3713 Y-78.9624 F120.00
G01 X144.3581 Y-79.0026 F120.00
G01 X144.6682 Y-79.0026 F120.00
M5
G00 X144.6501 Y-79.0428
G01 F60.00
M03 S5000.0
G01 F120.00
G01 X144.3481 Y-79.0428 F120.00
G01 X144.3404 Y-79.0830 F120.00
G01 X144.6365 Y-79.0830 F120.00
M5
G00 X144.6272 Y-79.1232
G01 F60.00
M03 S5000.0
G01 F120.00
G01 X144.3344 Y-79.1232 F120.00
G01 X144.3318 Y-79.1634 F120.00
G01 X144.6218 Y-79.1634 F120.00
M5
G00 X144.6201 Y-79.2036
G01 F60.00
M03 S5000.0
G01 F120.00
G01 X144.3302 Y-79.2036 F120.00
G01 X144.3322 Y-79.2438 F120.00
G01 X144.6223 Y-79.2438 F120.00
M5
G00 X144.6283 Y-79.2840
G01 F60.00
M03 S5000.0
G01 F120.00
G01 X144.3355 Y-79.2840 F120.00
G01 X144.3415 Y-79.3242 F120.00
G01 X144.6383 Y-79.3242 F120.00
M5
G00 X144.6527 Y-79.3644
G01 F60.00
M03 S5000.0
G01 F120.00
G01 X144.3499 Y-79.3644 F120.00
G01 X144.3599 Y-79.4046 F120.00
G01 X144.6719 Y-79.4046 F120.00
M5
G00 X144.6968 Y-79.4448
G01 F60.00
M03 S5000.0
G01 F120.00
G01 X144.3739 Y-79.4448 F120.00
G01 X144.3893 Y-79.4850 F120.00
G01 X144.7286 Y-79.4850 F120.00
M5
G00 X144.7692 Y-79.5252
G01 F60.00
M03 S5000.0
G01 F120.00
G01 X144.4083 Y-79.5252 F120.00
G01 X144.4306 Y-79.5654 F120.00
G01 X144.8242 Y-79.5654 F120.00
M5
G00 X144.4499 Y-83.6129
G01 F60.00
M03 S5000.0
G01 F120.00
G01 X144.4499 Y-83.7305 F120.00
G01 X144.4200 Y-83.7002 F120.00
G01 X144.4173 Y-83.6967 F120.00
G01 X144.4132 Y-83.6889 F120.00
G01 X144.4106 Y-83.6805 F120.00
G01 X144.4098 Y-83.6717 F120.00
G01 X144.4100 Y-83.6673 F120.00
G01 X144.4117 Y-83.6586 F120.00
G01 X144.4132 Y-83.6545 F120.00
G01 X144.4173 Y-83.6467 F120.00
G01 X144.4234 Y-83.6394 F120.00
G01 X144.5284 Y-83.5343 F120.00
G01 X144.5323 Y-83.5309 F120.00
G01 X144.5358 Y-83.5282 F120.00
G01 X144.5436 Y-83.5241 F120.00
G01 X144.5520 Y-83.5215 F120.00
G01 X144.5564 Y-83.5209 F120.00
G01 X144.5652 Y-83.5209 F120.00
G01 X144.5696 Y-83.5215 F120.00
G01 X144.5738 Y-83.5226 F120.00
G01 X144.5780 Y-83.5241 F120.00
G01 X144.5820 Y-83.5260 F120.00
G01 X144.5893 Y-83.5309 F120.00
G01 X144.5931 Y-83.5343 F120.00
G01 X145.5290 Y-84.4702 F120.00
G01 X145.5325 Y-84.4740 F120.00
G01 X145.5351 Y-84.4776 F120.00
G01 X145.5374 Y-84.4814 F120.00
G01 X145.5407 Y-84.4895 F120.00
G01 X145.5424 Y-84.4981 F120.00
G01 X145.5424 Y-84.5070 F120.00
G01 X145.5407 Y-84.5156 F120.00
G01 X145.5374 Y-84.5237 F120.00
G01 X145.5351 Y-84.5275 F120.00
G01 X145.5325 Y-84.5311 F120.00
G01 X145.5290 Y-84.5349 F120.00
G01 X145.4240 Y-84.6399 F120.00
G01 X145.4166 Y-84.6460 F120.00
G01 X145.4128 Y-84.6483 F120.00
G01 X145.4088 Y-84.6502 F120.00
G01 X145.4004 Y-84.6527 F120.00
G01 X145.3960 Y-84.6534 F120.00
G01 X145.3872 Y-84.6534 F120.00
G01 X145.3829 Y-84.6527 F120.00
G01 X145.3786 Y-84.6516 F120.00
G01 X145.3744 Y-84.6502 F120.00
G01 X145.3704 Y-84.6483 F120.00
G01 X145.3631 Y-84.6434 F120.00
G01 X145.3593 Y-84.6399 F120.00
G01 X144.4234 Y-83.7040 F120.00
G01 X144.4901 Y-83.7707 F120.00
G01 X144.4901 Y-83.5727 F120.00
G01 X144.5303 Y-83.5326 F120.00
G01 X144.5303 Y-83.8109 F120.00
G01 X144.5705 Y-83.8511 F120.00
G01 X144.5705 Y-83.5218 F120.00
G01 X144.6107 Y-83.5519 F120.00
G01 X144.6107 Y-83.8913 F120.00
G01 X144.6509 Y-83.9315 F120.00
G01 X144.6509 Y-83.5921 F120.00
G01 X144.6911 Y-83.6323 F120.00
G01 X144.6911 Y-83.9717 F120.00
G01 X144.7313 Y-84.0119 F120.00
G01 X144.7313 Y-83.6725 F120.00
G01 X144.7715 Y-83.7127 F120.00
G01 X144.7715 Y-84.0521 F120.00
G01 X144.8117 Y-84.0923 F120.00
G01 X144.8117 Y-83.7529 F120.00
G01 X144.8519 Y-83.7931 F120.00
G01 X144.8519 Y-84.1325 F120.00
G01 X144.8921 Y-84.1727 F120.00
G01 X144.8921 Y-83.8333 F120.00
G01 X144.9323 Y-83.8735 F120.00
G01 X144.9323 Y-84.2129 F120.00
G01 X144.9725 Y-84.2531 F120.00
G01 X144.9725 Y-83.9137 F120.00
G01 X145.0127 Y-83.9539 F120.00
G01 X145.0127 Y-84.2933 F120.00
G01 X145.0529 Y-84.3335 F120.00
G01 X145.0529 Y-83.9941 F120.00
G01 X145.0931 Y-84.0343 F120.00
G01 X145.0931 Y-84.3737 F120.00
G01 X145.1333 Y-84.4139 F120.00
G01 X145.1333 Y-84.0745 F120.00
G01 X145.1735 Y-84.1147 F120.00
G01 X145.1735 Y-84.4541 F120.00
G01 X145.2137 Y-84.4943 F120.00
G01 X145.2137 Y-84.1549 F120.00
G01 X145.2539 Y-84.1951 F120.00
G01 X145.2539 Y-84.5345 F120.00
G01 X145.2941 Y-84.5747 F120.00
G01 X145.2941 Y-84.2353 F120.00
G01 X145.3343 Y-84.2755 F120.00
G01 X145.3343 Y-84.6149 F120.00
G01 X145.3745 Y-84.6502 F120.00
G01 X145.3745 Y-84.3157 F120.00
G01 X145.4147 Y-84.3559 F120.00
G01 X145.4147 Y-84.6471 F120.00
G01 X145.4549 Y-84.6090 F120.00
G01 X145.4549 Y-84.3961 F120.00
G01 X145.4951 Y-84.4363 F120.00
G01 X145.4951 Y-84.5688 F120.00
G01 X145.5353 Y-84.5271 F120.00
G01 X145.5353 Y-84.4780 F120.00
M5
G00 X145.1818 Y-84.8315
G01 F60.00
M03 S5000.0
G01 F120.00
G01 X145.1818 Y-84.8807 F120.00
G01 X145.1416 Y-84.9223 F120.00
G01 X145.1416 Y-84.7899 F120.00
G01 X145.1014 Y-84.7497 F120.00
G01 X145.1014 Y-84.9625 F120.00
G01 X145.0612 Y-85.0007 F120.00
G01 X145.0612 Y-84.7095 F120.00
G01 X145.0210 Y-84.6693 F120.00
G01 X145.0210 Y-85.0037 F120.00
G01 X144.9808 Y-84.9685 F120.00
G01 X144.9808 Y-84.6291 F120.00
G01 X144.9406 Y-84.5889 F120.00
G01 X144.9406 Y-84.9283 F120.00
G01 X144.9004 Y-84.8881 F120.00
G01 X144.9004 Y-84.5487 F120.00
G01 X144.8602 Y-84.5085 F120.00
G01 X144.8602 Y-84.8479 F120.00
G01 X144.8200 Y-84.8077 F120.00
G01 X144.8200 Y-84.4683 F120.00
G01 X144.7798 Y-84.4281 F120.00
G01 X144.7798 Y-84.7675 F120.00
G01 X144.7396 Y-84.7273 F120.00
G01 X144.7396 Y-84.3879 F120.00
G01 X144.6994 Y-84.3477 F120.00
G01 X144.6994 Y-84.6871 F120.00
G01 X144.6592 Y-84.6469 F120.00
G01 X144.6592 Y-84.3075 F120.00
G01 X144.6190 Y-84.2673 F120.00
G01 X144.6190 Y-84.6067 F120.00
G01 X144.5788 Y-84.5665 F120.00
G01 X144.5788 Y-84.2271 F120.00
G01 X144.5386 Y-84.1869 F120.00
G01 X144.5386 Y-84.5263 F120.00
G01 X144.4984 Y-84.4861 F120.00
G01 X144.4984 Y-84.1467 F120.00
G01 X144.4582 Y-84.1065 F120.00
G01 X144.4582 Y-84.4459 F120.00
G01 X144.4180 Y-84.4057 F120.00
G01 X144.4180 Y-84.0663 F120.00
G01 X144.3778 Y-84.0261 F120.00
G01 X144.3778 Y-84.3655 F120.00
G01 X144.3376 Y-84.3253 F120.00
G01 X144.3376 Y-83.9859 F120.00
G01 X144.2974 Y-83.9457 F120.00
G01 X144.2974 Y-84.2851 F120.00
G01 X144.2572 Y-84.2449 F120.00
G01 X144.2572 Y-83.9055 F120.00
G01 X144.2170 Y-83.8753 F120.00
G01 X144.2170 Y-84.2047 F120.00
G01 X144.1768 Y-84.1645 F120.00
G01 X144.1768 Y-83.8862 F120.00
G01 X144.1366 Y-83.9262 F120.00
G01 X144.1366 Y-84.1243 F120.00
G01 X144.0699 Y-84.0576 F120.00
G01 X145.0057 Y-84.9935 F120.00
G01 X145.0096 Y-84.9969 F120.00
G01 X145.0169 Y-85.0018 F120.00
G01 X145.0209 Y-85.0037 F120.00
G01 X145.0250 Y-85.0052 F120.00
G01 X145.0293 Y-85.0063 F120.00
G01 X145.0337 Y-85.0069 F120.00
G01 X145.0425 Y-85.0069 F120.00
G01 X145.0469 Y-85.0063 F120.00
G01 X145.0553 Y-85.0037 F120.00
G01 X145.0593 Y-85.0018 F120.00
G01 X145.0631 Y-84.9996 F120.00
G01 X145.0704 Y-84.9935 F120.00
G01 X145.1754 Y-84.8884 F120.00
G01 X145.1789 Y-84.8846 F120.00
G01 X145.1815 Y-84.8811 F120.00
G01 X145.1838 Y-84.8773 F120.00
G01 X145.1872 Y-84.8692 F120.00
G01 X145.1889 Y-84.8605 F120.00
G01 X145.1889 Y-84.8517 F120.00
G01 X145.1872 Y-84.8431 F120.00
G01 X145.1838 Y-84.8349 F120.00
G01 X145.1815 Y-84.8311 F120.00
G01 X145.1789 Y-84.8276 F120.00
G01 X145.1754 Y-84.8238 F120.00
G01 X144.2396 Y-83.8879 F120.00
G01 X144.2358 Y-83.8844 F120.00
G01 X144.2284 Y-83.8795 F120.00
G01 X144.2244 Y-83.8776 F120.00
G01 X144.2203 Y-83.8762 F120.00
G01 X144.2160 Y-83.8751 F120.00
G01 X144.2116 Y-83.8744 F120.00
G01 X144.2028 Y-83.8744 F120.00
G01 X144.1985 Y-83.8751 F120.00
G01 X144.1900 Y-83.8776 F120.00
G01 X144.1823 Y-83.8818 F120.00
G01 X144.1787 Y-83.8844 F120.00
G01 X144.1749 Y-83.8879 F120.00
G01 X144.0699 Y-83.9929 F120.00
G01 X144.0638 Y-84.0003 F120.00
G01 X144.0596 Y-84.0080 F120.00
G01 X144.0581 Y-84.0122 F120.00
G01 X144.0564 Y-84.0208 F120.00
G01 X144.0562 Y-84.0253 F120.00
G01 X144.0571 Y-84.0340 F120.00
G01 X144.0596 Y-84.0425 F120.00
G01 X144.0638 Y-84.0502 F120.00
G01 X144.0664 Y-84.0538 F120.00
G01 X144.0964 Y-84.0841 F120.00
G01 X144.0964 Y-83.9664 F120.00
M5
G00 X144.8282 Y-85.1851
G01 F60.00
M03 S5000.0
G01 F120.00
G01 X144.8282 Y-85.2343 F120.00
G01 X144.7880 Y-85.2759 F120.00
G01 X144.7880 Y-85.1434 F120.00
G01 X144.7478 Y-85.1032 F120.00
G01 X144.7478 Y-85.3161 F120.00
G01 X144.7076 Y-85.3542 F120.00
G01 X144.7076 Y-85.0630 F120.00
G01 X144.6674 Y-85.0228 F120.00
G01 X144.6674 Y-85.3573 F120.00
G01 X144.6272 Y-85.3220 F120.00
G01 X144.6272 Y-84.9826 F120.00
G01 X144.5870 Y-84.9424 F120.00
G01 X144.5870 Y-85.2818 F120.00
G01 X144.5468 Y-85.2416 F120.00
G01 X144.5468 Y-84.9022 F120.00
G01 X144.5066 Y-84.8620 F120.00
G01 X144.5066 Y-85.2014 F120.00
G01 X144.4664 Y-85.1612 F120.00
G01 X144.4664 Y-84.8218 F120.00
G01 X144.4262 Y-84.7816 F120.00
G01 X144.4262 Y-85.1210 F120.00
G01 X144.3860 Y-85.0808 F120.00
G01 X144.3860 Y-84.7414 F120.00
G01 X144.3458 Y-84.7012 F120.00
G01 X144.3458 Y-85.0406 F120.00
G01 X144.3056 Y-85.0004 F120.00
G01 X144.3056 Y-84.6610 F120.00
G01 X144.2654 Y-84.6208 F120.00
G01 X144.2654 Y-84.9602 F120.00
G01 X144.2252 Y-84.9200 F120.00
G01 X144.2252 Y-84.5806 F120.00
G01 X144.1850 Y-84.5404 F120.00
G01 X144.1850 Y-84.8798 F120.00
G01 X144.1448 Y-84.8396 F120.00
G01 X144.1448 Y-84.5002 F120.00
G01 X144.1046 Y-84.4600 F120.00
G01 X144.1046 Y-84.7994 F120.00
G01 X144.0644 Y-84.7592 F120.00
G01 X144.0644 Y-84.4198 F120.00
G01 X144.0242 Y-84.3796 F120.00
G01 X144.0242 Y-84.7190 F120.00
G01 X143.9840 Y-84.6788 F120.00
G01 X143.9840 Y-84.3394 F120.00
G01 X143.9438 Y-84.2992 F120.00
G01 X143.9438 Y-84.6386 F120.00
G01 X143.9036 Y-84.5984 F120.00
G01 X143.9036 Y-84.2590 F120.00
G01 X143.8634 Y-84.2289 F120.00
G01 X143.8634 Y-84.5582 F120.00
G01 X143.8232 Y-84.5180 F120.00
G01 X143.8232 Y-84.2397 F120.00
G01 X143.7830 Y-84.2798 F120.00
G01 X143.7830 Y-84.4778 F120.00
G01 X143.7163 Y-84.4111 F120.00
G01 X144.6522 Y-85.3470 F120.00
G01 X144.6560 Y-85.3505 F120.00
G01 X144.6633 Y-85.3554 F120.00
G01 X144.6673 Y-85.3573 F120.00
G01 X144.6715 Y-85.3588 F120.00
G01 X144.6758 Y-85.3598 F120.00
G01 X144.6801 Y-85.3605 F120.00
G01 X144.6889 Y-85.3605 F120.00
G01 X144.6933 Y-85.3598 F120.00
G01 X144.7017 Y-85.3573 F120.00
G01 X144.7057 Y-85.3554 F120.00
G01 X144.7095 Y-85.3531 F120.00
G01 X144.7169 Y-85.3470 F120.00
G01 X144.8219 Y-85.2420 F120.00
G01 X144.8253 Y-85.2382 F120.00
G01 X144.8280 Y-85.2346 F120.00
G01 X144.8302 Y-85.2309 F120.00
G01 X144.8336 Y-85.2227 F120.00
G01 X144.8353 Y-85.2141 F120.00
G01 X144.8353 Y-85.2052 F120.00
G01 X144.8336 Y-85.1966 F120.00
G01 X144.8302 Y-85.1885 F120.00
G01 X144.8280 Y-85.1847 F120.00
G01 X144.8253 Y-85.1811 F120.00
G01 X144.8219 Y-85.1773 F120.00
G01 X143.8860 Y-84.2414 F120.00
G01 X143.8822 Y-84.2380 F120.00
G01 X143.8749 Y-84.2331 F120.00
G01 X143.8709 Y-84.2312 F120.00
G01 X143.8667 Y-84.2297 F120.00
G01 X143.8624 Y-84.2286 F120.00
G01 X143.8581 Y-84.2280 F120.00
G01 X143.8493 Y-84.2280 F120.00
G01 X143.8449 Y-84.2286 F120.00
G01 X143.8365 Y-84.2312 F120.00
G01 X143.8287 Y-84.2354 F120.00
G01 X143.8252 Y-84.2380 F120.00
G01 X143.8213 Y-84.2414 F120.00
G01 X143.7163 Y-84.3465 F120.00
G01 X143.7102 Y-84.3538 F120.00
G01 X143.7061 Y-84.3616 F120.00
G01 X143.7046 Y-84.3658 F120.00
G01 X143.7029 Y-84.3744 F120.00
G01 X143.7026 Y-84.3788 F120.00
G01 X143.7035 Y-84.3876 F120.00
G01 X143.7061 Y-84.3960 F120.00
G01 X143.7102 Y-84.4038 F120.00
G01 X143.7129 Y-84.4073 F120.00
G01 X143.7428 Y-84.4376 F120.00
G01 X143.7428 Y-84.3200 F120.00
M5
G00 X144.4747 Y-85.5386
G01 F60.00
M03 S5000.0
G01 F120.00
G01 X144.4747 Y-85.5878 F120.00
G01 X144.4345 Y-85.6294 F120.00
G01 X144.4345 Y-85.4970 F120.00
G01 X144.3943 Y-85.4568 F120.00
G01 X144.3943 Y-85.6696 F120.00
G01 X144.3541 Y-85.7078 F120.00
G01 X144.3541 Y-85.4166 F120.00
G01 X144.3139 Y-85.3764 F120.00
G01 X144.3139 Y-85.7108 F120.00
G01 X144.2737 Y-85.6756 F120.00
G01 X144.2737 Y-85.3362 F120.00
G01 X144.2335 Y-85.2960 F120.00
G01 X144.2335 Y-85.6354 F120.00
G01 X144.1933 Y-85.5952 F120.00
G01 X144.1933 Y-85.2558 F120.00
G01 X144.1531 Y-85.2156 F120.00
G01 X144.1531 Y-85.5550 F120.00
G01 X144.1129 Y-85.5148 F120.00
G01 X144.1129 Y-85.1754 F120.00
G01 X144.0727 Y-85.1352 F120.00
G01 X144.0727 Y-85.4746 F120.00
G01 X144.0325 Y-85.4344 F120.00
G01 X144.0325 Y-85.0950 F120.00
G01 X143.9923 Y-85.0548 F120.00
G01 X143.9923 Y-85.3942 F120.00
G01 X143.9521 Y-85.3540 F120.00
G01 X143.9521 Y-85.0146 F120.00
G01 X143.9119 Y-84.9744 F120.00
G01 X143.9119 Y-85.3138 F120.00
G01 X143.8717 Y-85.2736 F120.00
G01 X143.8717 Y-84.9342 F120.00
G01 X143.8315 Y-84.8940 F120.00
G01 X143.8315 Y-85.2334 F120.00
G01 X143.7913 Y-85.1932 F120.00
G01 X143.7913 Y-84.8538 F120.00
G01 X143.7511 Y-84.8136 F120.00
G01 X143.7511 Y-85.1530 F120.00
G01 X143.7109 Y-85.1128 F120.00
G01 X143.7109 Y-84.7734 F120.00
G01 X143.6707 Y-84.7332 F120.00
G01 X143.6707 Y-85.0726 F120.00
G01 X143.6305 Y-85.0324 F120.00
G01 X143.6305 Y-84.6930 F120.00
G01 X143.5903 Y-84.6528 F120.00
G01 X143.5903 Y-84.9922 F120.00
G01 X143.5501 Y-84.9520 F120.00
G01 X143.5501 Y-84.6126 F120.00
G01 X143.5099 Y-84.5824 F120.00
G01 X143.5099 Y-84.9118 F120.00
G01 X143.4697 Y-84.8716 F120.00
G01 X143.4697 Y-84.5933 F120.00
G01 X143.4295 Y-84.6333 F120.00
G01 X143.4295 Y-84.8314 F120.00
G01 X143.3628 Y-84.7647 F120.00
G01 X144.2986 Y-85.7006 F120.00
G01 X144.3025 Y-85.7040 F120.00
G01 X144.3098 Y-85.7089 F120.00
G01 X144.3138 Y-85.7108 F120.00
G01 X144.3179 Y-85.7123 F120.00
G01 X144.3222 Y-85.7134 F120.00
G01 X144.3266 Y-85.7140 F120.00
G01 X144.3354 Y-85.7140 F120.00
G01 X144.3398 Y-85.7134 F120.00
G01 X144.3482 Y-85.7108 F120.00
G01 X144.3522 Y-85.7089 F120.00
G01 X144.3560 Y-85.7067 F120.00
G01 X144.3633 Y-85.7006 F120.00
G01 X144.4683 Y-85.5956 F120.00
G01 X144.4718 Y-85.5917 F120.00
G01 X144.4744 Y-85.5882 F120.00
G01 X144.4767 Y-85.5844 F120.00
G01 X144.4801 Y-85.5763 F120.00
G01 X144.4818 Y-85.5676 F120.00
G01 X144.4818 Y-85.5588 F120.00
G01 X144.4801 Y-85.5502 F120.00
G01 X144.4767 Y-85.5420 F120.00
G01 X144.4744 Y-85.5382 F120.00
G01 X144.4718 Y-85.5347 F120.00
G01 X144.4683 Y-85.5309 F120.00
G01 X143.5325 Y-84.5950 F120.00
G01 X143.5287 Y-84.5915 F120.00
G01 X143.5213 Y-84.5866 F120.00
G01 X143.5173 Y-84.5848 F120.00
G01 X143.5132 Y-84.5833 F120.00
G01 X143.5089 Y-84.5822 F120.00
G01 X143.5045 Y-84.5815 F120.00
G01 X143.4957 Y-84.5815 F120.00
G01 X143.4914 Y-84.5822 F120.00
G01 X143.4829 Y-84.5848 F120.00
G01 X143.4751 Y-84.5889 F120.00
G01 X143.4716 Y-84.5915 F120.00
G01 X143.4678 Y-84.5950 F120.00
G01 X143.3628 Y-84.7000 F120.00
G01 X143.3567 Y-84.7074 F120.00
G01 X143.3525 Y-84.7152 F120.00
G01 X143.3510 Y-84.7193 F120.00
G01 X143.3493 Y-84.7280 F120.00
G01 X143.3491 Y-84.7324 F120.00
G01 X143.3500 Y-84.7411 F120.00
G01 X143.3525 Y-84.7496 F120.00
G01 X143.3567 Y-84.7573 F120.00
G01 X143.3593 Y-84.7609 F120.00
G01 X143.3893 Y-84.7912 F120.00
G01 X143.3893 Y-84.6735 F120.00
M5
G00 X144.1211 Y-85.8922
G01 F60.00
M03 S5000.0
G01 F120.00
G01 X144.1211 Y-85.9414 F120.00
G01 X144.0809 Y-85.9830 F120.00
G01 X144.0809 Y-85.8505 F120.00
G01 X144.0407 Y-85.8103 F120.00
G01 X144.0407 Y-86.0232 F120.00
G01 X144.0005 Y-86.0614 F120.00
G01 X144.0005 Y-85.7701 F120.00
G01 X143.9603 Y-85.7299 F120.00
G01 X143.9603 Y-86.0644 F120.00
G01 X143.9201 Y-86.0292 F120.00
G01 X143.9201 Y-85.6897 F120.00
G01 X143.8799 Y-85.6495 F120.00
G01 X143.8799 Y-85.9890 F120.00
G01 X143.8397 Y-85.9488 F120.00
G01 X143.8397 Y-85.6093 F120.00
G01 X143.7995 Y-85.5691 F120.00
G01 X143.7995 Y-85.9086 F120.00
G01 X143.7593 Y-85.8684 F120.00
G01 X143.7593 Y-85.5289 F120.00
G01 X143.7191 Y-85.4887 F120.00
G01 X143.7191 Y-85.8282 F120.00
G01 X143.6789 Y-85.7880 F120.00
G01 X143.6789 Y-85.4485 F120.00
G01 X143.6387 Y-85.4083 F120.00
G01 X143.6387 Y-85.7478 F120.00
G01 X143.5985 Y-85.7076 F120.00
G01 X143.5985 Y-85.3681 F120.00
G01 X143.5583 Y-85.3279 F120.00
G01 X143.5583 Y-85.6674 F120.00
G01 X143.5181 Y-85.6272 F120.00
G01 X143.5181 Y-85.2877 F120.00
G01 X143.4779 Y-85.2475 F120.00
G01 X143.4779 Y-85.5870 F120.00
G01 X143.4377 Y-85.5468 F120.00
G01 X143.4377 Y-85.2073 F120.00
G01 X143.3975 Y-85.1671 F120.00
G01 X143.3975 Y-85.5066 F120.00
G01 X143.3573 Y-85.4664 F120.00
G01 X143.3573 Y-85.1269 F120.00
G01 X143.3171 Y-85.0867 F120.00
G01 X143.3171 Y-85.4262 F120.00
G01 X143.2769 Y-85.3860 F120.00
G01 X143.2769 Y-85.0465 F120.00
G01 X143.2367 Y-85.0063 F120.00
G01 X143.2367 Y-85.3458 F120.00
G01 X143.1965 Y-85.3056 F120.00
G01 X143.1965 Y-84.9661 F120.00
G01 X143.1563 Y-84.9360 F120.00
G01 X143.1563 Y-85.2654 F120.00
G01 X143.1161 Y-85.2252 F120.00
G01 X143.1161 Y-84.9468 F120.00
G01 X143.0759 Y-84.9869 F120.00
G01 X143.0759 Y-85.1850 F120.00
G01 X143.0092 Y-85.1183 F120.00
G01 X143.9451 Y-86.0541 F120.00
G01 X143.9489 Y-86.0576 F120.00
G01 X143.9562 Y-86.0625 F120.00
G01 X143.9602 Y-86.0644 F120.00
G01 X143.9644 Y-86.0659 F120.00
G01 X143.9687 Y-86.0669 F120.00
G01 X143.9730 Y-86.0676 F120.00
G01 X143.9818 Y-86.0676 F120.00
G01 X143.9862 Y-86.0669 F120.00
G01 X143.9946 Y-86.0644 F120.00
G01 X143.9986 Y-86.0625 F120.00
G01 X144.0024 Y-86.0602 F120.00
G01 X144.0098 Y-86.0541 F120.00
G01 X144.1148 Y-85.9491 F120.00
G01 X144.1182 Y-85.9453 F120.00
G01 X144.1209 Y-85.9417 F120.00
G01 X144.1231 Y-85.9380 F120.00
G01 X144.1265 Y-85.9298 F120.00
G01 X144.1282 Y-85.9212 F120.00
G01 X144.1282 Y-85.9124 F120.00
G01 X144.1265 Y-85.9037 F120.00
G01 X144.1231 Y-85.8956 F120.00
G01 X144.1209 Y-85.8918 F120.00
G01 X144.1182 Y-85.8882 F120.00
G01 X144.1148 Y-85.8844 F120.00
G01 X143.1789 Y-84.9485 F120.00
G01 X143.1751 Y-84.9451 F120.00
G01 X143.1678 Y-84.9402 F120.00
G01 X143.1638 Y-84.9383 F120.00
G01 X143.1596 Y-84.9368 F120.00
G01 X143.1553 Y-84.9357 F120.00
G01 X143.1510 Y-84.9351 F120.00
G01 X143.1422 Y-84.9351 F120.00
G01 X143.1378 Y-84.9357 F120.00
G01 X143.1294 Y-84.9383 F120.00
G01 X143.1216 Y-84.9425 F120.00
G01 X143.1180 Y-84.9451 F120.00
G01 X143.1142 Y-84.9485 F120.00
G01 X143.0092 Y-85.0536 F120.00
G01 X143.0031 Y-85.0609 F120.00
G01 X142.9990 Y-85.0687 F120.00
G01 X142.9975 Y-85.0729 F120.00
G01 X142.9958 Y-85.0815 F120.00
G01 X142.9955 Y-85.0859 F120.00
G01 X142.9964 Y-85.0947 F120.00
G01 X142.9990 Y-85.1031 F120.00
G01 X143.0031 Y-85.1109 F120.00
G01 X143.0057 Y-85.1144 F120.00
G01 X143.0357 Y-85.1448 F120.00
G01 X143.0357 Y-85.0271 F120.00
M5
G00 X143.7676 Y-86.2457
G01 F60.00
M03 S5000.0
G01 F120.00
G01 X143.7676 Y-86.2949 F120.00
G01 X143.7274 Y-86.3365 F120.00
G01 X143.7274 Y-86.2041 F120.00
G01 X143.6872 Y-86.1639 F120.00
G01 X143.6872 Y-86.3767 F120.00
G01 X143.6470 Y-86.4149 F120.00
G01 X143.6470 Y-86.1237 F120.00
G01 X143.6068 Y-86.0835 F120.00
G01 X143.6068 Y-86.4180 F120.00
G01 X143.5666 Y-86.3827 F120.00
G01 X143.5666 Y-86.0433 F120.00
G01 X143.5264 Y-86.0031 F120.00
G01 X143.5264 Y-86.3425 F120.00
G01 X143.4862 Y-86.3023 F120.00
G01 X143.4862 Y-85.9629 F120.00
G01 X143.4460 Y-85.9227 F120.00
G01 X143.4460 Y-86.2621 F120.00
G01 X143.4058 Y-86.2219 F120.00
G01 X143.4058 Y-85.8825 F120.00
G01 X143.3656 Y-85.8423 F120.00
G01 X143.3656 Y-86.1817 F120.00
G01 X143.3254 Y-86.1415 F120.00
G01 X143.3254 Y-85.8021 F120.00
G01 X143.2852 Y-85.7619 F120.00
G01 X143.2852 Y-86.1013 F120.00
G01 X143.2450 Y-86.0611 F120.00
G01 X143.2450 Y-85.7217 F120.00
G01 X143.2048 Y-85.6815 F120.00
G01 X143.2048 Y-86.0209 F120.00
G01 X143.1646 Y-85.9807 F120.00
G01 X143.1646 Y-85.6413 F120.00
G01 X143.1244 Y-85.6011 F120.00
G01 X143.1244 Y-85.9405 F120.00
G01 X143.0842 Y-85.9003 F120.00
G01 X143.0842 Y-85.5609 F120.00
G01 X143.0440 Y-85.5207 F120.00
G01 X143.0440 Y-85.8601 F120.00
G01 X143.0038 Y-85.8199 F120.00
G01 X143.0038 Y-85.4805 F120.00
G01 X142.9636 Y-85.4403 F120.00
G01 X142.9636 Y-85.7797 F120.00
G01 X142.9234 Y-85.7395 F120.00
G01 X142.9234 Y-85.4001 F120.00
G01 X142.8832 Y-85.3599 F120.00
G01 X142.8832 Y-85.6993 F120.00
G01 X142.8430 Y-85.6591 F120.00
G01 X142.8430 Y-85.3197 F120.00
G01 X142.8028 Y-85.2895 F120.00
G01 X142.8028 Y-85.6189 F120.00
G01 X142.7626 Y-85.5787 F120.00
G01 X142.7626 Y-85.3004 F120.00
G01 X142.7224 Y-85.3404 F120.00
G01 X142.7224 Y-85.5385 F120.00
G01 X142.6557 Y-85.4718 F120.00
G01 X143.5915 Y-86.4077 F120.00
G01 X143.5953 Y-86.4111 F120.00
G01 X143.6027 Y-86.4160 F120.00
G01 X143.6067 Y-86.4179 F120.00
G01 X143.6108 Y-86.4194 F120.00
G01 X143.6151 Y-86.4205 F120.00
G01 X143.6195 Y-86.4211 F120.00
G01 X143.6283 Y-86.4211 F120.00
G01 X143.6326 Y-86.4205 F120.00
G01 X143.6411 Y-86.4179 F120.00
G01 X143.6451 Y-86.4160 F120.00
G01 X143.6488 Y-86.4138 F120.00
G01 X143.6562 Y-86.4077 F120.00
G01 X143.7612 Y-86.3027 F120.00
G01 X143.7647 Y-86.2988 F120.00
G01 X143.7673 Y-86.2953 F120.00
G01 X143.7696 Y-86.2915 F120.00
G01 X143.7730 Y-86.2834 F120.00
G01 X143.7747 Y-86.2747 F120.00
G01 X143.7747 Y-86.2659 F120.00
G01 X143.7730 Y-86.2573 F120.00
G01 X143.7696 Y-86.2491 F120.00
G01 X143.7673 Y-86.2453 F120.00
G01 X143.7647 Y-86.2418 F120.00
G01 X143.7612 Y-86.2380 F120.00
G01 X142.8254 Y-85.3021 F120.00
G01 X142.8215 Y-85.2986 F120.00
G01 X142.8142 Y-85.2937 F120.00
G01 X142.8102 Y-85.2919 F120.00
G01 X142.8061 Y-85.2904 F120.00
G01 X142.8018 Y-85.2893 F120.00
G01 X142.7974 Y-85.2887 F120.00
G01 X142.7886 Y-85.2887 F120.00
G01 X142.7842 Y-85.2893 F120.00
G01 X142.7758 Y-85.2919 F120.00
G01 X142.7680 Y-85.2960 F120.00
G01 X142.7645 Y-85.2986 F120.00
G01 X142.7607 Y-85.3021 F120.00
G01 X142.6557 Y-85.4071 F120.00
G01 X142.6496 Y-85.4145 F120.00
G01 X142.6454 Y-85.4223 F120.00
G01 X142.6439 Y-85.4264 F120.00
G01 X142.6422 Y-85.4351 F120.00
G01 X142.6420 Y-85.4395 F120.00
G01 X142.6429 Y-85.4482 F120.00
G01 X142.6454 Y-85.4567 F120.00
G01 X142.6496 Y-85.4644 F120.00
G01 X142.6522 Y-85.4680 F120.00
G01 X142.6822 Y-85.4983 F120.00
G01 X142.6822 Y-85.3806 F120.00
M5
G00 X143.4140 Y-86.5993
G01 F60.00
M03 S5000.0
G01 F120.00
G01 X143.4140 Y-86.6485 F120.00
G01 X143.3738 Y-86.6901 F120.00
G01 X143.3738 Y-86.5576 F120.00
G01 X143.3336 Y-86.5174 F120.00
G01 X143.3336 Y-86.7303 F120.00
G01 X143.2934 Y-86.7685 F120.00
G01 X143.2934 Y-86.4772 F120.00
G01 X143.2532 Y-86.4370 F120.00
G01 X143.2532 Y-86.7715 F120.00
G01 X143.2130 Y-86.7363 F120.00
G01 X143.2130 Y-86.3968 F120.00
G01 X143.1728 Y-86.3566 F120.00
G01 X143.1728 Y-86.6961 F120.00
G01 X143.1326 Y-86.6559 F120.00
G01 X143.1326 Y-86.3164 F120.00
G01 X143.0924 Y-86.2762 F120.00
G01 X143.0924 Y-86.6157 F120.00
G01 X143.0522 Y-86.5755 F120.00
G01 X143.0522 Y-86.2360 F120.00
G01 X143.0120 Y-86.1958 F120.00
G01 X143.0120 Y-86.5353 F120.00
G01 X142.9718 Y-86.4951 F120.00
G01 X142.9718 Y-86.1556 F120.00
G01 X142.9316 Y-86.1154 F120.00
G01 X142.9316 Y-86.4549 F120.00
G01 X142.8914 Y-86.4147 F120.00
G01 X142.8914 Y-86.0752 F120.00
G01 X142.8512 Y-86.0350 F120.00
G01 X142.8512 Y-86.3745 F120.00
G01 X142.8110 Y-86.3343 F120.00
G01 X142.8110 Y-85.9948 F120.00
G01 X142.7708 Y-85.9546 F120.00
G01 X142.7708 Y-86.2941 F120.00
G01 X142.7306 Y-86.2539 F120.00
G01 X142.7306 Y-85.9144 F120.00
G01 X142.6904 Y-85.8742 F120.00
G01 X142.6904 Y-86.2137 F120.00
G01 X142.6502 Y-86.1735 F120.00
G01 X142.6502 Y-85.8340 F120.00
G01 X142.6100 Y-85.7938 F120.00
G01 X142.6100 Y-86.1333 F120.00
G01 X142.5698 Y-86.0931 F120.00
G01 X142.5698 Y-85.7536 F120.00
G01 X142.5296 Y-85.7134 F120.00
G01 X142.5296 Y-86.0529 F120.00
G01 X142.4894 Y-86.0127 F120.00
G01 X142.4894 Y-85.6732 F120.00
G01 X142.4492 Y-85.6431 F120.00
G01 X142.4492 Y-85.9725 F120.00
G01 X142.4090 Y-85.9323 F120.00
G01 X142.4090 Y-85.6540 F120.00
G01 X142.3688 Y-85.6940 F120.00
G01 X142.3688 Y-85.8921 F120.00
G01 X142.3021 Y-85.8254 F120.00
G01 X143.2380 Y-86.7612 F120.00
G01 X143.2418 Y-86.7647 F120.00
G01 X143.2491 Y-86.7696 F120.00
G01 X143.2531 Y-86.7715 F120.00
G01 X143.2573 Y-86.7730 F120.00
G01 X143.2615 Y-86.7740 F120.00
G01 X143.2659 Y-86.7747 F120.00
G01 X143.2747 Y-86.7747 F120.00
G01 X143.2791 Y-86.7740 F120.00
G01 X143.2875 Y-86.7715 F120.00
G01 X143.2915 Y-86.7696 F120.00
G01 X143.2953 Y-86.7673 F120.00
G01 X143.3027 Y-86.7612 F120.00
G01 X143.4077 Y-86.6562 F120.00
G01 X143.4111 Y-86.6524 F120.00
G01 X143.4138 Y-86.6488 F120.00
G01 X143.4160 Y-86.6451 F120.00
G01 X143.4194 Y-86.6369 F120.00
G01 X143.4211 Y-86.6283 F120.00
G01 X143.4211 Y-86.6195 F120.00
G01 X143.4194 Y-86.6108 F120.00
G01 X143.4160 Y-86.6027 F120.00
G01 X143.4138 Y-86.5989 F120.00
G01 X143.4111 Y-86.5953 F120.00
G01 X143.4077 Y-86.5915 F120.00
G01 X142.4718 Y-85.6557 F120.00
G01 X142.4680 Y-85.6522 F120.00
G01 X142.4607 Y-85.6473 F120.00
G01 X142.4567 Y-85.6454 F120.00
G01 X142.4525 Y-85.6439 F120.00
G01 X142.4482 Y-85.6429 F120.00
G01 X142.4439 Y-85.6422 F120.00
G01 X142.4351 Y-85.6422 F120.00
G01 X142.4307 Y-85.6429 F120.00
G01 X142.4223 Y-85.6454 F120.00
G01 X142.4145 Y-85.6496 F120.00
G01 X142.4109 Y-85.6522 F120.00
G01 X142.4071 Y-85.6557 F120.00
G01 X142.3021 Y-85.7607 F120.00
G01 X142.2960 Y-85.7680 F120.00
G01 X142.2919 Y-85.7758 F120.00
G01 X142.2904 Y-85.7800 F120.00
G01 X142.2887 Y-85.7886 F120.00
G01 X142.2884 Y-85.7930 F120.00
G01 X142.2893 Y-85.8018 F120.00
G01 X142.2919 Y-85.8102 F120.00
G01 X142.2960 Y-85.8180 F120.00
G01 X142.2986 Y-85.8215 F120.00
G01 X142.3286 Y-85.8519 F120.00
G01 X142.3286 Y-85.7342 F120.00
M5
G00 X143.0604 Y-86.9528
G01 F60.00
M03 S5000.0
G01 F120.00
G01 X143.0604 Y-87.0020 F120.00
G01 X143.0202 Y-87.0436 F120.00
G01 X143.0202 Y-86.9112 F120.00
G01 X142.9800 Y-86.8710 F120.00
G01 X142.9800 Y-87.0838 F120.00
G01 X142.9398 Y-87.1220 F120.00
G01 X142.9398 Y-86.8308 F120.00
G01 X142.8996 Y-86.7906 F120.00
G01 X142.8996 Y-87.1251 F120.00
G01 X142.8594 Y-87.0898 F120.00
G01 X142.8594 Y-86.7504 F120.00
G01 X142.8192 Y-86.7102 F120.00
G01 X142.8192 Y-87.0496 F120.00
G01 X142.7790 Y-87.0094 F120.00
G01 X142.7790 Y-86.6700 F120.00
G01 X142.7388 Y-86.6298 F120.00
G01 X142.7388 Y-86.9692 F120.00
G01 X142.6986 Y-86.9290 F120.00
G01 X142.6986 Y-86.5896 F120.00
G01 X142.6584 Y-86.5494 F120.00
G01 X142.6584 Y-86.8888 F120.00
G01 X142.6182 Y-86.8486 F120.00
G01 X142.6182 Y-86.5092 F120.00
G01 X142.5780 Y-86.4690 F120.00
G01 X142.5780 Y-86.8084 F120.00
G01 X142.5378 Y-86.7682 F120.00
G01 X142.5378 Y-86.4288 F120.00
G01 X142.4976 Y-86.3886 F120.00
G01 X142.4976 Y-86.7280 F120.00
G01 X142.4574 Y-86.6878 F120.00
G01 X142.4574 Y-86.3484 F120.00
G01 X142.4172 Y-86.3082 F120.00
G01 X142.4172 Y-86.6476 F120.00
G01 X142.3770 Y-86.6074 F120.00
G01 X142.3770 Y-86.2680 F120.00
G01 X142.3368 Y-86.2278 F120.00
G01 X142.3368 Y-86.5672 F120.00
G01 X142.2966 Y-86.5270 F120.00
G01 X142.2966 Y-86.1876 F120.00
G01 X142.2564 Y-86.1474 F120.00
G01 X142.2564 Y-86.4868 F120.00
G01 X142.2162 Y-86.4466 F120.00
G01 X142.2162 Y-86.1072 F120.00
G01 X142.1760 Y-86.0670 F120.00
G01 X142.1760 Y-86.4064 F120.00
G01 X142.1358 Y-86.3662 F120.00
G01 X142.1358 Y-86.0268 F120.00
G01 X142.0956 Y-85.9966 F120.00
G01 X142.0956 Y-86.3260 F120.00
G01 X142.0554 Y-86.2858 F120.00
G01 X142.0554 Y-86.0075 F120.00
G01 X142.0152 Y-86.0475 F120.00
G01 X142.0152 Y-86.2456 F120.00
G01 X141.9485 Y-86.1789 F120.00
G01 X142.8844 Y-87.1148 F120.00
G01 X142.8882 Y-87.1182 F120.00
G01 X142.8956 Y-87.1231 F120.00
G01 X142.8996 Y-87.1250 F120.00
G01 X142.9037 Y-87.1265 F120.00
G01 X142.9080 Y-87.1276 F120.00
G01 X142.9124 Y-87.1282 F120.00
G01 X142.9212 Y-87.1282 F120.00
G01 X142.9255 Y-87.1276 F120.00
G01 X142.9340 Y-87.1250 F120.00
G01 X142.9380 Y-87.1231 F120.00
G01 X142.9417 Y-87.1209 F120.00
G01 X142.9491 Y-87.1148 F120.00
G01 X143.0541 Y-87.0098 F120.00
G01 X143.0576 Y-87.0059 F120.00
G01 X143.0602 Y-87.0024 F120.00
G01 X143.0625 Y-86.9986 F120.00
G01 X143.0659 Y-86.9905 F120.00
G01 X143.0676 Y-86.9818 F120.00
G01 X143.0676 Y-86.9730 F120.00
G01 X143.0659 Y-86.9644 F120.00
G01 X143.0625 Y-86.9562 F120.00
G01 X143.0602 Y-86.9524 F120.00
G01 X143.0576 Y-86.9489 F120.00
G01 X143.0541 Y-86.9451 F120.00
G01 X142.1183 Y-86.0092 F120.00
G01 X142.1144 Y-86.0057 F120.00
G01 X142.1071 Y-86.0009 F120.00
G01 X142.1031 Y-85.9990 F120.00
G01 X142.0990 Y-85.9975 F120.00
G01 X142.0947 Y-85.9964 F120.00
G01 X142.0903 Y-85.9958 F120.00
G01 X142.0815 Y-85.9958 F120.00
G01 X142.0771 Y-85.9964 F120.00
G01 X142.0687 Y-85.9990 F120.00
G01 X142.0609 Y-86.0031 F120.00
G01 X142.0574 Y-86.0057 F120.00
G01 X142.0536 Y-86.0092 F120.00
G01 X141.9485 Y-86.1142 F120.00
G01 X141.9425 Y-86.1216 F120.00
G01 X141.9383 Y-86.1294 F120.00
G01 X141.9368 Y-86.1335 F120.00
G01 X141.9351 Y-86.1422 F120.00
G01 X141.9349 Y-86.1466 F120.00
G01 X141.9357 Y-86.1553 F120.00
G01 X141.9383 Y-86.1638 F120.00
G01 X141.9425 Y-86.1716 F120.00
G01 X141.9451 Y-86.1751 F120.00
G01 X141.9750 Y-86.2054 F120.00
G01 X141.9750 Y-86.0877 F120.00
M5
G00 X142.7069 Y-87.3064
G01 F60.00
M03 S5000.0
G01 F120.00
G01 X142.7069 Y-87.3556 F120.00
G01 X142.6667 Y-87.3972 F120.00
G01 X142.6667 Y-87.2648 F120.00
G01 X142.6265 Y-87.2246 F120.00
G01 X142.6265 Y-87.4374 F120.00
G01 X142.5863 Y-87.4756 F120.00
G01 X142.5863 Y-87.1844 F120.00
G01 X142.5461 Y-87.1442 F120.00
G01 X142.5461 Y-87.4786 F120.00
G01 X142.5059 Y-87.4434 F120.00
G01 X142.5059 Y-87.1040 F120.00
G01 X142.4657 Y-87.0638 F120.00
G01 X142.4657 Y-87.4032 F120.00
G01 X142.4255 Y-87.3630 F120.00
G01 X142.4255 Y-87.0236 F120.00
G01 X142.3853 Y-86.9834 F120.00
G01 X142.3853 Y-87.3228 F120.00
G01 X142.3451 Y-87.2826 F120.00
G01 X142.3451 Y-86.9432 F120.00
G01 X142.3049 Y-86.9030 F120.00
G01 X142.3049 Y-87.2424 F120.00
G01 X142.2647 Y-87.2022 F120.00
G01 X142.2647 Y-86.8628 F120.00
G01 X142.2245 Y-86.8226 F120.00
G01 X142.2245 Y-87.1620 F120.00
G01 X142.1843 Y-87.1218 F120.00
G01 X142.1843 Y-86.7824 F120.00
G01 X142.1441 Y-86.7422 F120.00
G01 X142.1441 Y-87.0816 F120.00
G01 X142.1039 Y-87.0414 F120.00
G01 X142.1039 Y-86.7020 F120.00
G01 X142.0637 Y-86.6618 F120.00
G01 X142.0637 Y-87.0012 F120.00
G01 X142.0235 Y-86.9610 F120.00
G01 X142.0235 Y-86.6216 F120.00
G01 X141.9833 Y-86.5814 F120.00
G01 X141.9833 Y-86.9208 F120.00
G01 X141.9431 Y-86.8806 F120.00
G01 X141.9431 Y-86.5412 F120.00
G01 X141.9029 Y-86.5010 F120.00
G01 X141.9029 Y-86.8404 F120.00
G01 X141.8627 Y-86.8002 F120.00
G01 X141.8627 Y-86.4608 F120.00
G01 X141.8225 Y-86.4206 F120.00
G01 X141.8225 Y-86.7600 F120.00
G01 X141.7823 Y-86.7198 F120.00
G01 X141.7823 Y-86.3804 F120.00
G01 X141.7421 Y-86.3502 F120.00
G01 X141.7421 Y-86.6796 F120.00
G01 X141.7019 Y-86.6394 F120.00
G01 X141.7019 Y-86.3611 F120.00
G01 X141.6617 Y-86.4011 F120.00
G01 X141.6617 Y-86.5992 F120.00
G01 X141.5950 Y-86.5325 F120.00
G01 X142.5309 Y-87.4683 F120.00
G01 X142.5347 Y-87.4718 F120.00
G01 X142.5420 Y-87.4767 F120.00
G01 X142.5460 Y-87.4786 F120.00
G01 X142.5502 Y-87.4801 F120.00
G01 X142.5544 Y-87.4811 F120.00
G01 X142.5588 Y-87.4818 F120.00
G01 X142.5676 Y-87.4818 F120.00
G01 X142.5720 Y-87.4811 F120.00
G01 X142.5804 Y-87.4786 F120.00
G01 X142.5844 Y-87.4767 F120.00
G01 X142.5882 Y-87.4744 F120.00
G01 X142.5956 Y-87.4683 F120.00
G01 X142.7006 Y-87.3633 F120.00
G01 X142.7040 Y-87.3595 F120.00
G01 X142.7067 Y-87.3560 F120.00
G01 X142.7089 Y-87.3522 F120.00
G01 X142.7123 Y-87.3440 F120.00
G01 X142.7140 Y-87.3354 F120.00
G01 X142.7140 Y-87.3266 F120.00
G01 X142.7123 Y-87.3179 F120.00
G01 X142.7089 Y-87.3098 F120.00
G01 X142.7067 Y-87.3060 F120.00
G01 X142.7040 Y-87.3025 F120.00
G01 X142.7006 Y-87.2986 F120.00
G01 X141.7647 Y-86.3628 F120.00
G01 X141.7609 Y-86.3593 F120.00
G01 X141.7536 Y-86.3544 F120.00
G01 X141.7496 Y-86.3525 F120.00
G01 X141.7454 Y-86.3510 F120.00
G01 X141.7411 Y-86.3500 F120.00
G01 X141.7368 Y-86.3493 F120.00
G01 X141.7280 Y-86.3493 F120.00
G01 X141.7236 Y-86.3500 F120.00
G01 X141.7152 Y-86.3525 F120.00
G01 X141.7074 Y-86.3567 F120.00
G01 X141.7038 Y-86.3593 F120.00
G01 X141.7000 Y-86.3628 F120.00
G01 X141.5950 Y-86.4678 F120.00
G01 X141.5889 Y-86.4751 F120.00
G01 X141.5848 Y-86.4829 F120.00
G01 X141.5833 Y-86.4871 F120.00
G01 X141.5815 Y-86.4957 F120.00
G01 X141.5813 Y-86.5001 F120.00
G01 X141.5822 Y-86.5089 F120.00
G01 X141.5848 Y-86.5173 F120.00
G01 X141.5889 Y-86.5251 F120.00
G01 X141.5915 Y-86.5287 F120.00
G01 X141.6215 Y-86.5590 F120.00
G01 X141.6215 Y-86.4413 F120.00
M5
G00 X142.3533 Y-87.6599
G01 F60.00
M03 S5000.0
G01 F120.00
G01 X142.3533 Y-87.7091 F120.00
G01 X142.3131 Y-87.7508 F120.00
G01 X142.3131 Y-87.6183 F120.00
G01 X142.2729 Y-87.5781 F120.00
G01 X142.2729 Y-87.7910 F120.00
G01 X142.2327 Y-87.8291 F120.00
G01 X142.2327 Y-87.5379 F120.00
G01 X142.1925 Y-87.4977 F120.00
G01 X142.1925 Y-87.8322 F120.00
G01 X142.1523 Y-87.7969 F120.00
G01 X142.1523 Y-87.4575 F120.00
G01 X142.1121 Y-87.4173 F120.00
G01 X142.1121 Y-87.7567 F120.00
G01 X142.0719 Y-87.7165 F120.00
G01 X142.0719 Y-87.3771 F120.00
G01 X142.0317 Y-87.3369 F120.00
G01 X142.0317 Y-87.6763 F120.00
G01 X141.9915 Y-87.6361 F120.00
G01 X141.9915 Y-87.2967 F120.00
G01 X141.9513 Y-87.2565 F120.00
G01 X141.9513 Y-87.5959 F120.00
G01 X141.9111 Y-87.5557 F120.00
G01 X141.9111 Y-87.2163 F120.00
G01 X141.8709 Y-87.1761 F120.00
G01 X141.8709 Y-87.5155 F120.00
G01 X141.8307 Y-87.4753 F120.00
G01 X141.8307 Y-87.1359 F120.00
G01 X141.7905 Y-87.0957 F120.00
G01 X141.7905 Y-87.4351 F120.00
G01 X141.7503 Y-87.3949 F120.00
G01 X141.7503 Y-87.0555 F120.00
G01 X141.7101 Y-87.0153 F120.00
G01 X141.7101 Y-87.3547 F120.00
G01 X141.6699 Y-87.3145 F120.00
G01 X141.6699 Y-86.9751 F120.00
G01 X141.6297 Y-86.9349 F120.00
G01 X141.6297 Y-87.2743 F120.00
G01 X141.5895 Y-87.2341 F120.00
G01 X141.5895 Y-86.8947 F120.00
G01 X141.5493 Y-86.8545 F120.00
G01 X141.5493 Y-87.1939 F120.00
G01 X141.5091 Y-87.1537 F120.00
G01 X141.5091 Y-86.8143 F120.00
G01 X141.4689 Y-86.7741 F120.00
G01 X141.4689 Y-87.1135 F120.00
G01 X141.4287 Y-87.0733 F120.00
G01 X141.4287 Y-86.7339 F120.00
G01 X141.3885 Y-86.7038 F120.00
G01 X141.3885 Y-87.0331 F120.00
G01 X141.3483 Y-86.9929 F120.00
G01 X141.3483 Y-86.7146 F120.00
G01 X141.3081 Y-86.7546 F120.00
G01 X141.3081 Y-86.9527 F120.00
G01 X141.2414 Y-86.8860 F120.00
G01 X142.1773 Y-87.8219 F120.00
G01 X142.1811 Y-87.8254 F120.00
G01 X142.1885 Y-87.8303 F120.00
G01 X142.1925 Y-87.8321 F120.00
G01 X142.1966 Y-87.8336 F120.00
G01 X142.2009 Y-87.8347 F120.00
G01 X142.2052 Y-87.8353 F120.00
G01 X142.2141 Y-87.8353 F120.00
G01 X142.2184 Y-87.8347 F120.00
G01 X142.2269 Y-87.8321 F120.00
G01 X142.2309 Y-87.8303 F120.00
G01 X142.2346 Y-87.8280 F120.00
G01 X142.2420 Y-87.8219 F120.00
G01 X142.3470 Y-87.7169 F120.00
G01 X142.3505 Y-87.7131 F120.00
G01 X142.3531 Y-87.7095 F120.00
G01 X142.3554 Y-87.7057 F120.00
G01 X142.3588 Y-87.6976 F120.00
G01 X142.3605 Y-87.6889 F120.00
G01 X142.3605 Y-87.6801 F120.00
G01 X142.3588 Y-87.6715 F120.00
G01 X142.3554 Y-87.6633 F120.00
G01 X142.3531 Y-87.6596 F120.00
G01 X142.3505 Y-87.6560 F120.00
G01 X142.3470 Y-87.6522 F120.00
G01 X141.4111 Y-86.7163 F120.00
G01 X141.4073 Y-86.7129 F120.00
G01 X141.4000 Y-86.7080 F120.00
G01 X141.3960 Y-86.7061 F120.00
G01 X141.3919 Y-86.7046 F120.00
G01 X141.3876 Y-86.7035 F120.00
G01 X141.3832 Y-86.7029 F120.00
G01 X141.3744 Y-86.7029 F120.00
G01 X141.3700 Y-86.7035 F120.00
G01 X141.3616 Y-86.7061 F120.00
G01 X141.3538 Y-86.7102 F120.00
G01 X141.3503 Y-86.7129 F120.00
G01 X141.3465 Y-86.7163 F120.00
G01 X141.2414 Y-86.8213 F120.00
G01 X141.2354 Y-86.8287 F120.00
G01 X141.2312 Y-86.8365 F120.00
G01 X141.2297 Y-86.8406 F120.00
G01 X141.2280 Y-86.8493 F120.00
G01 X141.2278 Y-86.8537 F120.00
G01 X141.2286 Y-86.8625 F120.00
G01 X141.2312 Y-86.8709 F120.00
G01 X141.2354 Y-86.8787 F120.00
G01 X141.2380 Y-86.8822 F120.00
G01 X141.2679 Y-86.9125 F120.00
G01 X141.2679 Y-86.7948 F120.00
M5
G00 X141.9998 Y-88.0135
G01 F60.00
M03 S5000.0
G01 F120.00
G01 X141.9998 Y-88.0627 F120.00
G01 X141.9596 Y-88.1043 F120.00
G01 X141.9596 Y-87.9719 F120.00
G01 X141.9194 Y-87.9317 F120.00
G01 X141.9194 Y-88.1445 F120.00
G01 X141.8792 Y-88.1827 F120.00
G01 X141.8792 Y-87.8915 F120.00
G01 X141.8390 Y-87.8513 F120.00
G01 X141.8390 Y-88.1857 F120.00
G01 X141.7988 Y-88.1505 F120.00
G01 X141.7988 Y-87.8111 F120.00
G01 X141.7586 Y-87.7709 F120.00
G01 X141.7586 Y-88.1103 F120.00
G01 X141.7184 Y-88.0701 F120.00
G01 X141.7184 Y-87.7307 F120.00
G01 X141.6782 Y-87.6905 F120.00
G01 X141.6782 Y-88.0299 F120.00
G01 X141.6380 Y-87.9897 F120.00
G01 X141.6380 Y-87.6503 F120.00
G01 X141.5978 Y-87.6101 F120.00
G01 X141.5978 Y-87.9495 F120.00
G01 X141.5576 Y-87.9093 F120.00
G01 X141.5576 Y-87.5699 F120.00
G01 X141.5174 Y-87.5297 F120.00
G01 X141.5174 Y-87.8691 F120.00
G01 X141.4772 Y-87.8289 F120.00
G01 X141.4772 Y-87.4895 F120.00
G01 X141.4370 Y-87.4493 F120.00
G01 X141.4370 Y-87.7887 F120.00
G01 X141.3968 Y-87.7485 F120.00
G01 X141.3968 Y-87.4091 F120.00
G01 X141.3566 Y-87.3689 F120.00
G01 X141.3566 Y-87.7083 F120.00
G01 X141.3164 Y-87.6681 F120.00
G01 X141.3164 Y-87.3287 F120.00
G01 X141.2762 Y-87.2885 F120.00
G01 X141.2762 Y-87.6279 F120.00
G01 X141.2360 Y-87.5877 F120.00
G01 X141.2360 Y-87.2483 F120.00
G01 X141.1958 Y-87.2081 F120.00
G01 X141.1958 Y-87.5475 F120.00
G01 X141.1556 Y-87.5073 F120.00
G01 X141.1556 Y-87.1679 F120.00
G01 X141.1154 Y-87.1277 F120.00
G01 X141.1154 Y-87.4671 F120.00
G01 X141.0752 Y-87.4269 F120.00
G01 X141.0752 Y-87.0875 F120.00
G01 X141.0350 Y-87.0573 F120.00
G01 X141.0350 Y-87.3867 F120.00
G01 X140.9948 Y-87.3465 F120.00
G01 X140.9948 Y-87.0682 F120.00
G01 X140.9546 Y-87.1082 F120.00
G01 X140.9546 Y-87.3063 F120.00
G01 X140.8879 Y-87.2396 F120.00
G01 X141.8238 Y-88.1755 F120.00
G01 X141.8276 Y-88.1789 F120.00
G01 X141.8349 Y-88.1838 F120.00
G01 X141.8389 Y-88.1857 F120.00
G01 X141.8431 Y-88.1872 F120.00
G01 X141.8473 Y-88.1883 F120.00
G01 X141.8517 Y-88.1889 F120.00
G01 X141.8605 Y-88.1889 F120.00
G01 X141.8649 Y-88.1883 F120.00
G01 X141.8733 Y-88.1857 F120.00
G01 X141.8773 Y-88.1838 F120.00
G01 X141.8811 Y-88.1815 F120.00
G01 X141.8884 Y-88.1755 F120.00
G01 X141.9935 Y-88.0704 F120.00
G01 X141.9969 Y-88.0666 F120.00
G01 X141.9996 Y-88.0631 F120.00
G01 X142.0018 Y-88.0593 F120.00
G01 X142.0052 Y-88.0511 F120.00
G01 X142.0069 Y-88.0425 F120.00
G01 X142.0069 Y-88.0337 F120.00
G01 X142.0052 Y-88.0250 F120.00
G01 X142.0018 Y-88.0169 F120.00
G01 X141.9996 Y-88.0131 F120.00
G01 X141.9969 Y-88.0096 F120.00
G01 X141.9935 Y-88.0057 F120.00
G01 X141.0576 Y-87.0699 F120.00
G01 X141.0538 Y-87.0664 F120.00
G01 X141.0464 Y-87.0615 F120.00
G01 X141.0425 Y-87.0596 F120.00
G01 X141.0383 Y-87.0581 F120.00
G01 X141.0340 Y-87.0571 F120.00
G01 X141.0297 Y-87.0564 F120.00
G01 X141.0208 Y-87.0564 F120.00
G01 X141.0165 Y-87.0571 F120.00
G01 X141.0080 Y-87.0596 F120.00
G01 X141.0003 Y-87.0638 F120.00
G01 X140.9967 Y-87.0664 F120.00
G01 X140.9929 Y-87.0699 F120.00
G01 X140.8879 Y-87.1749 F120.00
G01 X140.8818 Y-87.1823 F120.00
G01 X140.8776 Y-87.1900 F120.00
G01 X140.8762 Y-87.1942 F120.00
G01 X140.8744 Y-87.2028 F120.00
G01 X140.8742 Y-87.2072 F120.00
G01 X140.8751 Y-87.2160 F120.00
G01 X140.8776 Y-87.2244 F120.00
G01 X140.8818 Y-87.2322 F120.00
G01 X140.8844 Y-87.2358 F120.00
G01 X140.9144 Y-87.2661 F120.00
G01 X140.9144 Y-87.1484 F120.00
M5
G00 X141.6462 Y-88.3670
G01 F60.00
M03 S5000.0
G01 F120.00
G01 X141.6462 Y-88.4162 F120.00
G01 X141.6060 Y-88.4579 F120.00
G01 X141.6060 Y-88.3254 F120.00
G01 X141.5658 Y-88.2852 F120.00
G01 X141.5658 Y-88.4981 F120.00
G01 X141.5256 Y-88.5362 F120.00
G01 X141.5256 Y-88.2450 F120.00
G01 X141.4854 Y-88.2048 F120.00
G01 X141.4854 Y-88.5393 F120.00
G01 X141.4452 Y-88.5040 F120.00
G01 X141.4452 Y-88.1646 F120.00
G01 X141.4050 Y-88.1244 F120.00
G01 X141.4050 Y-88.4638 F120.00
G01 X141.3648 Y-88.4236 F120.00
G01 X141.3648 Y-88.0842 F120.00
G01 X141.3246 Y-88.0440 F120.00
G01 X141.3246 Y-88.3834 F120.00
G01 X141.2844 Y-88.3432 F120.00
G01 X141.2844 Y-88.0038 F120.00
G01 X141.2442 Y-87.9636 F120.00
G01 X141.2442 Y-88.3030 F120.00
G01 X141.2040 Y-88.2628 F120.00
G01 X141.2040 Y-87.9234 F120.00
G01 X141.1638 Y-87.8832 F120.00
G01 X141.1638 Y-88.2226 F120.00
G01 X141.1236 Y-88.1824 F120.00
G01 X141.1236 Y-87.8430 F120.00
G01 X141.0834 Y-87.8028 F120.00
G01 X141.0834 Y-88.1422 F120.00
G01 X141.0432 Y-88.1020 F120.00
G01 X141.0432 Y-87.7626 F120.00
G01 X141.0030 Y-87.7224 F120.00
G01 X141.0030 Y-88.0618 F120.00
G01 X140.9628 Y-88.0216 F120.00
G01 X140.9628 Y-87.6822 F120.00
G01 X140.9226 Y-87.6420 F120.00
G01 X140.9226 Y-87.9814 F120.00
G01 X140.8824 Y-87.9412 F120.00
G01 X140.8824 Y-87.6018 F120.00
G01 X140.8422 Y-87.5616 F120.00
G01 X140.8422 Y-87.9010 F120.00
G01 X140.8020 Y-87.8608 F120.00
G01 X140.8020 Y-87.5214 F120.00
G01 X140.7618 Y-87.4812 F120.00
G01 X140.7618 Y-87.8206 F120.00
G01 X140.7216 Y-87.7804 F120.00
G01 X140.7216 Y-87.4410 F120.00
G01 X140.6814 Y-87.4109 F120.00
G01 X140.6814 Y-87.7402 F120.00
G01 X140.6412 Y-87.7000 F120.00
G01 X140.6412 Y-87.4217 F120.00
G01 X140.6010 Y-87.4617 F120.00
G01 X140.6010 Y-87.6598 F120.00
G01 X140.5343 Y-87.5931 F120.00
G01 X141.4702 Y-88.5290 F120.00
G01 X141.4740 Y-88.5325 F120.00
G01 X141.4814 Y-88.5374 F120.00
G01 X141.4853 Y-88.5392 F120.00
G01 X141.4895 Y-88.5407 F120.00
G01 X141.4938 Y-88.5418 F120.00
G01 X141.4981 Y-88.5424 F120.00
G01 X141.5070 Y-88.5424 F120.00
G01 X141.5113 Y-88.5418 F120.00
G01 X141.5198 Y-88.5392 F120.00
G01 X141.5237 Y-88.5374 F120.00
G01 X141.5275 Y-88.5351 F120.00
G01 X141.5349 Y-88.5290 F120.00
G01 X141.6399 Y-88.4240 F120.00
G01 X141.6434 Y-88.4202 F120.00
G01 X141.6460 Y-88.4166 F120.00
G01 X141.6483 Y-88.4128 F120.00
G01 X141.6516 Y-88.4047 F120.00
G01 X141.6534 Y-88.3960 F120.00
G01 X141.6534 Y-88.3872 F120.00
G01 X141.6516 Y-88.3786 F120.00
G01 X141.6483 Y-88.3704 F120.00
G01 X141.6460 Y-88.3667 F120.00
G01 X141.6434 Y-88.3631 F120.00
G01 X141.6399 Y-88.3593 F120.00
G01 X140.7040 Y-87.4234 F120.00
G01 X140.7002 Y-87.4200 F120.00
G01 X140.6929 Y-87.4151 F120.00
G01 X140.6889 Y-87.4132 F120.00
G01 X140.6848 Y-87.4117 F120.00
G01 X140.6805 Y-87.4106 F120.00
G01 X140.6761 Y-87.4100 F120.00
G01 X140.6673 Y-87.4100 F120.00
G01 X140.6629 Y-87.4106 F120.00
G01 X140.6545 Y-87.4132 F120.00
G01 X140.6467 Y-87.4173 F120.00
G01 X140.6432 Y-87.4200 F120.00
G01 X140.6394 Y-87.4234 F120.00
G01 X140.5343 Y-87.5284 F120.00
G01 X140.5282 Y-87.5358 F120.00
G01 X140.5241 Y-87.5436 F120.00
G01 X140.5226 Y-87.5477 F120.00
G01 X140.5209 Y-87.5564 F120.00
G01 X140.5207 Y-87.5608 F120.00
G01 X140.5215 Y-87.5696 F120.00
G01 X140.5241 Y-87.5780 F120.00
G01 X140.5282 Y-87.5858 F120.00
G01 X140.5309 Y-87.5893 F120.00
G01 X140.5608 Y-87.6196 F120.00
G01 X140.5608 Y-87.5019 F120.00
M5
G00 X141.6462 Y-89.5338
G01 F60.00
M03 S5000.0
G01 F120.00
G01 X141.6462 Y-89.5830 F120.00
G01 X141.6060 Y-89.6246 F120.00
G01 X141.6060 Y-89.4921 F120.00
G01 X141.5658 Y-89.4519 F120.00
G01 X141.5658 Y-89.6648 F120.00
G01 X141.5256 Y-89.7050 F120.00
G01 X141.5256 Y-89.4138 F120.00
G01 X141.4702 Y-89.4210 F120.00
G01 X140.5343 Y-90.3569 F120.00
G01 X140.5282 Y-90.3642 F120.00
G01 X140.5241 Y-90.3720 F120.00
G01 X140.5215 Y-90.3804 F120.00
G01 X140.5207 Y-90.3892 F120.00
G01 X140.5215 Y-90.3980 F120.00
G01 X140.5241 Y-90.4064 F120.00
G01 X140.5282 Y-90.4142 F120.00
G01 X140.5343 Y-90.4216 F120.00
G01 X140.6394 Y-90.5266 F120.00
G01 X140.6432 Y-90.5300 F120.00
G01 X140.6467 Y-90.5327 F120.00
G01 X140.6505 Y-90.5349 F120.00
G01 X140.6586 Y-90.5383 F120.00
G01 X140.6629 Y-90.5394 F120.00
G01 X140.6717 Y-90.5402 F120.00
G01 X140.6805 Y-90.5394 F120.00
G01 X140.6848 Y-90.5383 F120.00
G01 X140.6929 Y-90.5349 F120.00
G01 X140.6967 Y-90.5327 F120.00
G01 X140.7040 Y-90.5266 F120.00
G01 X141.6399 Y-89.5907 F120.00
G01 X141.6434 Y-89.5869 F120.00
G01 X141.6460 Y-89.5833 F120.00
G01 X141.6483 Y-89.5796 F120.00
G01 X141.6516 Y-89.5714 F120.00
G01 X141.6534 Y-89.5628 F120.00
G01 X141.6534 Y-89.5540 F120.00
G01 X141.6516 Y-89.5453 F120.00
G01 X141.6483 Y-89.5372 F120.00
G01 X141.6460 Y-89.5334 F120.00
G01 X141.6399 Y-89.5260 F120.00
G01 X141.5349 Y-89.4210 F120.00
G01 X141.5275 Y-89.4149 F120.00
G01 X141.5237 Y-89.4126 F120.00
G01 X141.5156 Y-89.4093 F120.00
G01 X141.5070 Y-89.4076 F120.00
G01 X141.4981 Y-89.4076 F120.00
G01 X141.4895 Y-89.4093 F120.00
G01 X141.4853 Y-89.4108 F120.00
G01 X141.4814 Y-89.4126 F120.00
G01 X141.4740 Y-89.4175 F120.00
G01 X141.4702 Y-89.4210 F120.00
G01 X141.4854 Y-89.4107 F120.00
G01 X141.4854 Y-89.7452 F120.00
G01 X141.4452 Y-89.7854 F120.00
G01 X141.4452 Y-89.4460 F120.00
G01 X141.4050 Y-89.4862 F120.00
G01 X141.4050 Y-89.8256 F120.00
G01 X141.3648 Y-89.8658 F120.00
G01 X141.3648 Y-89.5264 F120.00
G01 X141.3246 Y-89.5666 F120.00
G01 X141.3246 Y-89.9060 F120.00
G01 X141.2844 Y-89.9462 F120.00
G01 X141.2844 Y-89.6068 F120.00
G01 X141.2442 Y-89.6470 F120.00
G01 X141.2442 Y-89.9864 F120.00
G01 X141.2040 Y-90.0266 F120.00
G01 X141.2040 Y-89.6872 F120.00
G01 X141.1638 Y-89.7274 F120.00
G01 X141.1638 Y-90.0668 F120.00
G01 X141.1236 Y-90.1070 F120.00
G01 X141.1236 Y-89.7676 F120.00
G01 X141.0834 Y-89.8078 F120.00
G01 X141.0834 Y-90.1472 F120.00
G01 X141.0432 Y-90.1874 F120.00
G01 X141.0432 Y-89.8480 F120.00
G01 X141.0030 Y-89.8882 F120.00
G01 X141.0030 Y-90.2276 F120.00
G01 X140.9628 Y-90.2678 F120.00
G01 X140.9628 Y-89.9284 F120.00
G01 X140.9226 Y-89.9686 F120.00
G01 X140.9226 Y-90.3080 F120.00
G01 X140.8824 Y-90.3482 F120.00
G01 X140.8824 Y-90.0088 F120.00
G01 X140.8422 Y-90.0490 F120.00
G01 X140.8422 Y-90.3884 F120.00
G01 X140.8020 Y-90.4286 F120.00
G01 X140.8020 Y-90.0892 F120.00
G01 X140.7618 Y-90.1294 F120.00
G01 X140.7618 Y-90.4688 F120.00
G01 X140.7216 Y-90.5090 F120.00
G01 X140.7216 Y-90.1696 F120.00
G01 X140.6814 Y-90.2098 F120.00
G01 X140.6814 Y-90.5391 F120.00
G01 X140.6412 Y-90.5283 F120.00
G01 X140.6412 Y-90.2500 F120.00
G01 X140.6010 Y-90.2902 F120.00
G01 X140.6010 Y-90.4883 F120.00
G01 X140.5608 Y-90.4481 F120.00
G01 X140.5608 Y-90.3304 F120.00
M5
G00 X141.9998 Y-89.8873
G01 F60.00
M03 S5000.0
G01 F120.00
G01 X141.9998 Y-89.9365 F120.00
G01 X141.9596 Y-89.9781 F120.00
G01 X141.9596 Y-89.8457 F120.00
G01 X141.9194 Y-89.8055 F120.00
G01 X141.9194 Y-90.0183 F120.00
G01 X141.8792 Y-90.0585 F120.00
G01 X141.8792 Y-89.7673 F120.00
G01 X141.8238 Y-89.7746 F120.00
G01 X140.8879 Y-90.7104 F120.00
G01 X140.8818 Y-90.7178 F120.00
G01 X140.8776 Y-90.7256 F120.00
G01 X140.8751 Y-90.7340 F120.00
G01 X140.8742 Y-90.7428 F120.00
G01 X140.8751 Y-90.7515 F120.00
G01 X140.8776 Y-90.7600 F120.00
G01 X140.8818 Y-90.7677 F120.00
G01 X140.8879 Y-90.7751 F120.00
G01 X140.9929 Y-90.8801 F120.00
G01 X140.9967 Y-90.8836 F120.00
G01 X141.0003 Y-90.8862 F120.00
G01 X141.0041 Y-90.8885 F120.00
G01 X141.0122 Y-90.8919 F120.00
G01 X141.0165 Y-90.8929 F120.00
G01 X141.0253 Y-90.8938 F120.00
G01 X141.0340 Y-90.8929 F120.00
G01 X141.0383 Y-90.8919 F120.00
G01 X141.0464 Y-90.8885 F120.00
G01 X141.0502 Y-90.8862 F120.00
G01 X141.0576 Y-90.8801 F120.00
G01 X141.9935 Y-89.9443 F120.00
G01 X141.9969 Y-89.9404 F120.00
G01 X141.9996 Y-89.9369 F120.00
G01 X142.0018 Y-89.9331 F120.00
G01 X142.0052 Y-89.9250 F120.00
G01 X142.0069 Y-89.9163 F120.00
G01 X142.0069 Y-89.9075 F120.00
G01 X142.0052 Y-89.8989 F120.00
G01 X142.0018 Y-89.8907 F120.00
G01 X141.9996 Y-89.8869 F120.00
G01 X141.9935 Y-89.8796 F120.00
G01 X141.8884 Y-89.7746 F120.00
G01 X141.8811 Y-89.7685 F120.00
G01 X141.8773 Y-89.7662 F120.00
G01 X141.8692 Y-89.7628 F120.00
G01 X141.8605 Y-89.7611 F120.00
G01 X141.8517 Y-89.7611 F120.00
G01 X141.8431 Y-89.7628 F120.00
G01 X141.8389 Y-89.7643 F120.00
G01 X141.8349 Y-89.7662 F120.00
G01 X141.8276 Y-89.7711 F120.00
G01 X141.8238 Y-89.7746 F120.00
G01 X141.8390 Y-89.7643 F120.00
G01 X141.8390 Y-90.0987 F120.00
G01 X141.7988 Y-90.1389 F120.00
G01 X141.7988 Y-89.7995 F120.00
G01 X141.7586 Y-89.8397 F120.00
G01 X141.7586 Y-90.1791 F120.00
G01 X141.7184 Y-90.2193 F120.00
G01 X141.7184 Y-89.8799 F120.00
G01 X141.6782 Y-89.9201 F120.00
G01 X141.6782 Y-90.2595 F120.00
G01 X141.6380 Y-90.2997 F120.00
G01 X141.6380 Y-89.9603 F120.00
G01 X141.5978 Y-90.0005 F120.00
G01 X141.5978 Y-90.3399 F120.00
G01 X141.5576 Y-90.3801 F120.00
G01 X141.5576 Y-90.0407 F120.00
G01 X141.5174 Y-90.0809 F120.00
G01 X141.5174 Y-90.4203 F120.00
G01 X141.4772 Y-90.4605 F120.00
G01 X141.4772 Y-90.1211 F120.00
G01 X141.4370 Y-90.1613 F120.00
G01 X141.4370 Y-90.5007 F120.00
G01 X141.3968 Y-90.5409 F120.00
G01 X141.3968 Y-90.2015 F120.00
G01 X141.3566 Y-90.2417 F120.00
G01 X141.3566 Y-90.5811 F120.00
G01 X141.3164 Y-90.6213 F120.00
G01 X141.3164 Y-90.2819 F120.00
G01 X141.2762 Y-90.3221 F120.00
G01 X141.2762 Y-90.6615 F120.00
G01 X141.2360 Y-90.7017 F120.00
G01 X141.2360 Y-90.3623 F120.00
G01 X141.1958 Y-90.4025 F120.00
G01 X141.1958 Y-90.7419 F120.00
G01 X141.1556 Y-90.7821 F120.00
G01 X141.1556 Y-90.4427 F120.00
G01 X141.1154 Y-90.4829 F120.00
G01 X141.1154 Y-90.8223 F120.00
G01 X141.0752 Y-90.8625 F120.00
G01 X141.0752 Y-90.5231 F120.00
G01 X141.0350 Y-90.5633 F120.00
G01 X141.0350 Y-90.8927 F120.00
G01 X140.9948 Y-90.8818 F120.00
G01 X140.9948 Y-90.6035 F120.00
G01 X140.9546 Y-90.6437 F120.00
G01 X140.9546 Y-90.8418 F120.00
G01 X140.9144 Y-90.8016 F120.00
G01 X140.9144 Y-90.6839 F120.00
M5
G00 X142.3533 Y-90.2409
G01 F60.00
M03 S5000.0
G01 F120.00
G01 X142.3533 Y-90.2901 F120.00
G01 X142.3131 Y-90.3317 F120.00
G01 X142.3131 Y-90.1993 F120.00
G01 X142.2729 Y-90.1591 F120.00
G01 X142.2729 Y-90.3719 F120.00
G01 X142.2327 Y-90.4121 F120.00
G01 X142.2327 Y-90.1209 F120.00
G01 X142.1773 Y-90.1281 F120.00
G01 X141.2414 Y-91.0640 F120.00
G01 X141.2354 Y-91.0713 F120.00
G01 X141.2312 Y-91.0791 F120.00
G01 X141.2286 Y-91.0876 F120.00
G01 X141.2278 Y-91.0963 F120.00
G01 X141.2286 Y-91.1051 F120.00
G01 X141.2312 Y-91.1135 F120.00
G01 X141.2354 Y-91.1213 F120.00
G01 X141.2414 Y-91.1287 F120.00
G01 X141.3465 Y-91.2337 F120.00
G01 X141.3503 Y-91.2371 F120.00
G01 X141.3538 Y-91.2398 F120.00
G01 X141.3576 Y-91.2420 F120.00
G01 X141.3658 Y-91.2454 F120.00
G01 X141.3700 Y-91.2465 F120.00
G01 X141.3788 Y-91.2474 F120.00
G01 X141.3876 Y-91.2465 F120.00
G01 X141.3919 Y-91.2454 F120.00
G01 X141.4000 Y-91.2420 F120.00
G01 X141.4038 Y-91.2398 F120.00
G01 X141.4111 Y-91.2337 F120.00
G01 X142.3470 Y-90.2978 F120.00
G01 X142.3505 Y-90.2940 F120.00
G01 X142.3531 Y-90.2905 F120.00
G01 X142.3554 Y-90.2867 F120.00
G01 X142.3588 Y-90.2785 F120.00
G01 X142.3605 Y-90.2699 F120.00
G01 X142.3605 Y-90.2611 F120.00
G01 X142.3588 Y-90.2524 F120.00
G01 X142.3554 Y-90.2443 F120.00
G01 X142.3531 Y-90.2405 F120.00
G01 X142.3470 Y-90.2331 F120.00
G01 X142.2420 Y-90.1281 F120.00
G01 X142.2346 Y-90.1220 F120.00
G01 X142.2309 Y-90.1198 F120.00
G01 X142.2227 Y-90.1164 F120.00
G01 X142.2141 Y-90.1147 F120.00
G01 X142.2052 Y-90.1147 F120.00
G01 X142.1966 Y-90.1164 F120.00
G01 X142.1925 Y-90.1179 F120.00
G01 X142.1885 Y-90.1198 F120.00
G01 X142.1811 Y-90.1247 F120.00
G01 X142.1773 Y-90.1281 F120.00
G01 X142.1925 Y-90.1178 F120.00
G01 X142.1925 Y-90.4523 F120.00
G01 X142.1523 Y-90.4925 F120.00
G01 X142.1523 Y-90.1531 F120.00
G01 X142.1121 Y-90.1933 F120.00
G01 X142.1121 Y-90.5327 F120.00
G01 X142.0719 Y-90.5729 F120.00
G01 X142.0719 Y-90.2335 F120.00
G01 X142.0317 Y-90.2737 F120.00
G01 X142.0317 Y-90.6131 F120.00
G01 X141.9915 Y-90.6533 F120.00
G01 X141.9915 Y-90.3139 F120.00
G01 X141.9513 Y-90.3541 F120.00
G01 X141.9513 Y-90.6935 F120.00
G01 X141.9111 Y-90.7337 F120.00
G01 X141.9111 Y-90.3943 F120.00
G01 X141.8709 Y-90.4345 F120.00
G01 X141.8709 Y-90.7739 F120.00
G01 X141.8307 Y-90.8141 F120.00
G01 X141.8307 Y-90.4747 F120.00
G01 X141.7905 Y-90.5149 F120.00
G01 X141.7905 Y-90.8543 F120.00
G01 X141.7503 Y-90.8945 F120.00
G01 X141.7503 Y-90.5551 F120.00
G01 X141.7101 Y-90.5953 F120.00
G01 X141.7101 Y-90.9347 F120.00
G01 X141.6699 Y-90.9749 F120.00
G01 X141.6699 Y-90.6355 F120.00
G01 X141.6297 Y-90.6757 F120.00
G01 X141.6297 Y-91.0151 F120.00
G01 X141.5895 Y-91.0553 F120.00
G01 X141.5895 Y-90.7159 F120.00
G01 X141.5493 Y-90.7561 F120.00
G01 X141.5493 Y-91.0955 F120.00
G01 X141.5091 Y-91.1357 F120.00
G01 X141.5091 Y-90.7963 F120.00
G01 X141.4689 Y-90.8365 F120.00
G01 X141.4689 Y-91.1759 F120.00
G01 X141.4287 Y-91.2161 F120.00
G01 X141.4287 Y-90.8767 F120.00
G01 X141.3885 Y-90.9169 F120.00
G01 X141.3885 Y-91.2462 F120.00
G01 X141.3483 Y-91.2354 F120.00
G01 X141.3483 Y-90.9571 F120.00
G01 X141.3081 Y-90.9973 F120.00
G01 X141.3081 Y-91.1954 F120.00
G01 X141.2679 Y-91.1552 F120.00
G01 X141.2679 Y-91.0375 F120.00
M5
G00 X142.7069 Y-90.5944
G01 F60.00
M03 S5000.0
G01 F120.00
G01 X142.7069 Y-90.6436 F120.00
G01 X142.6667 Y-90.6852 F120.00
G01 X142.6667 Y-90.5528 F120.00
G01 X142.6265 Y-90.5126 F120.00
G01 X142.6265 Y-90.7254 F120.00
G01 X142.5863 Y-90.7656 F120.00
G01 X142.5863 Y-90.4744 F120.00
G01 X142.5309 Y-90.4817 F120.00
G01 X141.5950 Y-91.4175 F120.00
G01 X141.5889 Y-91.4249 F120.00
G01 X141.5848 Y-91.4327 F120.00
G01 X141.5822 Y-91.4411 F120.00
G01 X141.5813 Y-91.4499 F120.00
G01 X141.5822 Y-91.4586 F120.00
G01 X141.5848 Y-91.4671 F120.00
G01 X141.5889 Y-91.4749 F120.00
G01 X141.5950 Y-91.4822 F120.00
G01 X141.7000 Y-91.5872 F120.00
G01 X141.7038 Y-91.5907 F120.00
G01 X141.7074 Y-91.5933 F120.00
G01 X141.7112 Y-91.5956 F120.00
G01 X141.7193 Y-91.5990 F120.00
G01 X141.7236 Y-91.6000 F120.00
G01 X141.7324 Y-91.6009 F120.00
G01 X141.7411 Y-91.6000 F120.00
G01 X141.7454 Y-91.5990 F120.00
G01 X141.7536 Y-91.5956 F120.00
G01 X141.7573 Y-91.5933 F120.00
G01 X141.7647 Y-91.5872 F120.00
G01 X142.7006 Y-90.6514 F120.00
G01 X142.7040 Y-90.6475 F120.00
G01 X142.7067 Y-90.6440 F120.00
G01 X142.7089 Y-90.6402 F120.00
G01 X142.7123 Y-90.6321 F120.00
G01 X142.7140 Y-90.6234 F120.00
G01 X142.7140 Y-90.6146 F120.00
G01 X142.7123 Y-90.6060 F120.00
G01 X142.7089 Y-90.5978 F120.00
G01 X142.7067 Y-90.5940 F120.00
G01 X142.7006 Y-90.5867 F120.00
G01 X142.5956 Y-90.4817 F120.00
G01 X142.5882 Y-90.4756 F120.00
G01 X142.5844 Y-90.4733 F120.00
G01 X142.5763 Y-90.4699 F120.00
G01 X142.5676 Y-90.4682 F120.00
G01 X142.5588 Y-90.4682 F120.00
G01 X142.5502 Y-90.4699 F120.00
G01 X142.5460 Y-90.4714 F120.00
G01 X142.5420 Y-90.4733 F120.00
G01 X142.5347 Y-90.4782 F120.00
G01 X142.5309 Y-90.4817 F120.00
G01 X142.5461 Y-90.4714 F120.00
G01 X142.5461 Y-90.8058 F120.00
G01 X142.5059 Y-90.8460 F120.00
G01 X142.5059 Y-90.5066 F120.00
G01 X142.4657 Y-90.5468 F120.00
G01 X142.4657 Y-90.8862 F120.00
G01 X142.4255 Y-90.9264 F120.00
G01 X142.4255 Y-90.5870 F120.00
G01 X142.3853 Y-90.6272 F120.00
G01 X142.3853 Y-90.9666 F120.00
G01 X142.3451 Y-91.0068 F120.00
G01 X142.3451 Y-90.6674 F120.00
G01 X142.3049 Y-90.7076 F120.00
G01 X142.3049 Y-91.0470 F120.00
G01 X142.2647 Y-91.0872 F120.00
G01 X142.2647 Y-90.7478 F120.00
G01 X142.2245 Y-90.7880 F120.00
G01 X142.2245 Y-91.1274 F120.00
G01 X142.1843 Y-91.1676 F120.00
G01 X142.1843 Y-90.8282 F120.00
G01 X142.1441 Y-90.8684 F120.00
G01 X142.1441 Y-91.2078 F120.00
G01 X142.1039 Y-91.2480 F120.00
G01 X142.1039 Y-90.9086 F120.00
G01 X142.0637 Y-90.9488 F120.00
G01 X142.0637 Y-91.2882 F120.00
G01 X142.0235 Y-91.3284 F120.00
G01 X142.0235 Y-90.9890 F120.00
G01 X141.9833 Y-91.0292 F120.00
G01 X141.9833 Y-91.3686 F120.00
G01 X141.9431 Y-91.4088 F120.00
G01 X141.9431 Y-91.0694 F120.00
G01 X141.9029 Y-91.1096 F120.00
G01 X141.9029 Y-91.4490 F120.00
G01 X141.8627 Y-91.4892 F120.00
G01 X141.8627 Y-91.1498 F120.00
G01 X141.8225 Y-91.1900 F120.00
G01 X141.8225 Y-91.5294 F120.00
G01 X141.7823 Y-91.5696 F120.00
G01 X141.7823 Y-91.2302 F120.00
G01 X141.7421 Y-91.2704 F120.00
G01 X141.7421 Y-91.5998 F120.00
G01 X141.7019 Y-91.5889 F120.00
G01 X141.7019 Y-91.3106 F120.00
G01 X141.6617 Y-91.3508 F120.00
G01 X141.6617 Y-91.5489 F120.00
G01 X141.6215 Y-91.5087 F120.00
G01 X141.6215 Y-91.3910 F120.00
M5
G00 X143.0604 Y-90.9480
G01 F60.00
M03 S5000.0
G01 F120.00
G01 X143.0604 Y-90.9972 F120.00
G01 X143.0202 Y-91.0388 F120.00
G01 X143.0202 Y-90.9064 F120.00
G01 X142.9800 Y-90.8662 F120.00
G01 X142.9800 Y-91.0790 F120.00
G01 X142.9398 Y-91.1192 F120.00
G01 X142.9398 Y-90.8280 F120.00
G01 X142.8844 Y-90.8352 F120.00
G01 X141.9485 Y-91.7711 F120.00
G01 X141.9425 Y-91.7784 F120.00
G01 X141.9383 Y-91.7862 F120.00
G01 X141.9357 Y-91.7947 F120.00
G01 X141.9349 Y-91.8034 F120.00
G01 X141.9357 Y-91.8122 F120.00
G01 X141.9383 Y-91.8206 F120.00
G01 X141.9425 Y-91.8284 F120.00
G01 X141.9485 Y-91.8358 F120.00
G01 X142.0536 Y-91.9408 F120.00
G01 X142.0574 Y-91.9443 F120.00
G01 X142.0609 Y-91.9469 F120.00
G01 X142.0647 Y-91.9491 F120.00
G01 X142.0729 Y-91.9525 F120.00
G01 X142.0771 Y-91.9536 F120.00
G01 X142.0859 Y-91.9545 F120.00
G01 X142.0947 Y-91.9536 F120.00
G01 X142.0990 Y-91.9525 F120.00
G01 X142.1071 Y-91.9491 F120.00
G01 X142.1109 Y-91.9469 F120.00
G01 X142.1183 Y-91.9408 F120.00
G01 X143.0541 Y-91.0049 F120.00
G01 X143.0576 Y-91.0011 F120.00
G01 X143.0602 Y-90.9976 F120.00
G01 X143.0625 Y-90.9938 F120.00
G01 X143.0659 Y-90.9856 F120.00
G01 X143.0676 Y-90.9770 F120.00
G01 X143.0676 Y-90.9682 F120.00
G01 X143.0659 Y-90.9595 F120.00
G01 X143.0625 Y-90.9514 F120.00
G01 X143.0602 Y-90.9476 F120.00
G01 X143.0541 Y-90.9402 F120.00
G01 X142.9491 Y-90.8352 F120.00
G01 X142.9417 Y-90.8291 F120.00
G01 X142.9380 Y-90.8269 F120.00
G01 X142.9298 Y-90.8235 F120.00
G01 X142.9212 Y-90.8218 F120.00
G01 X142.9124 Y-90.8218 F120.00
G01 X142.9037 Y-90.8235 F120.00
G01 X142.8996 Y-90.8250 F120.00
G01 X142.8956 Y-90.8269 F120.00
G01 X142.8882 Y-90.8318 F120.00
G01 X142.8844 Y-90.8352 F120.00
G01 X142.8996 Y-90.8249 F120.00
G01 X142.8996 Y-91.1594 F120.00
G01 X142.8594 Y-91.1996 F120.00
G01 X142.8594 Y-90.8602 F120.00
G01 X142.8192 Y-90.9004 F120.00
G01 X142.8192 Y-91.2398 F120.00
G01 X142.7790 Y-91.2800 F120.00
G01 X142.7790 Y-90.9406 F120.00
G01 X142.7388 Y-90.9808 F120.00
G01 X142.7388 Y-91.3202 F120.00
G01 X142.6986 Y-91.3604 F120.00
G01 X142.6986 Y-91.0210 F120.00
G01 X142.6584 Y-91.0612 F120.00
G01 X142.6584 Y-91.4006 F120.00
G01 X142.6182 Y-91.4408 F120.00
G01 X142.6182 Y-91.1014 F120.00
G01 X142.5780 Y-91.1416 F120.00
G01 X142.5780 Y-91.4810 F120.00
G01 X142.5378 Y-91.5212 F120.00
G01 X142.5378 Y-91.1818 F120.00
G01 X142.4976 Y-91.2220 F120.00
G01 X142.4976 Y-91.5614 F120.00
G01 X142.4574 Y-91.6016 F120.00
G01 X142.4574 Y-91.2622 F120.00
G01 X142.4172 Y-91.3024 F120.00
G01 X142.4172 Y-91.6418 F120.00
G01 X142.3770 Y-91.6820 F120.00
G01 X142.3770 Y-91.3426 F120.00
G01 X142.3368 Y-91.3828 F120.00
G01 X142.3368 Y-91.7222 F120.00
G01 X142.2966 Y-91.7624 F120.00
G01 X142.2966 Y-91.4230 F120.00
G01 X142.2564 Y-91.4632 F120.00
G01 X142.2564 Y-91.8026 F120.00
G01 X142.2162 Y-91.8428 F120.00
G01 X142.2162 Y-91.5034 F120.00
G01 X142.1760 Y-91.5436 F120.00
G01 X142.1760 Y-91.8830 F120.00
G01 X142.1358 Y-91.9232 F120.00
G01 X142.1358 Y-91.5838 F120.00
G01 X142.0956 Y-91.6240 F120.00
G01 X142.0956 Y-91.9534 F120.00
G01 X142.0554 Y-91.9425 F120.00
G01 X142.0554 Y-91.6642 F120.00
G01 X142.0152 Y-91.7044 F120.00
G01 X142.0152 Y-91.9025 F120.00
G01 X141.9750 Y-91.8623 F120.00
G01 X141.9750 Y-91.7446 F120.00
M5
G00 X143.4140 Y-91.3015
G01 F60.00
M03 S5000.0
G01 F120.00
G01 X143.4140 Y-91.3507 F120.00
G01 X143.3738 Y-91.3924 F120.00
G01 X143.3738 Y-91.2599 F120.00
G01 X143.3336 Y-91.2197 F120.00
G01 X143.3336 Y-91.4326 F120.00
G01 X143.2934 Y-91.4728 F120.00
G01 X143.2934 Y-91.1815 F120.00
G01 X143.2380 Y-91.1888 F120.00
G01 X142.3021 Y-92.1246 F120.00
G01 X142.2960 Y-92.1320 F120.00
G01 X142.2919 Y-92.1398 F120.00
G01 X142.2893 Y-92.1482 F120.00
G01 X142.2884 Y-92.1570 F120.00
G01 X142.2893 Y-92.1658 F120.00
G01 X142.2919 Y-92.1742 F120.00
G01 X142.2960 Y-92.1820 F120.00
G01 X142.3021 Y-92.1893 F120.00
G01 X142.4071 Y-92.2943 F120.00
G01 X142.4109 Y-92.2978 F120.00
G01 X142.4145 Y-92.3004 F120.00
G01 X142.4183 Y-92.3027 F120.00
G01 X142.4264 Y-92.3061 F120.00
G01 X142.4307 Y-92.3071 F120.00
G01 X142.4395 Y-92.3080 F120.00
G01 X142.4482 Y-92.3071 F120.00
G01 X142.4525 Y-92.3061 F120.00
G01 X142.4607 Y-92.3027 F120.00
G01 X142.4644 Y-92.3004 F120.00
G01 X142.4718 Y-92.2943 F120.00
G01 X143.4077 Y-91.3585 F120.00
G01 X143.4111 Y-91.3547 F120.00
G01 X143.4138 Y-91.3511 F120.00
G01 X143.4160 Y-91.3473 F120.00
G01 X143.4194 Y-91.3392 F120.00
G01 X143.4211 Y-91.3305 F120.00
G01 X143.4211 Y-91.3217 F120.00
G01 X143.4194 Y-91.3131 F120.00
G01 X143.4160 Y-91.3049 F120.00
G01 X143.4138 Y-91.3012 F120.00
G01 X143.4077 Y-91.2938 F120.00
G01 X143.3027 Y-91.1888 F120.00
G01 X143.2953 Y-91.1827 F120.00
G01 X143.2915 Y-91.1804 F120.00
G01 X143.2834 Y-91.1770 F120.00
G01 X143.2747 Y-91.1753 F120.00
G01 X143.2659 Y-91.1753 F120.00
G01 X143.2573 Y-91.1770 F120.00
G01 X143.2531 Y-91.1785 F120.00
G01 X143.2491 Y-91.1804 F120.00
G01 X143.2418 Y-91.1853 F120.00
G01 X143.2380 Y-91.1888 F120.00
G01 X143.2532 Y-91.1785 F120.00
G01 X143.2532 Y-91.5130 F120.00
G01 X143.2130 Y-91.5532 F120.00
G01 X143.2130 Y-91.2137 F120.00
G01 X143.1728 Y-91.2539 F120.00
G01 X143.1728 Y-91.5934 F120.00
G01 X143.1326 Y-91.6336 F120.00
G01 X143.1326 Y-91.2941 F120.00
G01 X143.0924 Y-91.3343 F120.00
G01 X143.0924 Y-91.6738 F120.00
G01 X143.0522 Y-91.7140 F120.00
G01 X143.0522 Y-91.3745 F120.00
G01 X143.0120 Y-91.4147 F120.00
G01 X143.0120 Y-91.7542 F120.00
G01 X142.9718 Y-91.7944 F120.00
G01 X142.9718 Y-91.4549 F120.00
G01 X142.9316 Y-91.4951 F120.00
G01 X142.9316 Y-91.8346 F120.00
G01 X142.8914 Y-91.8748 F120.00
G01 X142.8914 Y-91.5353 F120.00
G01 X142.8512 Y-91.5755 F120.00
G01 X142.8512 Y-91.9150 F120.00
G01 X142.8110 Y-91.9552 F120.00
G01 X142.8110 Y-91.6157 F120.00
G01 X142.7708 Y-91.6559 F120.00
G01 X142.7708 Y-91.9954 F120.00
G01 X142.7306 Y-92.0356 F120.00
G01 X142.7306 Y-91.6961 F120.00
G01 X142.6904 Y-91.7363 F120.00
G01 X142.6904 Y-92.0758 F120.00
G01 X142.6502 Y-92.1160 F120.00
G01 X142.6502 Y-91.7765 F120.00
G01 X142.6100 Y-91.8167 F120.00
G01 X142.6100 Y-92.1562 F120.00
G01 X142.5698 Y-92.1964 F120.00
G01 X142.5698 Y-91.8569 F120.00
G01 X142.5296 Y-91.8971 F120.00
G01 X142.5296 Y-92.2366 F120.00
G01 X142.4894 Y-92.2768 F120.00
G01 X142.4894 Y-91.9373 F120.00
G01 X142.4492 Y-91.9775 F120.00
G01 X142.4492 Y-92.3069 F120.00
G01 X142.4090 Y-92.2960 F120.00
G01 X142.4090 Y-92.0177 F120.00
G01 X142.3688 Y-92.0579 F120.00
G01 X142.3688 Y-92.2560 F120.00
G01 X142.3286 Y-92.2158 F120.00
G01 X142.3286 Y-92.0981 F120.00
M5
G00 X143.7676 Y-91.6551
G01 F60.00
M03 S5000.0
G01 F120.00
G01 X143.7676 Y-91.7043 F120.00
G01 X143.7274 Y-91.7459 F120.00
G01 X143.7274 Y-91.6135 F120.00
G01 X143.6872 Y-91.5733 F120.00
G01 X143.6872 Y-91.7861 F120.00
G01 X143.6470 Y-91.8263 F120.00
G01 X143.6470 Y-91.5351 F120.00
G01 X143.5915 Y-91.5423 F120.00
G01 X142.6557 Y-92.4782 F120.00
G01 X142.6496 Y-92.4856 F120.00
G01 X142.6454 Y-92.4933 F120.00
G01 X142.6429 Y-92.5018 F120.00
G01 X142.6420 Y-92.5105 F120.00
G01 X142.6429 Y-92.5193 F120.00
G01 X142.6454 Y-92.5277 F120.00
G01 X142.6496 Y-92.5355 F120.00
G01 X142.6557 Y-92.5429 F120.00
G01 X142.7607 Y-92.6479 F120.00
G01 X142.7645 Y-92.6514 F120.00
G01 X142.7680 Y-92.6540 F120.00
G01 X142.7718 Y-92.6563 F120.00
G01 X142.7800 Y-92.6596 F120.00
G01 X142.7842 Y-92.6607 F120.00
G01 X142.7930 Y-92.6616 F120.00
G01 X142.8018 Y-92.6607 F120.00
G01 X142.8061 Y-92.6596 F120.00
G01 X142.8142 Y-92.6563 F120.00
G01 X142.8180 Y-92.6540 F120.00
G01 X142.8254 Y-92.6479 F120.00
G01 X143.7612 Y-91.7120 F120.00
G01 X143.7647 Y-91.7082 F120.00
G01 X143.7673 Y-91.7047 F120.00
G01 X143.7696 Y-91.7009 F120.00
G01 X143.7730 Y-91.6927 F120.00
G01 X143.7747 Y-91.6841 F120.00
G01 X143.7747 Y-91.6753 F120.00
G01 X143.7730 Y-91.6666 F120.00
G01 X143.7696 Y-91.6585 F120.00
G01 X143.7673 Y-91.6547 F120.00
G01 X143.7612 Y-91.6473 F120.00
G01 X143.6562 Y-91.5423 F120.00
G01 X143.6488 Y-91.5362 F120.00
G01 X143.6451 Y-91.5340 F120.00
G01 X143.6369 Y-91.5306 F120.00
G01 X143.6283 Y-91.5289 F120.00
G01 X143.6195 Y-91.5289 F120.00
G01 X143.6108 Y-91.5306 F120.00
G01 X143.6067 Y-91.5321 F120.00
G01 X143.6027 Y-91.5340 F120.00
G01 X143.5953 Y-91.5389 F120.00
G01 X143.5915 Y-91.5423 F120.00
G01 X143.6068 Y-91.5320 F120.00
G01 X143.6068 Y-91.8665 F120.00
G01 X143.5666 Y-91.9067 F120.00
G01 X143.5666 Y-91.5673 F120.00
G01 X143.5264 Y-91.6075 F120.00
G01 X143.5264 Y-91.9469 F120.00
G01 X143.4862 Y-91.9871 F120.00
G01 X143.4862 Y-91.6477 F120.00
G01 X143.4460 Y-91.6879 F120.00
G01 X143.4460 Y-92.0273 F120.00
G01 X143.4058 Y-92.0675 F120.00
G01 X143.4058 Y-91.7281 F120.00
G01 X143.3656 Y-91.7683 F120.00
G01 X143.3656 Y-92.1077 F120.00
G01 X143.3254 Y-92.1479 F120.00
G01 X143.3254 Y-91.8085 F120.00
G01 X143.2852 Y-91.8487 F120.00
G01 X143.2852 Y-92.1881 F120.00
G01 X143.2450 Y-92.2283 F120.00
G01 X143.2450 Y-91.8889 F120.00
G01 X143.2048 Y-91.9291 F120.00
G01 X143.2048 Y-92.2685 F120.00
G01 X143.1646 Y-92.3087 F120.00
G01 X143.1646 Y-91.9693 F120.00
G01 X143.1244 Y-92.0095 F120.00
G01 X143.1244 Y-92.3489 F120.00
G01 X143.0842 Y-92.3891 F120.00
G01 X143.0842 Y-92.0497 F120.00
G01 X143.0440 Y-92.0899 F120.00
G01 X143.0440 Y-92.4293 F120.00
G01 X143.0038 Y-92.4695 F120.00
G01 X143.0038 Y-92.1301 F120.00
G01 X142.9636 Y-92.1703 F120.00
G01 X142.9636 Y-92.5097 F120.00
G01 X142.9234 Y-92.5499 F120.00
G01 X142.9234 Y-92.2105 F120.00
G01 X142.8832 Y-92.2507 F120.00
G01 X142.8832 Y-92.5901 F120.00
G01 X142.8430 Y-92.6303 F120.00
G01 X142.8430 Y-92.2909 F120.00
G01 X142.8028 Y-92.3311 F120.00
G01 X142.8028 Y-92.6605 F120.00
G01 X142.7626 Y-92.6496 F120.00
G01 X142.7626 Y-92.3713 F120.00
G01 X142.7224 Y-92.4115 F120.00
G01 X142.7224 Y-92.6096 F120.00
G01 X142.6822 Y-92.5694 F120.00
G01 X142.6822 Y-92.4517 F120.00
M5
G00 X144.1211 Y-92.0086
G01 F60.00
M03 S5000.0
G01 F120.00
G01 X144.1211 Y-92.0578 F120.00
G01 X144.0809 Y-92.0995 F120.00
G01 X144.0809 Y-91.9670 F120.00
G01 X144.0407 Y-91.9268 F120.00
G01 X144.0407 Y-92.1397 F120.00
G01 X144.0005 Y-92.1799 F120.00
G01 X144.0005 Y-91.8886 F120.00
G01 X143.9451 Y-91.8959 F120.00
G01 X143.0092 Y-92.8317 F120.00
G01 X143.0031 Y-92.8391 F120.00
G01 X142.9990 Y-92.8469 F120.00
G01 X142.9964 Y-92.8553 F120.00
G01 X142.9955 Y-92.8641 F120.00
G01 X142.9964 Y-92.8729 F120.00
G01 X142.9990 Y-92.8813 F120.00
G01 X143.0031 Y-92.8891 F120.00
G01 X143.0092 Y-92.8964 F120.00
G01 X143.1142 Y-93.0015 F120.00
G01 X143.1180 Y-93.0049 F120.00
G01 X143.1216 Y-93.0075 F120.00
G01 X143.1254 Y-93.0098 F120.00
G01 X143.1335 Y-93.0132 F120.00
G01 X143.1378 Y-93.0143 F120.00
G01 X143.1466 Y-93.0151 F120.00
G01 X143.1553 Y-93.0143 F120.00
G01 X143.1596 Y-93.0132 F120.00
G01 X143.1678 Y-93.0098 F120.00
G01 X143.1716 Y-93.0075 F120.00
G01 X143.1789 Y-93.0015 F120.00
G01 X144.1148 Y-92.0656 F120.00
G01 X144.1182 Y-92.0618 F120.00
G01 X144.1209 Y-92.0582 F120.00
G01 X144.1231 Y-92.0544 F120.00
G01 X144.1265 Y-92.0463 F120.00
G01 X144.1282 Y-92.0376 F120.00
G01 X144.1282 Y-92.0288 F120.00
G01 X144.1265 Y-92.0202 F120.00
G01 X144.1231 Y-92.0120 F120.00
G01 X144.1209 Y-92.0083 F120.00
G01 X144.1148 Y-92.0009 F120.00
G01 X144.0098 Y-91.8959 F120.00
G01 X144.0024 Y-91.8898 F120.00
G01 X143.9986 Y-91.8875 F120.00
G01 X143.9905 Y-91.8841 F120.00
G01 X143.9818 Y-91.8824 F120.00
G01 X143.9730 Y-91.8824 F120.00
G01 X143.9644 Y-91.8841 F120.00
G01 X143.9602 Y-91.8856 F120.00
G01 X143.9562 Y-91.8875 F120.00
G01 X143.9489 Y-91.8924 F120.00
G01 X143.9451 Y-91.8959 F120.00
G01 X143.9603 Y-91.8856 F120.00
G01 X143.9603 Y-92.2201 F120.00
G01 X143.9201 Y-92.2603 F120.00
G01 X143.9201 Y-91.9208 F120.00
G01 X143.8799 Y-91.9610 F120.00
G01 X143.8799 Y-92.3005 F120.00
G01 X143.8397 Y-92.3407 F120.00
G01 X143.8397 Y-92.0012 F120.00
G01 X143.7995 Y-92.0414 F120.00
G01 X143.7995 Y-92.3809 F120.00
G01 X143.7593 Y-92.4211 F120.00
G01 X143.7593 Y-92.0816 F120.00
G01 X143.7191 Y-92.1218 F120.00
G01 X143.7191 Y-92.4613 F120.00
G01 X143.6789 Y-92.5015 F120.00
G01 X143.6789 Y-92.1620 F120.00
G01 X143.6387 Y-92.2022 F120.00
G01 X143.6387 Y-92.5417 F120.00
G01 X143.5985 Y-92.5819 F120.00
G01 X143.5985 Y-92.2424 F120.00
G01 X143.5583 Y-92.2826 F120.00
G01 X143.5583 Y-92.6221 F120.00
G01 X143.5181 Y-92.6623 F120.00
G01 X143.5181 Y-92.3228 F120.00
G01 X143.4779 Y-92.3630 F120.00
G01 X143.4779 Y-92.7025 F120.00
G01 X143.4377 Y-92.7427 F120.00
G01 X143.4377 Y-92.4032 F120.00
G01 X143.3975 Y-92.4434 F120.00
G01 X143.3975 Y-92.7829 F120.00
G01 X143.3573 Y-92.8231 F120.00
G01 X143.3573 Y-92.4836 F120.00
G01 X143.3171 Y-92.5238 F120.00
G01 X143.3171 Y-92.8633 F120.00
G01 X143.2769 Y-92.9035 F120.00
G01 X143.2769 Y-92.5640 F120.00
G01 X143.2367 Y-92.6042 F120.00
G01 X143.2367 Y-92.9437 F120.00
G01 X143.1965 Y-92.9839 F120.00
G01 X143.1965 Y-92.6444 F120.00
G01 X143.1563 Y-92.6846 F120.00
G01 X143.1563 Y-93.0140 F120.00
G01 X143.1161 Y-93.0032 F120.00
G01 X143.1161 Y-92.7248 F120.00
G01 X143.0759 Y-92.7650 F120.00
G01 X143.0759 Y-92.9631 F120.00
G01 X143.0357 Y-92.9229 F120.00
G01 X143.0357 Y-92.8052 F120.00
M5
G00 X144.4747 Y-92.3622
G01 F60.00
M03 S5000.0
G01 F120.00
G01 X144.4747 Y-92.4114 F120.00
G01 X144.4345 Y-92.4530 F120.00
G01 X144.4345 Y-92.3206 F120.00
G01 X144.3943 Y-92.2804 F120.00
G01 X144.3943 Y-92.4932 F120.00
G01 X144.3541 Y-92.5334 F120.00
G01 X144.3541 Y-92.2422 F120.00
G01 X144.2986 Y-92.2494 F120.00
G01 X143.3628 Y-93.1853 F120.00
G01 X143.3567 Y-93.1927 F120.00
G01 X143.3525 Y-93.2004 F120.00
G01 X143.3500 Y-93.2089 F120.00
G01 X143.3491 Y-93.2176 F120.00
G01 X143.3500 Y-93.2264 F120.00
G01 X143.3525 Y-93.2348 F120.00
G01 X143.3567 Y-93.2426 F120.00
G01 X143.3628 Y-93.2500 F120.00
G01 X143.4678 Y-93.3550 F120.00
G01 X143.4716 Y-93.3585 F120.00
G01 X143.4751 Y-93.3611 F120.00
G01 X143.4789 Y-93.3634 F120.00
G01 X143.4871 Y-93.3667 F120.00
G01 X143.4914 Y-93.3678 F120.00
G01 X143.5001 Y-93.3687 F120.00
G01 X143.5089 Y-93.3678 F120.00
G01 X143.5132 Y-93.3667 F120.00
G01 X143.5213 Y-93.3634 F120.00
G01 X143.5251 Y-93.3611 F120.00
G01 X143.5325 Y-93.3550 F120.00
G01 X144.4683 Y-92.4191 F120.00
G01 X144.4718 Y-92.4153 F120.00
G01 X144.4744 Y-92.4118 F120.00
G01 X144.4767 Y-92.4080 F120.00
G01 X144.4801 Y-92.3998 F120.00
G01 X144.4818 Y-92.3912 F120.00
G01 X144.4818 Y-92.3824 F120.00
G01 X144.4801 Y-92.3737 F120.00
G01 X144.4767 Y-92.3656 F120.00
G01 X144.4744 Y-92.3618 F120.00
G01 X144.4683 Y-92.3544 F120.00
G01 X144.3633 Y-92.2494 F120.00
G01 X144.3560 Y-92.2433 F120.00
G01 X144.3522 Y-92.2411 F120.00
G01 X144.3440 Y-92.2377 F120.00
G01 X144.3354 Y-92.2360 F120.00
G01 X144.3266 Y-92.2360 F120.00
G01 X144.3179 Y-92.2377 F120.00
G01 X144.3138 Y-92.2392 F120.00
G01 X144.3098 Y-92.2411 F120.00
G01 X144.3025 Y-92.2460 F120.00
G01 X144.2986 Y-92.2494 F120.00
G01 X144.3139 Y-92.2391 F120.00
G01 X144.3139 Y-92.5736 F120.00
G01 X144.2737 Y-92.6138 F120.00
G01 X144.2737 Y-92.2744 F120.00
G01 X144.2335 Y-92.3146 F120.00
G01 X144.2335 Y-92.6540 F120.00
G01 X144.1933 Y-92.6942 F120.00
G01 X144.1933 Y-92.3548 F120.00
G01 X144.1531 Y-92.3950 F120.00
G01 X144.1531 Y-92.7344 F120.00
G01 X144.1129 Y-92.7746 F120.00
G01 X144.1129 Y-92.4352 F120.00
G01 X144.0727 Y-92.4754 F120.00
G01 X144.0727 Y-92.8148 F120.00
G01 X144.0325 Y-92.8550 F120.00
G01 X144.0325 Y-92.5156 F120.00
G01 X143.9923 Y-92.5558 F120.00
G01 X143.9923 Y-92.8952 F120.00
G01 X143.9521 Y-92.9354 F120.00
G01 X143.9521 Y-92.5960 F120.00
G01 X143.9119 Y-92.6362 F120.00
G01 X143.9119 Y-92.9756 F120.00
G01 X143.8717 Y-93.0158 F120.00
G01 X143.8717 Y-92.6764 F120.00
G01 X143.8315 Y-92.7166 F120.00
G01 X143.8315 Y-93.0560 F120.00
G01 X143.7913 Y-93.0962 F120.00
G01 X143.7913 Y-92.7568 F120.00
G01 X143.7511 Y-92.7970 F120.00
G01 X143.7511 Y-93.1364 F120.00
G01 X143.7109 Y-93.1766 F120.00
G01 X143.7109 Y-92.8372 F120.00
G01 X143.6707 Y-92.8774 F120.00
G01 X143.6707 Y-93.2168 F120.00
G01 X143.6305 Y-93.2570 F120.00
G01 X143.6305 Y-92.9176 F120.00
G01 X143.5903 Y-92.9578 F120.00
G01 X143.5903 Y-93.2972 F120.00
G01 X143.5501 Y-93.3374 F120.00
