(G-CODE GENERATED BY FLATCAM v8.994 - www.flatcam.org - Version Date: 2020/11/7)

(Name: Combo_Gerber_iso_combined_cnc)
(Type: G-code from Geometry)
(Units: MM)

(Created on Thursday, 22 May 2025 at 15:47)

(This preprocessor is used with a motion controller loaded with GRBL firmware. )
(It is for the case when it is used together with a LASER connected on the SPINDLE connector.)

(Feedrate: 120.0 mm/min)
(Feedrate rapids: 1500.0 mm/min)

(Z Focus: 2.0 mm)
(Steps per circle: 64)
(Preprocessor Geometry: GRBL_laser)

(X range:  128.4202 ...  178.2050  mm)
(Y range: -118.6798 ...  -74.4202  mm)

(Laser Power - Spindle Speed: 5000.0)

G21
G90
G17
G94

G01 F120.00

M5
G01 F120.00
G00 X130.9884 Y-78.8380
G01 F60.00
M03 S5000.0
G01 F120.00
G01 X131.0082 Y-78.8451 F120.00
G01 X131.0301 Y-78.8506 F120.00
G01 X131.0525 Y-78.8539 F120.00
G01 X131.0750 Y-78.8550 F120.00
G01 X133.1257 Y-78.8550 F120.00
G01 X133.1475 Y-78.8539 F120.00
G01 X133.1699 Y-78.8506 F120.00
G01 X133.1918 Y-78.8451 F120.00
G01 X133.2116 Y-78.8380 F120.00
G01 X133.2347 Y-78.8271 F120.00
G01 X133.2528 Y-78.8162 F120.00
G01 X133.2709 Y-78.8028 F120.00
G01 X133.2876 Y-78.7876 F120.00
G01 X133.3028 Y-78.7709 F120.00
G01 X133.3162 Y-78.7528 F120.00
G01 X133.3285 Y-78.7321 F120.00
G01 X133.3380 Y-78.7116 F120.00
G01 X133.3451 Y-78.6918 F120.00
G01 X133.3503 Y-78.6713 F120.00
G01 X133.3539 Y-78.6475 F120.00
G01 X133.3550 Y-78.6257 F120.00
G01 X133.3550 Y-77.1243 F120.00
G01 X133.3539 Y-77.1025 F120.00
G01 X133.3506 Y-77.0801 F120.00
G01 X133.3451 Y-77.0582 F120.00
G01 X133.3380 Y-77.0384 F120.00
G01 X133.3271 Y-77.0153 F120.00
G01 X133.3162 Y-76.9972 F120.00
G01 X133.3028 Y-76.9791 F120.00
G01 X133.2876 Y-76.9624 F120.00
G01 X133.2709 Y-76.9472 F120.00
G01 X133.2528 Y-76.9338 F120.00
G01 X133.2321 Y-76.9215 F120.00
G01 X133.2116 Y-76.9120 F120.00
G01 X133.1918 Y-76.9049 F120.00
G01 X133.1713 Y-76.8997 F120.00
G01 X133.1475 Y-76.8961 F120.00
G01 X133.1257 Y-76.8950 F120.00
G01 X131.0743 Y-76.8950 F120.00
G01 X131.0525 Y-76.8961 F120.00
G01 X131.0301 Y-76.8994 F120.00
G01 X131.0082 Y-76.9049 F120.00
G01 X130.9884 Y-76.9120 F120.00
G01 X130.9653 Y-76.9229 F120.00
G01 X130.9472 Y-76.9338 F120.00
G01 X130.9291 Y-76.9472 F120.00
G01 X130.9124 Y-76.9624 F120.00
G01 X130.8972 Y-76.9791 F120.00
G01 X130.8838 Y-76.9972 F120.00
G01 X130.8722 Y-77.0166 F120.00
G01 X130.8625 Y-77.0370 F120.00
G01 X130.8549 Y-77.0582 F120.00
G01 X130.8494 Y-77.0801 F120.00
G01 X130.8460 Y-77.1039 F120.00
G01 X130.8450 Y-77.1250 F120.00
G01 X130.8450 Y-78.6257 F120.00
G01 X130.8461 Y-78.6475 F120.00
G01 X130.8492 Y-78.6684 F120.00
G01 X130.8549 Y-78.6918 F120.00
G01 X130.8631 Y-78.7144 F120.00
G01 X130.8722 Y-78.7334 F120.00
G01 X130.8838 Y-78.7528 F120.00
G01 X130.8972 Y-78.7709 F120.00
G01 X130.9114 Y-78.7866 F120.00
G01 X130.9291 Y-78.8028 F120.00
G01 X130.9472 Y-78.8162 F120.00
G01 X130.9653 Y-78.8271 F120.00
G01 X130.9884 Y-78.8380 F120.00
M5
G00 X132.0411 Y-79.8187
G01 F60.00
M03 S5000.0
G01 F120.00
G01 X132.0184 Y-79.8268 F120.00
G01 X131.9996 Y-79.8346 F120.00
G01 X131.9772 Y-79.8451 F120.00
G01 X131.9579 Y-79.8554 F120.00
G01 X131.9361 Y-79.8685 F120.00
G01 X131.9191 Y-79.8799 F120.00
G01 X131.8998 Y-79.8942 F120.00
G01 X131.8829 Y-79.9080 F120.00
G01 X131.8640 Y-79.9252 F120.00
G01 X131.8496 Y-79.9396 F120.00
G01 X131.8335 Y-79.9574 F120.00
G01 X131.8196 Y-79.9742 F120.00
G01 X131.8044 Y-79.9947 F120.00
G01 X131.7931 Y-80.0117 F120.00
G01 X131.7808 Y-80.0323 F120.00
G01 X131.7704 Y-80.0515 F120.00
G01 X131.7596 Y-80.0746 F120.00
G01 X131.7518 Y-80.0934 F120.00
G01 X131.7437 Y-80.1161 F120.00
G01 X131.7373 Y-80.1370 F120.00
G01 X131.7311 Y-80.1617 F120.00
G01 X131.7272 Y-80.1817 F120.00
G01 X131.7235 Y-80.2069 F120.00
G01 X131.7215 Y-80.2272 F120.00
G01 X131.7200 Y-80.2621 F120.00
G01 X131.7200 Y-80.8625 F120.00
G01 X131.7214 Y-80.8971 F120.00
G01 X131.7235 Y-80.9188 F120.00
G01 X131.7272 Y-80.9433 F120.00
G01 X131.7313 Y-80.9640 F120.00
G01 X131.7375 Y-80.9887 F120.00
G01 X131.7434 Y-81.0082 F120.00
G01 X131.7515 Y-81.0309 F120.00
G01 X131.7596 Y-81.0504 F120.00
G01 X131.7704 Y-81.0735 F120.00
G01 X131.7808 Y-81.0927 F120.00
G01 X131.7931 Y-81.1133 F120.00
G01 X131.8044 Y-81.1303 F120.00
G01 X131.8192 Y-81.1502 F120.00
G01 X131.8330 Y-81.1671 F120.00
G01 X131.8491 Y-81.1849 F120.00
G01 X131.8646 Y-81.2004 F120.00
G01 X131.8829 Y-81.2170 F120.00
G01 X131.8992 Y-81.2304 F120.00
G01 X131.9191 Y-81.2451 F120.00
G01 X131.9367 Y-81.2569 F120.00
G01 X131.9586 Y-81.2700 F120.00
G01 X131.9772 Y-81.2799 F120.00
G01 X131.9989 Y-81.2901 F120.00
G01 X132.0178 Y-81.2979 F120.00
G01 X132.0418 Y-81.3066 F120.00
G01 X132.0620 Y-81.3127 F120.00
G01 X132.0860 Y-81.3187 F120.00
G01 X132.1074 Y-81.3229 F120.00
G01 X132.1312 Y-81.3265 F120.00
G01 X132.1515 Y-81.3285 F120.00
G01 X132.1871 Y-81.3300 F120.00
G01 X132.6625 Y-81.3300 F120.00
G01 X132.6978 Y-81.3285 F120.00
G01 X132.7188 Y-81.3265 F120.00
G01 X132.7440 Y-81.3227 F120.00
G01 X132.7640 Y-81.3187 F120.00
G01 X132.7873 Y-81.3129 F120.00
G01 X132.8075 Y-81.3068 F120.00
G01 X132.8316 Y-81.2982 F120.00
G01 X132.8511 Y-81.2901 F120.00
G01 X132.8735 Y-81.2796 F120.00
G01 X132.8927 Y-81.2692 F120.00
G01 X132.9133 Y-81.2569 F120.00
G01 X132.9315 Y-81.2447 F120.00
G01 X132.9508 Y-81.2304 F120.00
G01 X132.9665 Y-81.2175 F120.00
G01 X132.9849 Y-81.2009 F120.00
G01 X133.0004 Y-81.1854 F120.00
G01 X133.0170 Y-81.1671 F120.00
G01 X133.0304 Y-81.1508 F120.00
G01 X133.0456 Y-81.1303 F120.00
G01 X133.0573 Y-81.1127 F120.00
G01 X133.0696 Y-81.0921 F120.00
G01 X133.0792 Y-81.0741 F120.00
G01 X133.0901 Y-81.0511 F120.00
G01 X133.0982 Y-81.0316 F120.00
G01 X133.1066 Y-81.0082 F120.00
G01 X133.1129 Y-80.9873 F120.00
G01 X133.1187 Y-80.9640 F120.00
G01 X133.1227 Y-80.9440 F120.00
G01 X133.1264 Y-80.9195 F120.00
G01 X133.1285 Y-80.8978 F120.00
G01 X133.1300 Y-80.8625 F120.00
G01 X133.1300 Y-80.2625 F120.00
G01 X133.1285 Y-80.2272 F120.00
G01 X133.1265 Y-80.2062 F120.00
G01 X133.1227 Y-80.1810 F120.00
G01 X133.1185 Y-80.1603 F120.00
G01 X133.1127 Y-80.1370 F120.00
G01 X133.1068 Y-80.1175 F120.00
G01 X133.0982 Y-80.0934 F120.00
G01 X133.0901 Y-80.0739 F120.00
G01 X133.0796 Y-80.0515 F120.00
G01 X133.0692 Y-80.0323 F120.00
G01 X133.0569 Y-80.0117 F120.00
G01 X133.0456 Y-79.9947 F120.00
G01 X133.0308 Y-79.9748 F120.00
G01 X133.0170 Y-79.9579 F120.00
G01 X133.0009 Y-79.9401 F120.00
G01 X132.9854 Y-79.9246 F120.00
G01 X132.9671 Y-79.9080 F120.00
G01 X132.9508 Y-79.8946 F120.00
G01 X132.9315 Y-79.8803 F120.00
G01 X132.9133 Y-79.8681 F120.00
G01 X132.8921 Y-79.8554 F120.00
G01 X132.8735 Y-79.8454 F120.00
G01 X132.8511 Y-79.8349 F120.00
G01 X132.8316 Y-79.8268 F120.00
G01 X132.8082 Y-79.8184 F120.00
G01 X132.7880 Y-79.8123 F120.00
G01 X132.7633 Y-79.8061 F120.00
G01 X132.7433 Y-79.8022 F120.00
G01 X132.7188 Y-79.7985 F120.00
G01 X132.6978 Y-79.7965 F120.00
G01 X132.6632 Y-79.7950 F120.00
G01 X132.1871 Y-79.7950 F120.00
G01 X132.1515 Y-79.7965 F120.00
G01 X132.1312 Y-79.7985 F120.00
G01 X132.1067 Y-79.8022 F120.00
G01 X132.0860 Y-79.8063 F120.00
G01 X132.0627 Y-79.8121 F120.00
G01 X132.0411 Y-79.8187 F120.00
M5
G00 X132.0411 Y-81.5437
G01 F60.00
M03 S5000.0
G01 F120.00
G01 X132.0184 Y-81.5518 F120.00
G01 X131.9996 Y-81.5596 F120.00
G01 X131.9772 Y-81.5701 F120.00
G01 X131.9579 Y-81.5804 F120.00
G01 X131.9361 Y-81.5935 F120.00
G01 X131.9191 Y-81.6049 F120.00
G01 X131.8998 Y-81.6192 F120.00
G01 X131.8829 Y-81.6330 F120.00
G01 X131.8640 Y-81.6502 F120.00
G01 X131.8496 Y-81.6646 F120.00
G01 X131.8335 Y-81.6824 F120.00
G01 X131.8196 Y-81.6992 F120.00
G01 X131.8044 Y-81.7197 F120.00
G01 X131.7931 Y-81.7367 F120.00
G01 X131.7808 Y-81.7573 F120.00
G01 X131.7704 Y-81.7765 F120.00
G01 X131.7596 Y-81.7996 F120.00
G01 X131.7518 Y-81.8184 F120.00
G01 X131.7437 Y-81.8411 F120.00
G01 X131.7373 Y-81.8620 F120.00
G01 X131.7311 Y-81.8867 F120.00
G01 X131.7272 Y-81.9067 F120.00
G01 X131.7235 Y-81.9319 F120.00
G01 X131.7215 Y-81.9522 F120.00
G01 X131.7200 Y-81.9871 F120.00
G01 X131.7200 Y-82.5875 F120.00
G01 X131.7214 Y-82.6221 F120.00
G01 X131.7235 Y-82.6438 F120.00
G01 X131.7272 Y-82.6683 F120.00
G01 X131.7313 Y-82.6890 F120.00
G01 X131.7375 Y-82.7137 F120.00
G01 X131.7434 Y-82.7332 F120.00
G01 X131.7515 Y-82.7559 F120.00
G01 X131.7596 Y-82.7754 F120.00
G01 X131.7704 Y-82.7985 F120.00
G01 X131.7808 Y-82.8177 F120.00
G01 X131.7931 Y-82.8383 F120.00
G01 X131.8044 Y-82.8553 F120.00
G01 X131.8192 Y-82.8752 F120.00
G01 X131.8330 Y-82.8921 F120.00
G01 X131.8491 Y-82.9099 F120.00
G01 X131.8646 Y-82.9254 F120.00
G01 X131.8829 Y-82.9420 F120.00
G01 X131.8992 Y-82.9554 F120.00
G01 X131.9191 Y-82.9701 F120.00
G01 X131.9367 Y-82.9819 F120.00
G01 X131.9586 Y-82.9950 F120.00
G01 X131.9772 Y-83.0049 F120.00
G01 X131.9989 Y-83.0151 F120.00
G01 X132.0178 Y-83.0229 F120.00
G01 X132.0418 Y-83.0316 F120.00
G01 X132.0620 Y-83.0377 F120.00
G01 X132.0860 Y-83.0437 F120.00
G01 X132.1074 Y-83.0479 F120.00
G01 X132.1312 Y-83.0515 F120.00
G01 X132.1515 Y-83.0535 F120.00
G01 X132.1871 Y-83.0550 F120.00
G01 X132.6625 Y-83.0550 F120.00
G01 X132.6978 Y-83.0535 F120.00
G01 X132.7188 Y-83.0515 F120.00
G01 X132.7440 Y-83.0477 F120.00
G01 X132.7640 Y-83.0437 F120.00
G01 X132.7873 Y-83.0379 F120.00
G01 X132.8075 Y-83.0318 F120.00
G01 X132.8316 Y-83.0232 F120.00
G01 X132.8511 Y-83.0151 F120.00
G01 X132.8735 Y-83.0046 F120.00
G01 X132.8927 Y-82.9942 F120.00
G01 X132.9133 Y-82.9819 F120.00
G01 X132.9315 Y-82.9697 F120.00
G01 X132.9508 Y-82.9554 F120.00
G01 X132.9665 Y-82.9425 F120.00
G01 X132.9849 Y-82.9259 F120.00
G01 X133.0004 Y-82.9104 F120.00
G01 X133.0170 Y-82.8921 F120.00
G01 X133.0304 Y-82.8758 F120.00
G01 X133.0456 Y-82.8553 F120.00
G01 X133.0573 Y-82.8377 F120.00
G01 X133.0696 Y-82.8171 F120.00
G01 X133.0792 Y-82.7991 F120.00
G01 X133.0901 Y-82.7761 F120.00
G01 X133.0982 Y-82.7566 F120.00
G01 X133.1066 Y-82.7332 F120.00
G01 X133.1129 Y-82.7123 F120.00
G01 X133.1187 Y-82.6890 F120.00
G01 X133.1227 Y-82.6690 F120.00
G01 X133.1264 Y-82.6445 F120.00
G01 X133.1285 Y-82.6228 F120.00
G01 X133.1300 Y-82.5875 F120.00
G01 X133.1300 Y-81.9875 F120.00
G01 X133.1285 Y-81.9522 F120.00
G01 X133.1265 Y-81.9312 F120.00
G01 X133.1227 Y-81.9060 F120.00
G01 X133.1185 Y-81.8853 F120.00
G01 X133.1127 Y-81.8620 F120.00
G01 X133.1068 Y-81.8425 F120.00
G01 X133.0982 Y-81.8184 F120.00
G01 X133.0901 Y-81.7989 F120.00
G01 X133.0796 Y-81.7765 F120.00
G01 X133.0692 Y-81.7573 F120.00
G01 X133.0569 Y-81.7367 F120.00
G01 X133.0456 Y-81.7197 F120.00
G01 X133.0308 Y-81.6998 F120.00
G01 X133.0170 Y-81.6829 F120.00
G01 X133.0009 Y-81.6651 F120.00
G01 X132.9854 Y-81.6496 F120.00
G01 X132.9671 Y-81.6330 F120.00
G01 X132.9508 Y-81.6196 F120.00
G01 X132.9315 Y-81.6053 F120.00
G01 X132.9133 Y-81.5931 F120.00
G01 X132.8921 Y-81.5804 F120.00
G01 X132.8735 Y-81.5704 F120.00
G01 X132.8511 Y-81.5599 F120.00
G01 X132.8316 Y-81.5518 F120.00
G01 X132.8082 Y-81.5434 F120.00
G01 X132.7880 Y-81.5373 F120.00
G01 X132.7633 Y-81.5311 F120.00
G01 X132.7433 Y-81.5272 F120.00
G01 X132.7188 Y-81.5235 F120.00
G01 X132.6978 Y-81.5215 F120.00
G01 X132.6632 Y-81.5200 F120.00
G01 X132.1871 Y-81.5200 F120.00
G01 X132.1515 Y-81.5215 F120.00
G01 X132.1312 Y-81.5235 F120.00
G01 X132.1067 Y-81.5272 F120.00
G01 X132.0860 Y-81.5313 F120.00
G01 X132.0627 Y-81.5371 F120.00
G01 X132.0411 Y-81.5437 F120.00
M5
G00 X134.2749 Y-81.5692
G01 F60.00
M03 S5000.0
G01 F120.00
G01 X134.2512 Y-81.5777 F120.00
G01 X134.2323 Y-81.5855 F120.00
G01 X134.2082 Y-81.5969 F120.00
G01 X134.1895 Y-81.6069 F120.00
G01 X134.1679 Y-81.6199 F120.00
G01 X134.1497 Y-81.6320 F120.00
G01 X134.1288 Y-81.6475 F120.00
G01 X134.1131 Y-81.6604 F120.00
G01 X134.0932 Y-81.6783 F120.00
G01 X134.0778 Y-81.6938 F120.00
G01 X134.0608 Y-81.7125 F120.00
G01 X134.0479 Y-81.7282 F120.00
G01 X134.0315 Y-81.7503 F120.00
G01 X134.0202 Y-81.7672 F120.00
G01 X134.0072 Y-81.7889 F120.00
G01 X133.9969 Y-81.8082 F120.00
G01 X133.9855 Y-81.8323 F120.00
G01 X133.9777 Y-81.8512 F120.00
G01 X133.9692 Y-81.8749 F120.00
G01 X133.9628 Y-81.8958 F120.00
G01 X133.9565 Y-81.9211 F120.00
G01 X133.9525 Y-81.9410 F120.00
G01 X133.9486 Y-81.9675 F120.00
G01 X133.9465 Y-81.9885 F120.00
G01 X133.9450 Y-82.0250 F120.00
G01 X133.9450 Y-82.7250 F120.00
G01 X133.9465 Y-82.7615 F120.00
G01 X133.9486 Y-82.7825 F120.00
G01 X133.9525 Y-82.8090 F120.00
G01 X133.9565 Y-82.8289 F120.00
G01 X133.9628 Y-82.8542 F120.00
G01 X133.9690 Y-82.8744 F120.00
G01 X133.9775 Y-82.8982 F120.00
G01 X133.9861 Y-82.9190 F120.00
G01 X133.9969 Y-82.9418 F120.00
G01 X134.0069 Y-82.9605 F120.00
G01 X134.0202 Y-82.9828 F120.00
G01 X134.0315 Y-82.9997 F120.00
G01 X134.0479 Y-83.0218 F120.00
G01 X134.0608 Y-83.0375 F120.00
G01 X134.0778 Y-83.0562 F120.00
G01 X134.0932 Y-83.0717 F120.00
G01 X134.1125 Y-83.0892 F120.00
G01 X134.1288 Y-83.1025 F120.00
G01 X134.1497 Y-83.1180 F120.00
G01 X134.1672 Y-83.1298 F120.00
G01 X134.1895 Y-83.1431 F120.00
G01 X134.2082 Y-83.1531 F120.00
G01 X134.2317 Y-83.1642 F120.00
G01 X134.2512 Y-83.1723 F120.00
G01 X134.2756 Y-83.1810 F120.00
G01 X134.2958 Y-83.1872 F120.00
G01 X134.3218 Y-83.1936 F120.00
G01 X134.3418 Y-83.1976 F120.00
G01 X134.3682 Y-83.2015 F120.00
G01 X134.3885 Y-83.2035 F120.00
G01 X134.4246 Y-83.2050 F120.00
G01 X135.3250 Y-83.2050 F120.00
G01 X135.3615 Y-83.2035 F120.00
G01 X135.3818 Y-83.2015 F120.00
G01 X135.4090 Y-83.1975 F120.00
G01 X135.4289 Y-83.1935 F120.00
G01 X135.4542 Y-83.1872 F120.00
G01 X135.4744 Y-83.1810 F120.00
G01 X135.4982 Y-83.1725 F120.00
G01 X135.5190 Y-83.1639 F120.00
G01 X135.5418 Y-83.1531 F120.00
G01 X135.5605 Y-83.1431 F120.00
G01 X135.5828 Y-83.1298 F120.00
G01 X135.5997 Y-83.1185 F120.00
G01 X135.6218 Y-83.1021 F120.00
G01 X135.6375 Y-83.0892 F120.00
G01 X135.6562 Y-83.0722 F120.00
G01 X135.6717 Y-83.0568 F120.00
G01 X135.6892 Y-83.0375 F120.00
G01 X135.7025 Y-83.0212 F120.00
G01 X135.7180 Y-83.0003 F120.00
G01 X135.7298 Y-82.9828 F120.00
G01 X135.7431 Y-82.9605 F120.00
G01 X135.7531 Y-82.9418 F120.00
G01 X135.7642 Y-82.9183 F120.00
G01 X135.7723 Y-82.8988 F120.00
G01 X135.7810 Y-82.8744 F120.00
G01 X135.7872 Y-82.8542 F120.00
G01 X135.7936 Y-82.8282 F120.00
G01 X135.7976 Y-82.8082 F120.00
G01 X135.8015 Y-82.7818 F120.00
G01 X135.8035 Y-82.7615 F120.00
G01 X135.8050 Y-82.7254 F120.00
G01 X135.8050 Y-82.0250 F120.00
G01 X135.8035 Y-81.9885 F120.00
G01 X135.8014 Y-81.9675 F120.00
G01 X135.7975 Y-81.9410 F120.00
G01 X135.7935 Y-81.9211 F120.00
G01 X135.7872 Y-81.8958 F120.00
G01 X135.7810 Y-81.8756 F120.00
G01 X135.7725 Y-81.8518 F120.00
G01 X135.7639 Y-81.8310 F120.00
G01 X135.7531 Y-81.8082 F120.00
G01 X135.7431 Y-81.7895 F120.00
G01 X135.7298 Y-81.7672 F120.00
G01 X135.7185 Y-81.7503 F120.00
G01 X135.7021 Y-81.7282 F120.00
G01 X135.6892 Y-81.7125 F120.00
G01 X135.6722 Y-81.6938 F120.00
G01 X135.6568 Y-81.6783 F120.00
G01 X135.6381 Y-81.6613 F120.00
G01 X135.6206 Y-81.6470 F120.00
G01 X135.6003 Y-81.6320 F120.00
G01 X135.5828 Y-81.6202 F120.00
G01 X135.5605 Y-81.6069 F120.00
G01 X135.5412 Y-81.5966 F120.00
G01 X135.5183 Y-81.5858 F120.00
G01 X135.4988 Y-81.5777 F120.00
G01 X135.4744 Y-81.5690 F120.00
G01 X135.4542 Y-81.5628 F120.00
G01 X135.4289 Y-81.5565 F120.00
G01 X135.4082 Y-81.5524 F120.00
G01 X135.3825 Y-81.5486 F120.00
G01 X135.3623 Y-81.5466 F120.00
G01 X135.3250 Y-81.5450 F120.00
G01 X134.4243 Y-81.5450 F120.00
G01 X134.3877 Y-81.5466 F120.00
G01 X134.3675 Y-81.5486 F120.00
G01 X134.3418 Y-81.5524 F120.00
G01 X134.3211 Y-81.5565 F120.00
G01 X134.2965 Y-81.5627 F120.00
G01 X134.2749 Y-81.5692 F120.00
M5
G00 X134.2749 Y-79.5692
G01 F60.00
M03 S5000.0
G01 F120.00
G01 X134.2512 Y-79.5777 F120.00
G01 X134.2323 Y-79.5855 F120.00
G01 X134.2082 Y-79.5969 F120.00
G01 X134.1895 Y-79.6069 F120.00
G01 X134.1679 Y-79.6199 F120.00
G01 X134.1497 Y-79.6320 F120.00
G01 X134.1288 Y-79.6475 F120.00
G01 X134.1131 Y-79.6604 F120.00
G01 X134.0932 Y-79.6783 F120.00
G01 X134.0778 Y-79.6938 F120.00
G01 X134.0608 Y-79.7125 F120.00
G01 X134.0479 Y-79.7282 F120.00
G01 X134.0315 Y-79.7503 F120.00
G01 X134.0202 Y-79.7672 F120.00
G01 X134.0072 Y-79.7889 F120.00
G01 X133.9969 Y-79.8082 F120.00
G01 X133.9855 Y-79.8323 F120.00
G01 X133.9777 Y-79.8512 F120.00
G01 X133.9692 Y-79.8749 F120.00
G01 X133.9628 Y-79.8958 F120.00
G01 X133.9565 Y-79.9211 F120.00
G01 X133.9525 Y-79.9410 F120.00
G01 X133.9486 Y-79.9675 F120.00
G01 X133.9465 Y-79.9885 F120.00
G01 X133.9450 Y-80.0250 F120.00
G01 X133.9450 Y-80.7250 F120.00
G01 X133.9465 Y-80.7615 F120.00
G01 X133.9486 Y-80.7825 F120.00
G01 X133.9525 Y-80.8090 F120.00
G01 X133.9565 Y-80.8289 F120.00
G01 X133.9628 Y-80.8542 F120.00
G01 X133.9690 Y-80.8744 F120.00
G01 X133.9775 Y-80.8982 F120.00
G01 X133.9861 Y-80.9190 F120.00
G01 X133.9969 Y-80.9418 F120.00
G01 X134.0069 Y-80.9605 F120.00
G01 X134.0202 Y-80.9828 F120.00
G01 X134.0315 Y-80.9997 F120.00
G01 X134.0479 Y-81.0218 F120.00
G01 X134.0608 Y-81.0375 F120.00
G01 X134.0778 Y-81.0562 F120.00
G01 X134.0932 Y-81.0717 F120.00
G01 X134.1125 Y-81.0892 F120.00
G01 X134.1288 Y-81.1025 F120.00
G01 X134.1497 Y-81.1180 F120.00
G01 X134.1672 Y-81.1298 F120.00
G01 X134.1895 Y-81.1431 F120.00
G01 X134.2082 Y-81.1531 F120.00
G01 X134.2317 Y-81.1642 F120.00
G01 X134.2512 Y-81.1723 F120.00
G01 X134.2756 Y-81.1810 F120.00
G01 X134.2958 Y-81.1872 F120.00
G01 X134.3218 Y-81.1936 F120.00
G01 X134.3418 Y-81.1976 F120.00
G01 X134.3682 Y-81.2015 F120.00
G01 X134.3885 Y-81.2035 F120.00
G01 X134.4246 Y-81.2050 F120.00
G01 X135.3250 Y-81.2050 F120.00
G01 X135.3615 Y-81.2035 F120.00
G01 X135.3818 Y-81.2015 F120.00
G01 X135.4090 Y-81.1975 F120.00
G01 X135.4289 Y-81.1935 F120.00
G01 X135.4542 Y-81.1872 F120.00
G01 X135.4744 Y-81.1810 F120.00
G01 X135.4982 Y-81.1725 F120.00
G01 X135.5190 Y-81.1639 F120.00
G01 X135.5418 Y-81.1531 F120.00
G01 X135.5605 Y-81.1431 F120.00
G01 X135.5828 Y-81.1298 F120.00
G01 X135.5997 Y-81.1185 F120.00
G01 X135.6218 Y-81.1021 F120.00
G01 X135.6375 Y-81.0892 F120.00
G01 X135.6562 Y-81.0722 F120.00
G01 X135.6717 Y-81.0568 F120.00
G01 X135.6892 Y-81.0375 F120.00
G01 X135.7025 Y-81.0212 F120.00
G01 X135.7180 Y-81.0003 F120.00
G01 X135.7298 Y-80.9828 F120.00
G01 X135.7431 Y-80.9605 F120.00
G01 X135.7531 Y-80.9418 F120.00
G01 X135.7642 Y-80.9183 F120.00
G01 X135.7723 Y-80.8988 F120.00
G01 X135.7810 Y-80.8744 F120.00
G01 X135.7872 Y-80.8542 F120.00
G01 X135.7936 Y-80.8282 F120.00
G01 X135.7976 Y-80.8082 F120.00
G01 X135.8015 Y-80.7818 F120.00
G01 X135.8035 Y-80.7615 F120.00
G01 X135.8050 Y-80.7254 F120.00
G01 X135.8050 Y-80.0250 F120.00
G01 X135.8035 Y-79.9885 F120.00
G01 X135.8014 Y-79.9675 F120.00
G01 X135.7975 Y-79.9410 F120.00
G01 X135.7935 Y-79.9211 F120.00
G01 X135.7872 Y-79.8958 F120.00
G01 X135.7810 Y-79.8756 F120.00
G01 X135.7725 Y-79.8518 F120.00
G01 X135.7639 Y-79.8310 F120.00
G01 X135.7531 Y-79.8082 F120.00
G01 X135.7431 Y-79.7895 F120.00
G01 X135.7298 Y-79.7672 F120.00
G01 X135.7185 Y-79.7503 F120.00
G01 X135.7021 Y-79.7282 F120.00
G01 X135.6892 Y-79.7125 F120.00
G01 X135.6722 Y-79.6938 F120.00
G01 X135.6568 Y-79.6783 F120.00
G01 X135.6381 Y-79.6613 F120.00
G01 X135.6206 Y-79.6470 F120.00
G01 X135.6003 Y-79.6320 F120.00
G01 X135.5828 Y-79.6202 F120.00
G01 X135.5605 Y-79.6069 F120.00
G01 X135.5412 Y-79.5966 F120.00
G01 X135.5183 Y-79.5858 F120.00
G01 X135.4988 Y-79.5777 F120.00
G01 X135.4744 Y-79.5690 F120.00
G01 X135.4542 Y-79.5628 F120.00
G01 X135.4289 Y-79.5565 F120.00
G01 X135.4082 Y-79.5524 F120.00
G01 X135.3825 Y-79.5486 F120.00
G01 X135.3623 Y-79.5466 F120.00
G01 X135.3250 Y-79.5450 F120.00
G01 X134.4243 Y-79.5450 F120.00
G01 X134.3877 Y-79.5466 F120.00
G01 X134.3675 Y-79.5486 F120.00
G01 X134.3418 Y-79.5524 F120.00
G01 X134.3211 Y-79.5565 F120.00
G01 X134.2965 Y-79.5627 F120.00
G01 X134.2749 Y-79.5692 F120.00
M5
G00 X133.9384 Y-78.8380
G01 F60.00
M03 S5000.0
G01 F120.00
G01 X133.9582 Y-78.8451 F120.00
G01 X133.9801 Y-78.8506 F120.00
G01 X134.0025 Y-78.8539 F120.00
G01 X134.0250 Y-78.8550 F120.00
G01 X136.0757 Y-78.8550 F120.00
G01 X136.0975 Y-78.8539 F120.00
G01 X136.1199 Y-78.8506 F120.00
G01 X136.1418 Y-78.8451 F120.00
G01 X136.1616 Y-78.8380 F120.00
G01 X136.1847 Y-78.8271 F120.00
G01 X136.2028 Y-78.8162 F120.00
G01 X136.2209 Y-78.8028 F120.00
G01 X136.2376 Y-78.7876 F120.00
G01 X136.2528 Y-78.7709 F120.00
G01 X136.2662 Y-78.7528 F120.00
G01 X136.2785 Y-78.7321 F120.00
G01 X136.2880 Y-78.7116 F120.00
G01 X136.2951 Y-78.6918 F120.00
G01 X136.3003 Y-78.6713 F120.00
G01 X136.3039 Y-78.6475 F120.00
G01 X136.3050 Y-78.6257 F120.00
G01 X136.3050 Y-77.1243 F120.00
G01 X136.3039 Y-77.1025 F120.00
G01 X136.3006 Y-77.0801 F120.00
G01 X136.2951 Y-77.0582 F120.00
G01 X136.2880 Y-77.0384 F120.00
G01 X136.2771 Y-77.0153 F120.00
G01 X136.2662 Y-76.9972 F120.00
G01 X136.2528 Y-76.9791 F120.00
G01 X136.2376 Y-76.9624 F120.00
G01 X136.2209 Y-76.9472 F120.00
G01 X136.2028 Y-76.9338 F120.00
G01 X136.1821 Y-76.9215 F120.00
G01 X136.1616 Y-76.9120 F120.00
G01 X136.1418 Y-76.9049 F120.00
G01 X136.1213 Y-76.8997 F120.00
G01 X136.0975 Y-76.8961 F120.00
G01 X136.0757 Y-76.8950 F120.00
G01 X134.0243 Y-76.8950 F120.00
G01 X134.0025 Y-76.8961 F120.00
G01 X133.9801 Y-76.8994 F120.00
G01 X133.9582 Y-76.9049 F120.00
G01 X133.9384 Y-76.9120 F120.00
G01 X133.9153 Y-76.9229 F120.00
G01 X133.8972 Y-76.9338 F120.00
G01 X133.8791 Y-76.9472 F120.00
G01 X133.8624 Y-76.9624 F120.00
G01 X133.8472 Y-76.9791 F120.00
G01 X133.8338 Y-76.9972 F120.00
G01 X133.8222 Y-77.0166 F120.00
G01 X133.8125 Y-77.0370 F120.00
G01 X133.8049 Y-77.0582 F120.00
G01 X133.7994 Y-77.0801 F120.00
G01 X133.7960 Y-77.1039 F120.00
G01 X133.7950 Y-77.1250 F120.00
G01 X133.7950 Y-78.6257 F120.00
G01 X133.7961 Y-78.6475 F120.00
G01 X133.7992 Y-78.6684 F120.00
G01 X133.8049 Y-78.6918 F120.00
G01 X133.8131 Y-78.7144 F120.00
G01 X133.8222 Y-78.7334 F120.00
G01 X133.8338 Y-78.7528 F120.00
G01 X133.8472 Y-78.7709 F120.00
G01 X133.8614 Y-78.7866 F120.00
G01 X133.8791 Y-78.8028 F120.00
G01 X133.8972 Y-78.8162 F120.00
G01 X133.9153 Y-78.8271 F120.00
G01 X133.9384 Y-78.8380 F120.00
M5
G00 X136.7896 Y-82.2536
G01 F60.00
M03 S5000.0
G01 F120.00
G01 X136.7519 Y-82.2671 F120.00
G01 X136.7279 Y-82.2770 F120.00
G01 X136.6911 Y-82.2944 F120.00
G01 X136.6681 Y-82.3067 F120.00
G01 X136.6332 Y-82.3276 F120.00
G01 X136.6116 Y-82.3421 F120.00
G01 X136.5789 Y-82.3663 F120.00
G01 X136.5588 Y-82.3828 F120.00
G01 X136.5286 Y-82.4102 F120.00
G01 X136.5102 Y-82.4286 F120.00
G01 X136.4828 Y-82.4588 F120.00
G01 X136.4663 Y-82.4789 F120.00
G01 X136.4421 Y-82.5116 F120.00
G01 X136.4276 Y-82.5332 F120.00
G01 X136.4067 Y-82.5681 F120.00
G01 X136.3944 Y-82.5911 F120.00
G01 X136.3770 Y-82.6279 F120.00
G01 X136.3671 Y-82.6519 F120.00
G01 X136.3534 Y-82.6903 F120.00
G01 X136.3458 Y-82.7151 F120.00
G01 X136.3359 Y-82.7546 F120.00
G01 X136.3308 Y-82.7802 F120.00
G01 X136.3249 Y-82.8204 F120.00
G01 X136.3223 Y-82.8463 F120.00
G01 X136.3203 Y-82.8870 F120.00
G01 X136.3203 Y-82.9130 F120.00
G01 X136.3223 Y-82.9537 F120.00
G01 X136.3249 Y-82.9796 F120.00
G01 X136.3308 Y-83.0198 F120.00
G01 X136.3359 Y-83.0454 F120.00
G01 X136.3458 Y-83.0849 F120.00
G01 X136.3534 Y-83.1097 F120.00
G01 X136.3671 Y-83.1481 F120.00
G01 X136.3770 Y-83.1721 F120.00
G01 X136.3944 Y-83.2089 F120.00
G01 X136.4067 Y-83.2319 F120.00
G01 X136.4276 Y-83.2668 F120.00
G01 X136.4421 Y-83.2884 F120.00
G01 X136.4663 Y-83.3211 F120.00
G01 X136.4828 Y-83.3412 F120.00
G01 X136.5102 Y-83.3714 F120.00
G01 X136.5286 Y-83.3898 F120.00
G01 X136.5588 Y-83.4172 F120.00
G01 X136.5789 Y-83.4337 F120.00
G01 X136.6116 Y-83.4579 F120.00
G01 X136.6332 Y-83.4724 F120.00
G01 X136.6681 Y-83.4933 F120.00
G01 X136.6911 Y-83.5056 F120.00
G01 X136.7279 Y-83.5230 F120.00
G01 X136.7519 Y-83.5329 F120.00
G01 X136.7903 Y-83.5466 F120.00
G01 X136.8151 Y-83.5542 F120.00
G01 X136.8546 Y-83.5641 F120.00
G01 X136.8802 Y-83.5692 F120.00
G01 X136.9204 Y-83.5751 F120.00
G01 X136.9463 Y-83.5777 F120.00
G01 X136.9870 Y-83.5797 F120.00
G01 X137.0130 Y-83.5797 F120.00
G01 X137.0537 Y-83.5777 F120.00
G01 X137.0796 Y-83.5751 F120.00
G01 X137.1198 Y-83.5692 F120.00
G01 X137.1454 Y-83.5641 F120.00
G01 X137.1849 Y-83.5542 F120.00
G01 X137.2097 Y-83.5466 F120.00
G01 X137.2481 Y-83.5329 F120.00
G01 X137.2721 Y-83.5230 F120.00
G01 X137.3089 Y-83.5056 F120.00
G01 X137.3319 Y-83.4933 F120.00
G01 X137.3668 Y-83.4724 F120.00
G01 X137.3884 Y-83.4579 F120.00
G01 X137.4211 Y-83.4337 F120.00
G01 X137.4412 Y-83.4172 F120.00
G01 X137.4714 Y-83.3898 F120.00
G01 X137.4898 Y-83.3714 F120.00
G01 X137.5172 Y-83.3412 F120.00
G01 X137.5337 Y-83.3211 F120.00
G01 X137.5579 Y-83.2884 F120.00
G01 X137.5724 Y-83.2668 F120.00
G01 X137.5933 Y-83.2319 F120.00
G01 X137.6056 Y-83.2089 F120.00
G01 X137.6230 Y-83.1721 F120.00
G01 X137.6329 Y-83.1481 F120.00
G01 X137.6466 Y-83.1097 F120.00
G01 X137.6542 Y-83.0849 F120.00
G01 X137.6641 Y-83.0454 F120.00
G01 X137.6692 Y-83.0198 F120.00
G01 X137.6751 Y-82.9796 F120.00
G01 X137.6777 Y-82.9537 F120.00
G01 X137.6797 Y-82.9130 F120.00
G01 X137.6797 Y-82.8870 F120.00
G01 X137.6777 Y-82.8463 F120.00
G01 X137.6751 Y-82.8204 F120.00
G01 X137.6692 Y-82.7802 F120.00
G01 X137.6641 Y-82.7546 F120.00
G01 X137.6542 Y-82.7151 F120.00
G01 X137.6466 Y-82.6903 F120.00
G01 X137.6329 Y-82.6519 F120.00
G01 X137.6230 Y-82.6279 F120.00
G01 X137.6056 Y-82.5911 F120.00
G01 X137.5933 Y-82.5681 F120.00
G01 X137.5724 Y-82.5332 F120.00
G01 X137.5579 Y-82.5116 F120.00
G01 X137.5337 Y-82.4789 F120.00
G01 X137.5172 Y-82.4588 F120.00
G01 X137.4898 Y-82.4286 F120.00
G01 X137.4714 Y-82.4102 F120.00
G01 X137.4412 Y-82.3828 F120.00
G01 X137.4211 Y-82.3663 F120.00
G01 X137.3884 Y-82.3421 F120.00
G01 X137.3668 Y-82.3276 F120.00
G01 X137.3319 Y-82.3067 F120.00
G01 X137.3089 Y-82.2944 F120.00
G01 X137.2721 Y-82.2770 F120.00
G01 X137.2481 Y-82.2671 F120.00
G01 X137.2097 Y-82.2534 F120.00
G01 X137.1849 Y-82.2458 F120.00
G01 X137.1454 Y-82.2359 F120.00
G01 X137.1198 Y-82.2308 F120.00
G01 X137.0796 Y-82.2249 F120.00
G01 X137.0537 Y-82.2223 F120.00
G01 X137.0130 Y-82.2203 F120.00
G01 X136.9870 Y-82.2203 F120.00
G01 X136.9463 Y-82.2223 F120.00
G01 X136.9204 Y-82.2249 F120.00
G01 X136.8802 Y-82.2308 F120.00
G01 X136.8546 Y-82.2359 F120.00
G01 X136.8151 Y-82.2458 F120.00
G01 X136.7896 Y-82.2536 F120.00
M5
G00 X136.7896 Y-84.2286
G01 F60.00
M03 S5000.0
G01 F120.00
G01 X136.7519 Y-84.2421 F120.00
G01 X136.7279 Y-84.2520 F120.00
G01 X136.6911 Y-84.2694 F120.00
G01 X136.6681 Y-84.2817 F120.00
G01 X136.6332 Y-84.3026 F120.00
G01 X136.6116 Y-84.3171 F120.00
G01 X136.5789 Y-84.3413 F120.00
G01 X136.5588 Y-84.3578 F120.00
G01 X136.5286 Y-84.3852 F120.00
G01 X136.5102 Y-84.4036 F120.00
G01 X136.4828 Y-84.4338 F120.00
G01 X136.4663 Y-84.4539 F120.00
G01 X136.4421 Y-84.4866 F120.00
G01 X136.4276 Y-84.5082 F120.00
G01 X136.4067 Y-84.5431 F120.00
G01 X136.3944 Y-84.5661 F120.00
G01 X136.3770 Y-84.6029 F120.00
G01 X136.3671 Y-84.6269 F120.00
G01 X136.3534 Y-84.6653 F120.00
G01 X136.3458 Y-84.6901 F120.00
G01 X136.3359 Y-84.7296 F120.00
G01 X136.3308 Y-84.7552 F120.00
G01 X136.3249 Y-84.7954 F120.00
G01 X136.3223 Y-84.8213 F120.00
G01 X136.3203 Y-84.8620 F120.00
G01 X136.3203 Y-84.8880 F120.00
G01 X136.3223 Y-84.9287 F120.00
G01 X136.3249 Y-84.9546 F120.00
G01 X136.3308 Y-84.9948 F120.00
G01 X136.3359 Y-85.0204 F120.00
G01 X136.3458 Y-85.0599 F120.00
G01 X136.3534 Y-85.0847 F120.00
G01 X136.3671 Y-85.1231 F120.00
G01 X136.3770 Y-85.1471 F120.00
G01 X136.3944 Y-85.1839 F120.00
G01 X136.4067 Y-85.2069 F120.00
G01 X136.4276 Y-85.2418 F120.00
G01 X136.4421 Y-85.2634 F120.00
G01 X136.4663 Y-85.2961 F120.00
G01 X136.4828 Y-85.3162 F120.00
G01 X136.5102 Y-85.3464 F120.00
G01 X136.5286 Y-85.3648 F120.00
G01 X136.5588 Y-85.3922 F120.00
G01 X136.5789 Y-85.4087 F120.00
G01 X136.6116 Y-85.4329 F120.00
G01 X136.6332 Y-85.4474 F120.00
G01 X136.6681 Y-85.4683 F120.00
G01 X136.6911 Y-85.4806 F120.00
G01 X136.7279 Y-85.4980 F120.00
G01 X136.7519 Y-85.5079 F120.00
G01 X136.7903 Y-85.5216 F120.00
G01 X136.8151 Y-85.5292 F120.00
G01 X136.8546 Y-85.5391 F120.00
G01 X136.8802 Y-85.5442 F120.00
G01 X136.9204 Y-85.5501 F120.00
G01 X136.9463 Y-85.5527 F120.00
G01 X136.9870 Y-85.5547 F120.00
G01 X137.0130 Y-85.5547 F120.00
G01 X137.0537 Y-85.5527 F120.00
G01 X137.0796 Y-85.5501 F120.00
G01 X137.1198 Y-85.5442 F120.00
G01 X137.1454 Y-85.5391 F120.00
G01 X137.1849 Y-85.5292 F120.00
G01 X137.2097 Y-85.5216 F120.00
G01 X137.2481 Y-85.5079 F120.00
G01 X137.2721 Y-85.4980 F120.00
G01 X137.3089 Y-85.4806 F120.00
G01 X137.3319 Y-85.4683 F120.00
G01 X137.3668 Y-85.4474 F120.00
G01 X137.3884 Y-85.4329 F120.00
G01 X137.4211 Y-85.4087 F120.00
G01 X137.4412 Y-85.3922 F120.00
G01 X137.4714 Y-85.3648 F120.00
G01 X137.4898 Y-85.3464 F120.00
G01 X137.5172 Y-85.3162 F120.00
G01 X137.5337 Y-85.2961 F120.00
G01 X137.5579 Y-85.2634 F120.00
G01 X137.5724 Y-85.2418 F120.00
G01 X137.5933 Y-85.2069 F120.00
G01 X137.6056 Y-85.1839 F120.00
G01 X137.6230 Y-85.1471 F120.00
G01 X137.6329 Y-85.1231 F120.00
G01 X137.6466 Y-85.0847 F120.00
G01 X137.6542 Y-85.0599 F120.00
G01 X137.6641 Y-85.0204 F120.00
G01 X137.6692 Y-84.9948 F120.00
G01 X137.6751 Y-84.9546 F120.00
G01 X137.6777 Y-84.9287 F120.00
G01 X137.6797 Y-84.8880 F120.00
G01 X137.6797 Y-84.8620 F120.00
G01 X137.6777 Y-84.8213 F120.00
G01 X137.6751 Y-84.7954 F120.00
G01 X137.6692 Y-84.7552 F120.00
G01 X137.6641 Y-84.7296 F120.00
G01 X137.6542 Y-84.6901 F120.00
G01 X137.6466 Y-84.6653 F120.00
G01 X137.6329 Y-84.6269 F120.00
G01 X137.6230 Y-84.6029 F120.00
G01 X137.6056 Y-84.5661 F120.00
G01 X137.5933 Y-84.5431 F120.00
G01 X137.5724 Y-84.5082 F120.00
G01 X137.5579 Y-84.4866 F120.00
G01 X137.5337 Y-84.4539 F120.00
G01 X137.5172 Y-84.4338 F120.00
G01 X137.4898 Y-84.4036 F120.00
G01 X137.4714 Y-84.3852 F120.00
G01 X137.4412 Y-84.3578 F120.00
G01 X137.4211 Y-84.3413 F120.00
G01 X137.3884 Y-84.3171 F120.00
G01 X137.3668 Y-84.3026 F120.00
G01 X137.3319 Y-84.2817 F120.00
G01 X137.3089 Y-84.2694 F120.00
G01 X137.2721 Y-84.2520 F120.00
G01 X137.2481 Y-84.2421 F120.00
G01 X137.2097 Y-84.2284 F120.00
G01 X137.1849 Y-84.2208 F120.00
G01 X137.1454 Y-84.2109 F120.00
G01 X137.1198 Y-84.2058 F120.00
G01 X137.0796 Y-84.1999 F120.00
G01 X137.0537 Y-84.1973 F120.00
G01 X137.0130 Y-84.1953 F120.00
G01 X136.9870 Y-84.1953 F120.00
G01 X136.9463 Y-84.1973 F120.00
G01 X136.9204 Y-84.1999 F120.00
G01 X136.8802 Y-84.2058 F120.00
G01 X136.8546 Y-84.2109 F120.00
G01 X136.8151 Y-84.2208 F120.00
G01 X136.7896 Y-84.2286 F120.00
M5
G00 X133.4450 Y-84.8750
G01 F60.00
M03 S5000.0
G01 F120.00
G01 X133.4450 Y-85.7750 F120.00
G01 X133.4465 Y-85.8115 F120.00
G01 X133.4487 Y-85.8333 F120.00
G01 X133.4524 Y-85.8582 F120.00
G01 X133.4565 Y-85.8789 F120.00
G01 X133.4628 Y-85.9042 F120.00
G01 X133.4690 Y-85.9244 F120.00
G01 X133.4777 Y-85.9488 F120.00
G01 X133.4858 Y-85.9683 F120.00
G01 X133.4969 Y-85.9918 F120.00
G01 X133.5069 Y-86.0105 F120.00
G01 X133.5202 Y-86.0328 F120.00
G01 X133.5320 Y-86.0503 F120.00
G01 X133.5475 Y-86.0712 F120.00
G01 X133.5608 Y-86.0875 F120.00
G01 X133.5783 Y-86.1068 F120.00
G01 X133.5932 Y-86.1217 F120.00
G01 X133.6125 Y-86.1392 F120.00
G01 X133.6288 Y-86.1525 F120.00
G01 X133.6497 Y-86.1680 F120.00
G01 X133.6666 Y-86.1794 F120.00
G01 X133.6895 Y-86.1931 F120.00
G01 X133.7082 Y-86.2031 F120.00
G01 X133.7310 Y-86.2139 F120.00
G01 X133.7512 Y-86.2223 F120.00
G01 X133.7763 Y-86.2313 F120.00
G01 X133.7958 Y-86.2372 F120.00
G01 X133.8211 Y-86.2435 F120.00
G01 X133.8425 Y-86.2477 F120.00
G01 X133.8675 Y-86.2514 F120.00
G01 X133.8877 Y-86.2534 F120.00
G01 X133.9250 Y-86.2550 F120.00
G01 X134.6250 Y-86.2550 F120.00
G01 X134.6608 Y-86.2535 F120.00
G01 X134.6825 Y-86.2514 F120.00
G01 X134.7082 Y-86.2476 F120.00
G01 X134.7289 Y-86.2435 F120.00
G01 X134.7542 Y-86.2372 F120.00
G01 X134.7744 Y-86.2310 F120.00
G01 X134.7988 Y-86.2223 F120.00
G01 X134.8183 Y-86.2142 F120.00
G01 X134.8425 Y-86.2027 F120.00
G01 X134.8605 Y-86.1931 F120.00
G01 X134.8834 Y-86.1794 F120.00
G01 X134.9003 Y-86.1680 F120.00
G01 X134.9206 Y-86.1530 F120.00
G01 X134.9369 Y-86.1396 F120.00
G01 X134.9568 Y-86.1217 F120.00
G01 X134.9717 Y-86.1068 F120.00
G01 X134.9892 Y-86.0875 F120.00
G01 X135.0025 Y-86.0712 F120.00
G01 X135.0185 Y-86.0497 F120.00
G01 X135.0298 Y-86.0328 F120.00
G01 X135.0431 Y-86.0105 F120.00
G01 X135.0531 Y-85.9918 F120.00
G01 X135.0639 Y-85.9690 F120.00
G01 X135.0723 Y-85.9488 F120.00
G01 X135.0810 Y-85.9244 F120.00
G01 X135.0869 Y-85.9049 F120.00
G01 X135.0935 Y-85.8789 F120.00
G01 X135.0977 Y-85.8575 F120.00
G01 X135.1014 Y-85.8325 F120.00
G01 X135.1035 Y-85.8115 F120.00
G01 X135.1050 Y-85.7750 F120.00
G01 X135.1050 Y-84.8750 F120.00
G01 X135.1035 Y-84.8392 F120.00
G01 X135.1014 Y-84.8175 F120.00
G01 X135.0976 Y-84.7918 F120.00
G01 X135.0935 Y-84.7711 F120.00
G01 X135.0872 Y-84.7458 F120.00
G01 X135.0810 Y-84.7256 F120.00
G01 X135.0723 Y-84.7012 F120.00
G01 X135.0642 Y-84.6817 F120.00
G01 X135.0527 Y-84.6575 F120.00
G01 X135.0431 Y-84.6395 F120.00
G01 X135.0301 Y-84.6179 F120.00
G01 X135.0185 Y-84.6003 F120.00
G01 X135.0025 Y-84.5788 F120.00
G01 X134.9896 Y-84.5631 F120.00
G01 X134.9717 Y-84.5432 F120.00
G01 X134.9568 Y-84.5283 F120.00
G01 X134.9375 Y-84.5108 F120.00
G01 X134.9212 Y-84.4975 F120.00
G01 X134.9003 Y-84.4820 F120.00
G01 X134.8834 Y-84.4706 F120.00
G01 X134.8605 Y-84.4569 F120.00
G01 X134.8418 Y-84.4469 F120.00
G01 X134.8190 Y-84.4361 F120.00
G01 X134.7988 Y-84.4277 F120.00
G01 X134.7737 Y-84.4187 F120.00
G01 X134.7542 Y-84.4128 F120.00
G01 X134.7289 Y-84.4065 F120.00
G01 X134.7075 Y-84.4023 F120.00
G01 X134.6825 Y-84.3986 F120.00
G01 X134.6615 Y-84.3965 F120.00
G01 X134.6250 Y-84.3950 F120.00
G01 X133.9243 Y-84.3950 F120.00
G01 X133.8885 Y-84.3965 F120.00
G01 X133.8667 Y-84.3987 F120.00
G01 X133.8410 Y-84.4025 F120.00
G01 X133.8211 Y-84.4065 F120.00
G01 X133.7965 Y-84.4127 F120.00
G01 X133.7749 Y-84.4192 F120.00
G01 X133.7512 Y-84.4277 F120.00
G01 X133.7317 Y-84.4358 F120.00
G01 X133.7082 Y-84.4469 F120.00
G01 X133.6902 Y-84.4565 F120.00
G01 X133.6666 Y-84.4706 F120.00
G01 X133.6497 Y-84.4820 F120.00
G01 X133.6288 Y-84.4975 F120.00
G01 X133.6125 Y-84.5108 F120.00
G01 X133.5938 Y-84.5278 F120.00
G01 X133.5778 Y-84.5438 F120.00
G01 X133.5608 Y-84.5625 F120.00
G01 X133.5470 Y-84.5794 F120.00
G01 X133.5320 Y-84.5997 F120.00
G01 X133.5206 Y-84.6166 F120.00
G01 X133.5065 Y-84.6402 F120.00
G01 X133.4969 Y-84.6582 F120.00
G01 X133.4858 Y-84.6817 F120.00
G01 X133.4777 Y-84.7012 F120.00
G01 X133.4692 Y-84.7249 F120.00
G01 X133.4627 Y-84.7465 F120.00
G01 X133.4565 Y-84.7711 F120.00
G01 X133.4524 Y-84.7918 F120.00
G01 X133.4486 Y-84.8175 F120.00
G01 X133.4466 Y-84.8377 F120.00
G01 X133.4450 Y-84.8750 F120.00
M5
G00 X133.4450 Y-86.8750
G01 F60.00
M03 S5000.0
G01 F120.00
G01 X133.4450 Y-87.7750 F120.00
G01 X133.4465 Y-87.8115 F120.00
G01 X133.4487 Y-87.8333 F120.00
G01 X133.4524 Y-87.8582 F120.00
G01 X133.4565 Y-87.8789 F120.00
G01 X133.4628 Y-87.9042 F120.00
G01 X133.4690 Y-87.9244 F120.00
G01 X133.4777 Y-87.9488 F120.00
G01 X133.4858 Y-87.9683 F120.00
G01 X133.4969 Y-87.9918 F120.00
G01 X133.5069 Y-88.0105 F120.00
G01 X133.5202 Y-88.0328 F120.00
G01 X133.5320 Y-88.0503 F120.00
G01 X133.5475 Y-88.0712 F120.00
G01 X133.5608 Y-88.0875 F120.00
G01 X133.5783 Y-88.1068 F120.00
G01 X133.5932 Y-88.1217 F120.00
G01 X133.6125 Y-88.1392 F120.00
G01 X133.6288 Y-88.1525 F120.00
G01 X133.6497 Y-88.1680 F120.00
G01 X133.6666 Y-88.1794 F120.00
G01 X133.6895 Y-88.1931 F120.00
G01 X133.7082 Y-88.2031 F120.00
G01 X133.7310 Y-88.2139 F120.00
G01 X133.7512 Y-88.2223 F120.00
G01 X133.7763 Y-88.2313 F120.00
G01 X133.7958 Y-88.2372 F120.00
G01 X133.8211 Y-88.2435 F120.00
G01 X133.8425 Y-88.2477 F120.00
G01 X133.8675 Y-88.2514 F120.00
G01 X133.8877 Y-88.2534 F120.00
G01 X133.9250 Y-88.2550 F120.00
G01 X134.6250 Y-88.2550 F120.00
G01 X134.6608 Y-88.2535 F120.00
G01 X134.6825 Y-88.2514 F120.00
G01 X134.7082 Y-88.2476 F120.00
G01 X134.7289 Y-88.2435 F120.00
G01 X134.7542 Y-88.2372 F120.00
G01 X134.7744 Y-88.2310 F120.00
G01 X134.7988 Y-88.2223 F120.00
G01 X134.8183 Y-88.2142 F120.00
G01 X134.8425 Y-88.2027 F120.00
G01 X134.8605 Y-88.1931 F120.00
G01 X134.8834 Y-88.1794 F120.00
G01 X134.9003 Y-88.1680 F120.00
G01 X134.9206 Y-88.1530 F120.00
G01 X134.9369 Y-88.1396 F120.00
G01 X134.9568 Y-88.1217 F120.00
G01 X134.9717 Y-88.1068 F120.00
G01 X134.9892 Y-88.0875 F120.00
G01 X135.0025 Y-88.0712 F120.00
G01 X135.0185 Y-88.0497 F120.00
G01 X135.0298 Y-88.0328 F120.00
G01 X135.0431 Y-88.0105 F120.00
G01 X135.0531 Y-87.9918 F120.00
G01 X135.0639 Y-87.9690 F120.00
G01 X135.0723 Y-87.9488 F120.00
G01 X135.0810 Y-87.9244 F120.00
G01 X135.0869 Y-87.9049 F120.00
G01 X135.0935 Y-87.8789 F120.00
G01 X135.0977 Y-87.8575 F120.00
G01 X135.1014 Y-87.8325 F120.00
G01 X135.1035 Y-87.8115 F120.00
G01 X135.1050 Y-87.7750 F120.00
G01 X135.1050 Y-86.8750 F120.00
G01 X135.1035 Y-86.8392 F120.00
G01 X135.1014 Y-86.8175 F120.00
G01 X135.0976 Y-86.7918 F120.00
G01 X135.0935 Y-86.7711 F120.00
G01 X135.0872 Y-86.7458 F120.00
G01 X135.0810 Y-86.7256 F120.00
G01 X135.0723 Y-86.7012 F120.00
G01 X135.0642 Y-86.6817 F120.00
G01 X135.0527 Y-86.6575 F120.00
G01 X135.0431 Y-86.6395 F120.00
G01 X135.0301 Y-86.6179 F120.00
G01 X135.0185 Y-86.6003 F120.00
G01 X135.0025 Y-86.5788 F120.00
G01 X134.9896 Y-86.5631 F120.00
G01 X134.9717 Y-86.5432 F120.00
G01 X134.9568 Y-86.5283 F120.00
G01 X134.9375 Y-86.5108 F120.00
G01 X134.9212 Y-86.4975 F120.00
G01 X134.9003 Y-86.4820 F120.00
G01 X134.8834 Y-86.4706 F120.00
G01 X134.8605 Y-86.4569 F120.00
G01 X134.8418 Y-86.4469 F120.00
G01 X134.8190 Y-86.4361 F120.00
G01 X134.7988 Y-86.4277 F120.00
G01 X134.7737 Y-86.4187 F120.00
G01 X134.7542 Y-86.4128 F120.00
G01 X134.7289 Y-86.4065 F120.00
G01 X134.7075 Y-86.4023 F120.00
G01 X134.6825 Y-86.3986 F120.00
G01 X134.6615 Y-86.3965 F120.00
G01 X134.6250 Y-86.3950 F120.00
G01 X133.9243 Y-86.3950 F120.00
G01 X133.8885 Y-86.3965 F120.00
G01 X133.8667 Y-86.3987 F120.00
G01 X133.8410 Y-86.4025 F120.00
G01 X133.8211 Y-86.4065 F120.00
G01 X133.7965 Y-86.4127 F120.00
G01 X133.7749 Y-86.4192 F120.00
G01 X133.7512 Y-86.4277 F120.00
G01 X133.7317 Y-86.4358 F120.00
G01 X133.7082 Y-86.4469 F120.00
G01 X133.6902 Y-86.4565 F120.00
G01 X133.6666 Y-86.4706 F120.00
G01 X133.6497 Y-86.4820 F120.00
G01 X133.6288 Y-86.4975 F120.00
G01 X133.6125 Y-86.5108 F120.00
G01 X133.5938 Y-86.5278 F120.00
G01 X133.5778 Y-86.5438 F120.00
G01 X133.5608 Y-86.5625 F120.00
G01 X133.5470 Y-86.5794 F120.00
G01 X133.5320 Y-86.5997 F120.00
G01 X133.5206 Y-86.6166 F120.00
G01 X133.5065 Y-86.6402 F120.00
G01 X133.4969 Y-86.6582 F120.00
G01 X133.4858 Y-86.6817 F120.00
G01 X133.4777 Y-86.7012 F120.00
G01 X133.4692 Y-86.7249 F120.00
G01 X133.4627 Y-86.7465 F120.00
G01 X133.4565 Y-86.7711 F120.00
G01 X133.4524 Y-86.7918 F120.00
G01 X133.4486 Y-86.8175 F120.00
G01 X133.4466 Y-86.8377 F120.00
G01 X133.4450 Y-86.8750 F120.00
M5
G00 X131.4450 Y-86.8750
G01 F60.00
M03 S5000.0
G01 F120.00
G01 X131.4450 Y-87.7750 F120.00
G01 X131.4465 Y-87.8115 F120.00
G01 X131.4487 Y-87.8333 F120.00
G01 X131.4524 Y-87.8582 F120.00
G01 X131.4565 Y-87.8789 F120.00
G01 X131.4628 Y-87.9042 F120.00
G01 X131.4690 Y-87.9244 F120.00
G01 X131.4777 Y-87.9488 F120.00
G01 X131.4858 Y-87.9683 F120.00
G01 X131.4969 Y-87.9918 F120.00
G01 X131.5069 Y-88.0105 F120.00
G01 X131.5202 Y-88.0328 F120.00
G01 X131.5320 Y-88.0503 F120.00
G01 X131.5475 Y-88.0712 F120.00
G01 X131.5608 Y-88.0875 F120.00
G01 X131.5783 Y-88.1068 F120.00
G01 X131.5932 Y-88.1217 F120.00
G01 X131.6125 Y-88.1392 F120.00
G01 X131.6288 Y-88.1525 F120.00
G01 X131.6497 Y-88.1680 F120.00
G01 X131.6666 Y-88.1794 F120.00
G01 X131.6895 Y-88.1931 F120.00
G01 X131.7082 Y-88.2031 F120.00
G01 X131.7310 Y-88.2139 F120.00
G01 X131.7512 Y-88.2223 F120.00
G01 X131.7763 Y-88.2313 F120.00
G01 X131.7958 Y-88.2372 F120.00
G01 X131.8211 Y-88.2435 F120.00
G01 X131.8425 Y-88.2477 F120.00
G01 X131.8675 Y-88.2514 F120.00
G01 X131.8877 Y-88.2534 F120.00
G01 X131.9250 Y-88.2550 F120.00
G01 X132.6250 Y-88.2550 F120.00
G01 X132.6608 Y-88.2535 F120.00
G01 X132.6825 Y-88.2514 F120.00
G01 X132.7082 Y-88.2476 F120.00
G01 X132.7289 Y-88.2435 F120.00
G01 X132.7542 Y-88.2372 F120.00
G01 X132.7744 Y-88.2310 F120.00
G01 X132.7988 Y-88.2223 F120.00
G01 X132.8183 Y-88.2142 F120.00
G01 X132.8425 Y-88.2027 F120.00
G01 X132.8605 Y-88.1931 F120.00
G01 X132.8834 Y-88.1794 F120.00
G01 X132.9003 Y-88.1680 F120.00
G01 X132.9206 Y-88.1530 F120.00
G01 X132.9369 Y-88.1396 F120.00
G01 X132.9568 Y-88.1217 F120.00
G01 X132.9717 Y-88.1068 F120.00
G01 X132.9892 Y-88.0875 F120.00
G01 X133.0025 Y-88.0712 F120.00
G01 X133.0185 Y-88.0497 F120.00
G01 X133.0298 Y-88.0328 F120.00
G01 X133.0431 Y-88.0105 F120.00
G01 X133.0531 Y-87.9918 F120.00
G01 X133.0639 Y-87.9690 F120.00
G01 X133.0723 Y-87.9488 F120.00
G01 X133.0810 Y-87.9244 F120.00
G01 X133.0869 Y-87.9049 F120.00
G01 X133.0935 Y-87.8789 F120.00
G01 X133.0977 Y-87.8575 F120.00
G01 X133.1014 Y-87.8325 F120.00
G01 X133.1035 Y-87.8115 F120.00
G01 X133.1050 Y-87.7750 F120.00
G01 X133.1050 Y-86.8750 F120.00
G01 X133.1035 Y-86.8392 F120.00
G01 X133.1014 Y-86.8175 F120.00
G01 X133.0976 Y-86.7918 F120.00
G01 X133.0935 Y-86.7711 F120.00
G01 X133.0872 Y-86.7458 F120.00
G01 X133.0810 Y-86.7256 F120.00
G01 X133.0723 Y-86.7012 F120.00
G01 X133.0642 Y-86.6817 F120.00
G01 X133.0527 Y-86.6575 F120.00
G01 X133.0431 Y-86.6395 F120.00
G01 X133.0301 Y-86.6179 F120.00
G01 X133.0185 Y-86.6003 F120.00
G01 X133.0025 Y-86.5788 F120.00
G01 X132.9896 Y-86.5631 F120.00
G01 X132.9717 Y-86.5432 F120.00
G01 X132.9568 Y-86.5283 F120.00
G01 X132.9375 Y-86.5108 F120.00
G01 X132.9212 Y-86.4975 F120.00
G01 X132.9003 Y-86.4820 F120.00
G01 X132.8834 Y-86.4706 F120.00
G01 X132.8605 Y-86.4569 F120.00
G01 X132.8418 Y-86.4469 F120.00
G01 X132.8190 Y-86.4361 F120.00
G01 X132.7988 Y-86.4277 F120.00
G01 X132.7737 Y-86.4187 F120.00
G01 X132.7542 Y-86.4128 F120.00
G01 X132.7289 Y-86.4065 F120.00
G01 X132.7075 Y-86.4023 F120.00
G01 X132.6825 Y-86.3986 F120.00
G01 X132.6615 Y-86.3965 F120.00
G01 X132.6250 Y-86.3950 F120.00
G01 X131.9243 Y-86.3950 F120.00
G01 X131.8885 Y-86.3965 F120.00
G01 X131.8667 Y-86.3987 F120.00
G01 X131.8410 Y-86.4025 F120.00
G01 X131.8211 Y-86.4065 F120.00
G01 X131.7965 Y-86.4127 F120.00
G01 X131.7749 Y-86.4192 F120.00
G01 X131.7512 Y-86.4277 F120.00
G01 X131.7317 Y-86.4358 F120.00
G01 X131.7082 Y-86.4469 F120.00
G01 X131.6902 Y-86.4565 F120.00
G01 X131.6666 Y-86.4706 F120.00
G01 X131.6497 Y-86.4820 F120.00
G01 X131.6288 Y-86.4975 F120.00
G01 X131.6125 Y-86.5108 F120.00
G01 X131.5938 Y-86.5278 F120.00
G01 X131.5778 Y-86.5438 F120.00
G01 X131.5608 Y-86.5625 F120.00
G01 X131.5470 Y-86.5794 F120.00
G01 X131.5320 Y-86.5997 F120.00
G01 X131.5206 Y-86.6166 F120.00
G01 X131.5065 Y-86.6402 F120.00
G01 X131.4969 Y-86.6582 F120.00
G01 X131.4858 Y-86.6817 F120.00
G01 X131.4777 Y-86.7012 F120.00
G01 X131.4692 Y-86.7249 F120.00
G01 X131.4627 Y-86.7465 F120.00
G01 X131.4565 Y-86.7711 F120.00
G01 X131.4524 Y-86.7918 F120.00
G01 X131.4486 Y-86.8175 F120.00
G01 X131.4466 Y-86.8377 F120.00
G01 X131.4450 Y-86.8750 F120.00
M5
G00 X131.4450 Y-84.8750
G01 F60.00
M03 S5000.0
G01 F120.00
G01 X131.4450 Y-85.7750 F120.00
G01 X131.4465 Y-85.8115 F120.00
G01 X131.4487 Y-85.8333 F120.00
G01 X131.4524 Y-85.8582 F120.00
G01 X131.4565 Y-85.8789 F120.00
G01 X131.4628 Y-85.9042 F120.00
G01 X131.4690 Y-85.9244 F120.00
G01 X131.4777 Y-85.9488 F120.00
G01 X131.4858 Y-85.9683 F120.00
G01 X131.4969 Y-85.9918 F120.00
G01 X131.5069 Y-86.0105 F120.00
G01 X131.5202 Y-86.0328 F120.00
G01 X131.5320 Y-86.0503 F120.00
G01 X131.5475 Y-86.0712 F120.00
G01 X131.5608 Y-86.0875 F120.00
G01 X131.5783 Y-86.1068 F120.00
G01 X131.5932 Y-86.1217 F120.00
G01 X131.6125 Y-86.1392 F120.00
G01 X131.6288 Y-86.1525 F120.00
G01 X131.6497 Y-86.1680 F120.00
G01 X131.6666 Y-86.1794 F120.00
G01 X131.6895 Y-86.1931 F120.00
G01 X131.7082 Y-86.2031 F120.00
G01 X131.7310 Y-86.2139 F120.00
G01 X131.7512 Y-86.2223 F120.00
G01 X131.7763 Y-86.2313 F120.00
G01 X131.7958 Y-86.2372 F120.00
G01 X131.8211 Y-86.2435 F120.00
G01 X131.8425 Y-86.2477 F120.00
G01 X131.8675 Y-86.2514 F120.00
G01 X131.8877 Y-86.2534 F120.00
G01 X131.9250 Y-86.2550 F120.00
G01 X132.6250 Y-86.2550 F120.00
G01 X132.6608 Y-86.2535 F120.00
G01 X132.6825 Y-86.2514 F120.00
G01 X132.7082 Y-86.2476 F120.00
G01 X132.7289 Y-86.2435 F120.00
G01 X132.7542 Y-86.2372 F120.00
G01 X132.7744 Y-86.2310 F120.00
G01 X132.7988 Y-86.2223 F120.00
G01 X132.8183 Y-86.2142 F120.00
G01 X132.8425 Y-86.2027 F120.00
G01 X132.8605 Y-86.1931 F120.00
G01 X132.8834 Y-86.1794 F120.00
G01 X132.9003 Y-86.1680 F120.00
G01 X132.9206 Y-86.1530 F120.00
G01 X132.9369 Y-86.1396 F120.00
G01 X132.9568 Y-86.1217 F120.00
G01 X132.9717 Y-86.1068 F120.00
G01 X132.9892 Y-86.0875 F120.00
G01 X133.0025 Y-86.0712 F120.00
G01 X133.0185 Y-86.0497 F120.00
G01 X133.0298 Y-86.0328 F120.00
G01 X133.0431 Y-86.0105 F120.00
G01 X133.0531 Y-85.9918 F120.00
G01 X133.0639 Y-85.9690 F120.00
G01 X133.0723 Y-85.9488 F120.00
G01 X133.0810 Y-85.9244 F120.00
G01 X133.0869 Y-85.9049 F120.00
G01 X133.0935 Y-85.8789 F120.00
G01 X133.0977 Y-85.8575 F120.00
G01 X133.1014 Y-85.8325 F120.00
G01 X133.1035 Y-85.8115 F120.00
G01 X133.1050 Y-85.7750 F120.00
G01 X133.1050 Y-84.8750 F120.00
G01 X133.1035 Y-84.8392 F120.00
G01 X133.1014 Y-84.8175 F120.00
G01 X133.0976 Y-84.7918 F120.00
G01 X133.0935 Y-84.7711 F120.00
G01 X133.0872 Y-84.7458 F120.00
G01 X133.0810 Y-84.7256 F120.00
G01 X133.0723 Y-84.7012 F120.00
G01 X133.0642 Y-84.6817 F120.00
G01 X133.0527 Y-84.6575 F120.00
G01 X133.0431 Y-84.6395 F120.00
G01 X133.0301 Y-84.6179 F120.00
G01 X133.0185 Y-84.6003 F120.00
G01 X133.0025 Y-84.5788 F120.00
G01 X132.9896 Y-84.5631 F120.00
G01 X132.9717 Y-84.5432 F120.00
G01 X132.9568 Y-84.5283 F120.00
G01 X132.9375 Y-84.5108 F120.00
G01 X132.9212 Y-84.4975 F120.00
G01 X132.9003 Y-84.4820 F120.00
G01 X132.8834 Y-84.4706 F120.00
G01 X132.8605 Y-84.4569 F120.00
G01 X132.8418 Y-84.4469 F120.00
G01 X132.8190 Y-84.4361 F120.00
G01 X132.7988 Y-84.4277 F120.00
G01 X132.7737 Y-84.4187 F120.00
G01 X132.7542 Y-84.4128 F120.00
G01 X132.7289 Y-84.4065 F120.00
G01 X132.7075 Y-84.4023 F120.00
G01 X132.6825 Y-84.3986 F120.00
G01 X132.6615 Y-84.3965 F120.00
G01 X132.6250 Y-84.3950 F120.00
G01 X131.9243 Y-84.3950 F120.00
G01 X131.8885 Y-84.3965 F120.00
G01 X131.8667 Y-84.3987 F120.00
G01 X131.8410 Y-84.4025 F120.00
G01 X131.8211 Y-84.4065 F120.00
G01 X131.7965 Y-84.4127 F120.00
G01 X131.7749 Y-84.4192 F120.00
G01 X131.7512 Y-84.4277 F120.00
G01 X131.7317 Y-84.4358 F120.00
G01 X131.7082 Y-84.4469 F120.00
G01 X131.6902 Y-84.4565 F120.00
G01 X131.6666 Y-84.4706 F120.00
G01 X131.6497 Y-84.4820 F120.00
G01 X131.6288 Y-84.4975 F120.00
G01 X131.6125 Y-84.5108 F120.00
G01 X131.5938 Y-84.5278 F120.00
G01 X131.5778 Y-84.5438 F120.00
G01 X131.5608 Y-84.5625 F120.00
G01 X131.5470 Y-84.5794 F120.00
G01 X131.5320 Y-84.5997 F120.00
G01 X131.5206 Y-84.6166 F120.00
G01 X131.5065 Y-84.6402 F120.00
G01 X131.4969 Y-84.6582 F120.00
G01 X131.4858 Y-84.6817 F120.00
G01 X131.4777 Y-84.7012 F120.00
G01 X131.4692 Y-84.7249 F120.00
G01 X131.4627 Y-84.7465 F120.00
G01 X131.4565 Y-84.7711 F120.00
G01 X131.4524 Y-84.7918 F120.00
G01 X131.4486 Y-84.8175 F120.00
G01 X131.4466 Y-84.8377 F120.00
G01 X131.4450 Y-84.8750 F120.00
M5
G00 X131.8040 Y-89.0599
G01 F60.00
M03 S5000.0
G01 F120.00
G01 X131.7894 Y-89.0651 F120.00
G01 X131.7706 Y-89.0729 F120.00
G01 X131.7546 Y-89.0805 F120.00
G01 X131.7367 Y-89.0901 F120.00
G01 X131.7228 Y-89.0984 F120.00
G01 X131.7053 Y-89.1101 F120.00
G01 X131.6928 Y-89.1193 F120.00
G01 X131.6754 Y-89.1336 F120.00
G01 X131.6639 Y-89.1440 F120.00
G01 X131.6490 Y-89.1589 F120.00
G01 X131.6377 Y-89.1715 F120.00
G01 X131.6248 Y-89.1872 F120.00
G01 X131.6151 Y-89.2002 F120.00
G01 X131.6030 Y-89.2184 F120.00
G01 X131.5951 Y-89.2317 F120.00
G01 X131.5851 Y-89.2503 F120.00
G01 X131.5782 Y-89.2649 F120.00
G01 X131.5704 Y-89.2837 F120.00
G01 X131.5647 Y-89.2997 F120.00
G01 X131.5585 Y-89.3199 F120.00
G01 X131.5548 Y-89.3348 F120.00
G01 X131.5505 Y-89.3563 F120.00
G01 X131.5481 Y-89.3723 F120.00
G01 X131.5461 Y-89.3925 F120.00
G01 X131.5450 Y-89.4196 F120.00
G01 X131.5450 Y-89.7200 F120.00
G01 X131.5460 Y-89.7460 F120.00
G01 X131.5482 Y-89.7684 F120.00
G01 X131.5505 Y-89.7837 F120.00
G01 X131.5546 Y-89.8044 F120.00
G01 X131.5587 Y-89.8208 F120.00
G01 X131.5647 Y-89.8403 F120.00
G01 X131.5701 Y-89.8556 F120.00
G01 X131.5782 Y-89.8751 F120.00
G01 X131.5851 Y-89.8897 F120.00
G01 X131.5951 Y-89.9083 F120.00
G01 X131.6034 Y-89.9222 F120.00
G01 X131.6151 Y-89.9397 F120.00
G01 X131.6248 Y-89.9528 F120.00
G01 X131.6381 Y-89.9691 F120.00
G01 X131.6495 Y-89.9816 F120.00
G01 X131.6639 Y-89.9960 F120.00
G01 X131.6765 Y-90.0073 F120.00
G01 X131.6922 Y-90.0202 F120.00
G01 X131.7047 Y-90.0295 F120.00
G01 X131.7222 Y-90.0412 F120.00
G01 X131.7367 Y-90.0499 F120.00
G01 X131.7553 Y-90.0599 F120.00
G01 X131.7699 Y-90.0668 F120.00
G01 X131.7894 Y-90.0749 F120.00
G01 X131.8047 Y-90.0803 F120.00
G01 X131.8249 Y-90.0865 F120.00
G01 X131.8406 Y-90.0904 F120.00
G01 X131.8613 Y-90.0945 F120.00
G01 X131.8773 Y-90.0969 F120.00
G01 X131.8975 Y-90.0989 F120.00
G01 X131.9246 Y-90.1000 F120.00
G01 X133.5750 Y-90.1000 F120.00
G01 X133.6017 Y-90.0990 F120.00
G01 X133.6220 Y-90.0970 F120.00
G01 X133.6395 Y-90.0944 F120.00
G01 X133.6594 Y-90.0904 F120.00
G01 X133.6744 Y-90.0866 F120.00
G01 X133.6953 Y-90.0803 F120.00
G01 X133.7113 Y-90.0746 F120.00
G01 X133.7301 Y-90.0668 F120.00
G01 X133.7440 Y-90.0602 F120.00
G01 X133.7633 Y-90.0499 F120.00
G01 X133.7778 Y-90.0412 F120.00
G01 X133.7948 Y-90.0299 F120.00
G01 X133.8078 Y-90.0202 F120.00
G01 X133.8246 Y-90.0064 F120.00
G01 X133.8361 Y-89.9960 F120.00
G01 X133.8510 Y-89.9811 F120.00
G01 X133.8623 Y-89.9685 F120.00
G01 X133.8752 Y-89.9528 F120.00
G01 X133.8845 Y-89.9403 F120.00
G01 X133.8966 Y-89.9222 F120.00
G01 X133.9053 Y-89.9077 F120.00
G01 X133.9149 Y-89.8897 F120.00
G01 X133.9215 Y-89.8757 F120.00
G01 X133.9299 Y-89.8556 F120.00
G01 X133.9353 Y-89.8403 F120.00
G01 X133.9415 Y-89.8201 F120.00
G01 X133.9454 Y-89.8044 F120.00
G01 X133.9494 Y-89.7845 F120.00
G01 X133.9519 Y-89.7677 F120.00
G01 X133.9539 Y-89.7475 F120.00
G01 X133.9550 Y-89.7207 F120.00
G01 X133.9550 Y-89.4200 F120.00
G01 X133.9547 Y-89.4091 F120.00
G01 X133.9539 Y-89.3925 F120.00
G01 X133.9519 Y-89.3723 F120.00
G01 X133.9496 Y-89.3570 F120.00
G01 X133.9454 Y-89.3356 F120.00
G01 X133.9415 Y-89.3199 F120.00
G01 X133.9353 Y-89.2997 F120.00
G01 X133.9296 Y-89.2837 F120.00
G01 X133.9215 Y-89.2643 F120.00
G01 X133.9149 Y-89.2503 F120.00
G01 X133.9053 Y-89.2323 F120.00
G01 X133.8966 Y-89.2178 F120.00
G01 X133.8849 Y-89.2002 F120.00
G01 X133.8752 Y-89.1872 F120.00
G01 X133.8614 Y-89.1704 F120.00
G01 X133.8505 Y-89.1584 F120.00
G01 X133.8361 Y-89.1440 F120.00
G01 X133.8246 Y-89.1336 F120.00
G01 X133.8078 Y-89.1198 F120.00
G01 X133.7948 Y-89.1101 F120.00
G01 X133.7772 Y-89.0984 F120.00
G01 X133.7627 Y-89.0897 F120.00
G01 X133.7447 Y-89.0801 F120.00
G01 X133.7307 Y-89.0735 F120.00
G01 X133.7106 Y-89.0651 F120.00
G01 X133.6953 Y-89.0597 F120.00
G01 X133.6751 Y-89.0535 F120.00
G01 X133.6594 Y-89.0496 F120.00
G01 X133.6387 Y-89.0455 F120.00
G01 X133.6227 Y-89.0431 F120.00
G01 X133.6017 Y-89.0410 F120.00
G01 X133.5750 Y-89.0400 F120.00
G01 X131.9246 Y-89.0400 F120.00
G01 X131.8975 Y-89.0411 F120.00
G01 X131.8773 Y-89.0431 F120.00
G01 X131.8613 Y-89.0455 F120.00
G01 X131.8406 Y-89.0496 F120.00
G01 X131.8256 Y-89.0533 F120.00
G01 X131.8040 Y-89.0599 F120.00
M5
G00 X131.8040 Y-90.3299
G01 F60.00
M03 S5000.0
G01 F120.00
G01 X131.7894 Y-90.3351 F120.00
G01 X131.7706 Y-90.3429 F120.00
G01 X131.7546 Y-90.3505 F120.00
G01 X131.7367 Y-90.3601 F120.00
G01 X131.7228 Y-90.3684 F120.00
G01 X131.7052 Y-90.3801 F120.00
G01 X131.6928 Y-90.3893 F120.00
G01 X131.6754 Y-90.4036 F120.00
G01 X131.6639 Y-90.4140 F120.00
G01 X131.6490 Y-90.4289 F120.00
G01 X131.6377 Y-90.4415 F120.00
G01 X131.6248 Y-90.4572 F120.00
G01 X131.6151 Y-90.4703 F120.00
G01 X131.6030 Y-90.4884 F120.00
G01 X131.5951 Y-90.5017 F120.00
G01 X131.5851 Y-90.5203 F120.00
G01 X131.5782 Y-90.5349 F120.00
G01 X131.5704 Y-90.5537 F120.00
G01 X131.5647 Y-90.5697 F120.00
G01 X131.5585 Y-90.5899 F120.00
G01 X131.5548 Y-90.6049 F120.00
G01 X131.5505 Y-90.6263 F120.00
G01 X131.5481 Y-90.6423 F120.00
G01 X131.5461 Y-90.6625 F120.00
G01 X131.5450 Y-90.6896 F120.00
G01 X131.5450 Y-90.9900 F120.00
G01 X131.5460 Y-91.0160 F120.00
G01 X131.5482 Y-91.0385 F120.00
G01 X131.5505 Y-91.0537 F120.00
G01 X131.5546 Y-91.0744 F120.00
G01 X131.5587 Y-91.0908 F120.00
G01 X131.5647 Y-91.1103 F120.00
G01 X131.5701 Y-91.1256 F120.00
G01 X131.5782 Y-91.1451 F120.00
G01 X131.5851 Y-91.1597 F120.00
G01 X131.5951 Y-91.1783 F120.00
G01 X131.6034 Y-91.1922 F120.00
G01 X131.6151 Y-91.2097 F120.00
G01 X131.6248 Y-91.2228 F120.00
G01 X131.6381 Y-91.2391 F120.00
G01 X131.6495 Y-91.2516 F120.00
G01 X131.6639 Y-91.2660 F120.00
G01 X131.6765 Y-91.2773 F120.00
G01 X131.6922 Y-91.2902 F120.00
G01 X131.7047 Y-91.2995 F120.00
G01 X131.7222 Y-91.3112 F120.00
G01 X131.7367 Y-91.3199 F120.00
G01 X131.7553 Y-91.3299 F120.00
G01 X131.7699 Y-91.3368 F120.00
G01 X131.7894 Y-91.3449 F120.00
G01 X131.8047 Y-91.3503 F120.00
G01 X131.8249 Y-91.3565 F120.00
G01 X131.8406 Y-91.3604 F120.00
G01 X131.8613 Y-91.3645 F120.00
G01 X131.8773 Y-91.3669 F120.00
G01 X131.8975 Y-91.3689 F120.00
G01 X131.9246 Y-91.3700 F120.00
G01 X133.5750 Y-91.3700 F120.00
G01 X133.6017 Y-91.3690 F120.00
G01 X133.6220 Y-91.3670 F120.00
G01 X133.6395 Y-91.3644 F120.00
G01 X133.6594 Y-91.3604 F120.00
G01 X133.6744 Y-91.3566 F120.00
G01 X133.6953 Y-91.3503 F120.00
G01 X133.7113 Y-91.3446 F120.00
G01 X133.7301 Y-91.3368 F120.00
G01 X133.7440 Y-91.3302 F120.00
G01 X133.7633 Y-91.3199 F120.00
G01 X133.7778 Y-91.3112 F120.00
G01 X133.7948 Y-91.2999 F120.00
G01 X133.8078 Y-91.2902 F120.00
G01 X133.8246 Y-91.2764 F120.00
G01 X133.8361 Y-91.2660 F120.00
G01 X133.8510 Y-91.2511 F120.00
G01 X133.8623 Y-91.2385 F120.00
G01 X133.8752 Y-91.2228 F120.00
G01 X133.8845 Y-91.2103 F120.00
G01 X133.8966 Y-91.1922 F120.00
G01 X133.9053 Y-91.1777 F120.00
G01 X133.9149 Y-91.1597 F120.00
G01 X133.9215 Y-91.1457 F120.00
G01 X133.9299 Y-91.1256 F120.00
G01 X133.9353 Y-91.1103 F120.00
G01 X133.9415 Y-91.0901 F120.00
G01 X133.9454 Y-91.0744 F120.00
G01 X133.9494 Y-91.0545 F120.00
G01 X133.9519 Y-91.0377 F120.00
G01 X133.9539 Y-91.0175 F120.00
G01 X133.9550 Y-90.9907 F120.00
G01 X133.9550 Y-90.6900 F120.00
G01 X133.9547 Y-90.6791 F120.00
G01 X133.9539 Y-90.6625 F120.00
G01 X133.9519 Y-90.6423 F120.00
G01 X133.9496 Y-90.6270 F120.00
G01 X133.9454 Y-90.6056 F120.00
G01 X133.9415 Y-90.5899 F120.00
G01 X133.9353 Y-90.5697 F120.00
G01 X133.9296 Y-90.5537 F120.00
G01 X133.9215 Y-90.5343 F120.00
G01 X133.9149 Y-90.5203 F120.00
G01 X133.9053 Y-90.5023 F120.00
G01 X133.8966 Y-90.4878 F120.00
G01 X133.8849 Y-90.4703 F120.00
G01 X133.8752 Y-90.4572 F120.00
G01 X133.8614 Y-90.4404 F120.00
G01 X133.8505 Y-90.4284 F120.00
G01 X133.8361 Y-90.4140 F120.00
G01 X133.8246 Y-90.4036 F120.00
G01 X133.8078 Y-90.3898 F120.00
G01 X133.7948 Y-90.3801 F120.00
G01 X133.7772 Y-90.3684 F120.00
G01 X133.7627 Y-90.3597 F120.00
G01 X133.7447 Y-90.3501 F120.00
G01 X133.7307 Y-90.3435 F120.00
G01 X133.7106 Y-90.3351 F120.00
G01 X133.6953 Y-90.3297 F120.00
G01 X133.6751 Y-90.3235 F120.00
G01 X133.6594 Y-90.3196 F120.00
G01 X133.6387 Y-90.3155 F120.00
G01 X133.6227 Y-90.3131 F120.00
G01 X133.6017 Y-90.3110 F120.00
G01 X133.5750 Y-90.3100 F120.00
G01 X131.9246 Y-90.3100 F120.00
G01 X131.8975 Y-90.3111 F120.00
G01 X131.8773 Y-90.3131 F120.00
G01 X131.8613 Y-90.3155 F120.00
G01 X131.8406 Y-90.3196 F120.00
G01 X131.8256 Y-90.3234 F120.00
G01 X131.8040 Y-90.3299 F120.00
M5
G00 X131.8040 Y-91.5999
G01 F60.00
M03 S5000.0
G01 F120.00
G01 X131.7894 Y-91.6051 F120.00
G01 X131.7706 Y-91.6129 F120.00
G01 X131.7546 Y-91.6205 F120.00
G01 X131.7367 Y-91.6301 F120.00
G01 X131.7228 Y-91.6384 F120.00
G01 X131.7052 Y-91.6501 F120.00
G01 X131.6928 Y-91.6593 F120.00
G01 X131.6754 Y-91.6736 F120.00
G01 X131.6639 Y-91.6840 F120.00
G01 X131.6490 Y-91.6989 F120.00
G01 X131.6377 Y-91.7115 F120.00
G01 X131.6248 Y-91.7272 F120.00
G01 X131.6151 Y-91.7403 F120.00
G01 X131.6030 Y-91.7584 F120.00
G01 X131.5951 Y-91.7717 F120.00
G01 X131.5851 Y-91.7903 F120.00
G01 X131.5782 Y-91.8049 F120.00
G01 X131.5704 Y-91.8237 F120.00
G01 X131.5647 Y-91.8397 F120.00
G01 X131.5585 Y-91.8599 F120.00
G01 X131.5548 Y-91.8749 F120.00
G01 X131.5505 Y-91.8963 F120.00
G01 X131.5481 Y-91.9123 F120.00
G01 X131.5461 Y-91.9325 F120.00
G01 X131.5450 Y-91.9596 F120.00
G01 X131.5450 Y-92.2600 F120.00
G01 X131.5460 Y-92.2860 F120.00
G01 X131.5482 Y-92.3085 F120.00
G01 X131.5505 Y-92.3237 F120.00
G01 X131.5546 Y-92.3444 F120.00
G01 X131.5587 Y-92.3608 F120.00
G01 X131.5647 Y-92.3803 F120.00
G01 X131.5701 Y-92.3956 F120.00
G01 X131.5782 Y-92.4151 F120.00
G01 X131.5851 Y-92.4297 F120.00
G01 X131.5951 Y-92.4483 F120.00
G01 X131.6034 Y-92.4622 F120.00
G01 X131.6151 Y-92.4797 F120.00
G01 X131.6248 Y-92.4928 F120.00
G01 X131.6381 Y-92.5091 F120.00
G01 X131.6495 Y-92.5216 F120.00
G01 X131.6639 Y-92.5360 F120.00
G01 X131.6765 Y-92.5473 F120.00
G01 X131.6922 Y-92.5602 F120.00
G01 X131.7047 Y-92.5695 F120.00
G01 X131.7222 Y-92.5812 F120.00
G01 X131.7367 Y-92.5899 F120.00
G01 X131.7553 Y-92.5999 F120.00
G01 X131.7699 Y-92.6068 F120.00
G01 X131.7894 Y-92.6149 F120.00
G01 X131.8047 Y-92.6203 F120.00
G01 X131.8249 Y-92.6265 F120.00
G01 X131.8406 Y-92.6304 F120.00
G01 X131.8613 Y-92.6345 F120.00
G01 X131.8773 Y-92.6369 F120.00
G01 X131.8975 Y-92.6389 F120.00
G01 X131.9246 Y-92.6400 F120.00
G01 X133.5750 Y-92.6400 F120.00
G01 X133.6017 Y-92.6390 F120.00
G01 X133.6220 Y-92.6370 F120.00
G01 X133.6395 Y-92.6344 F120.00
G01 X133.6594 Y-92.6304 F120.00
G01 X133.6744 Y-92.6266 F120.00
G01 X133.6953 Y-92.6203 F120.00
G01 X133.7113 Y-92.6146 F120.00
G01 X133.7301 Y-92.6068 F120.00
G01 X133.7440 Y-92.6002 F120.00
G01 X133.7633 Y-92.5899 F120.00
G01 X133.7778 Y-92.5812 F120.00
G01 X133.7948 Y-92.5699 F120.00
G01 X133.8078 Y-92.5602 F120.00
G01 X133.8246 Y-92.5464 F120.00
G01 X133.8361 Y-92.5360 F120.00
G01 X133.8510 Y-92.5211 F120.00
G01 X133.8623 Y-92.5085 F120.00
G01 X133.8752 Y-92.4928 F120.00
G01 X133.8845 Y-92.4803 F120.00
G01 X133.8966 Y-92.4622 F120.00
G01 X133.9053 Y-92.4477 F120.00
G01 X133.9149 Y-92.4297 F120.00
G01 X133.9215 Y-92.4157 F120.00
G01 X133.9299 Y-92.3956 F120.00
G01 X133.9353 Y-92.3803 F120.00
G01 X133.9415 Y-92.3601 F120.00
G01 X133.9454 Y-92.3444 F120.00
G01 X133.9494 Y-92.3245 F120.00
G01 X133.9519 Y-92.3077 F120.00
G01 X133.9539 Y-92.2875 F120.00
G01 X133.9550 Y-92.2607 F120.00
G01 X133.9550 Y-91.9600 F120.00
G01 X133.9547 Y-91.9491 F120.00
G01 X133.9539 Y-91.9325 F120.00
G01 X133.9519 Y-91.9123 F120.00
G01 X133.9496 Y-91.8970 F120.00
G01 X133.9454 Y-91.8756 F120.00
G01 X133.9415 Y-91.8599 F120.00
G01 X133.9353 Y-91.8397 F120.00
G01 X133.9296 Y-91.8237 F120.00
G01 X133.9215 Y-91.8043 F120.00
G01 X133.9149 Y-91.7903 F120.00
G01 X133.9053 Y-91.7723 F120.00
G01 X133.8966 Y-91.7578 F120.00
G01 X133.8849 Y-91.7403 F120.00
G01 X133.8752 Y-91.7272 F120.00
G01 X133.8614 Y-91.7104 F120.00
G01 X133.8505 Y-91.6984 F120.00
G01 X133.8361 Y-91.6840 F120.00
G01 X133.8246 Y-91.6736 F120.00
G01 X133.8078 Y-91.6598 F120.00
G01 X133.7948 Y-91.6501 F120.00
G01 X133.7772 Y-91.6384 F120.00
G01 X133.7627 Y-91.6297 F120.00
G01 X133.7447 Y-91.6201 F120.00
G01 X133.7307 Y-91.6135 F120.00
G01 X133.7106 Y-91.6051 F120.00
G01 X133.6953 Y-91.5997 F120.00
G01 X133.6751 Y-91.5935 F120.00
G01 X133.6594 Y-91.5896 F120.00
G01 X133.6387 Y-91.5855 F120.00
G01 X133.6227 Y-91.5831 F120.00
G01 X133.6017 Y-91.5810 F120.00
G01 X133.5750 Y-91.5800 F120.00
G01 X131.9246 Y-91.5800 F120.00
G01 X131.8975 Y-91.5811 F120.00
G01 X131.8773 Y-91.5831 F120.00
G01 X131.8613 Y-91.5855 F120.00
G01 X131.8406 Y-91.5896 F120.00
G01 X131.8256 Y-91.5934 F120.00
G01 X131.8040 Y-91.5999 F120.00
M5
G00 X131.8040 Y-92.8699
G01 F60.00
M03 S5000.0
G01 F120.00
G01 X131.7894 Y-92.8751 F120.00
G01 X131.7706 Y-92.8829 F120.00
G01 X131.7546 Y-92.8905 F120.00
G01 X131.7367 Y-92.9001 F120.00
G01 X131.7228 Y-92.9084 F120.00
G01 X131.7052 Y-92.9201 F120.00
G01 X131.6928 Y-92.9293 F120.00
G01 X131.6754 Y-92.9436 F120.00
G01 X131.6639 Y-92.9540 F120.00
G01 X131.6490 Y-92.9689 F120.00
G01 X131.6377 Y-92.9815 F120.00
G01 X131.6248 Y-92.9972 F120.00
G01 X131.6151 Y-93.0103 F120.00
G01 X131.6030 Y-93.0284 F120.00
G01 X131.5951 Y-93.0417 F120.00
G01 X131.5851 Y-93.0603 F120.00
G01 X131.5782 Y-93.0749 F120.00
G01 X131.5704 Y-93.0937 F120.00
G01 X131.5647 Y-93.1097 F120.00
G01 X131.5585 Y-93.1299 F120.00
G01 X131.5548 Y-93.1449 F120.00
G01 X131.5505 Y-93.1663 F120.00
G01 X131.5481 Y-93.1823 F120.00
G01 X131.5461 Y-93.2025 F120.00
G01 X131.5450 Y-93.2296 F120.00
G01 X131.5450 Y-93.5300 F120.00
G01 X131.5460 Y-93.5560 F120.00
G01 X131.5482 Y-93.5785 F120.00
G01 X131.5505 Y-93.5937 F120.00
G01 X131.5546 Y-93.6144 F120.00
G01 X131.5587 Y-93.6308 F120.00
G01 X131.5647 Y-93.6503 F120.00
G01 X131.5701 Y-93.6656 F120.00
G01 X131.5782 Y-93.6851 F120.00
G01 X131.5851 Y-93.6997 F120.00
G01 X131.5951 Y-93.7183 F120.00
G01 X131.6034 Y-93.7322 F120.00
G01 X131.6151 Y-93.7498 F120.00
G01 X131.6248 Y-93.7628 F120.00
G01 X131.6381 Y-93.7791 F120.00
G01 X131.6495 Y-93.7916 F120.00
G01 X131.6639 Y-93.8060 F120.00
G01 X131.6765 Y-93.8173 F120.00
G01 X131.6922 Y-93.8302 F120.00
G01 X131.7047 Y-93.8395 F120.00
G01 X131.7222 Y-93.8512 F120.00
G01 X131.7367 Y-93.8599 F120.00
G01 X131.7553 Y-93.8699 F120.00
G01 X131.7699 Y-93.8768 F120.00
G01 X131.7894 Y-93.8849 F120.00
G01 X131.8047 Y-93.8903 F120.00
G01 X131.8249 Y-93.8965 F120.00
G01 X131.8406 Y-93.9004 F120.00
G01 X131.8613 Y-93.9045 F120.00
G01 X131.8773 Y-93.9069 F120.00
G01 X131.8975 Y-93.9089 F120.00
G01 X131.9246 Y-93.9100 F120.00
G01 X133.5750 Y-93.9100 F120.00
G01 X133.6017 Y-93.9090 F120.00
G01 X133.6220 Y-93.9070 F120.00
G01 X133.6395 Y-93.9044 F120.00
G01 X133.6594 Y-93.9004 F120.00
G01 X133.6744 Y-93.8966 F120.00
G01 X133.6953 Y-93.8903 F120.00
G01 X133.7113 Y-93.8846 F120.00
G01 X133.7301 Y-93.8768 F120.00
G01 X133.7440 Y-93.8702 F120.00
G01 X133.7633 Y-93.8599 F120.00
G01 X133.7778 Y-93.8512 F120.00
G01 X133.7948 Y-93.8399 F120.00
G01 X133.8078 Y-93.8302 F120.00
G01 X133.8246 Y-93.8164 F120.00
G01 X133.8361 Y-93.8060 F120.00
G01 X133.8510 Y-93.7911 F120.00
G01 X133.8623 Y-93.7785 F120.00
G01 X133.8752 Y-93.7628 F120.00
G01 X133.8845 Y-93.7503 F120.00
G01 X133.8966 Y-93.7322 F120.00
G01 X133.9053 Y-93.7177 F120.00
G01 X133.9149 Y-93.6997 F120.00
G01 X133.9215 Y-93.6857 F120.00
G01 X133.9299 Y-93.6656 F120.00
G01 X133.9353 Y-93.6503 F120.00
G01 X133.9415 Y-93.6301 F120.00
G01 X133.9454 Y-93.6144 F120.00
G01 X133.9494 Y-93.5945 F120.00
G01 X133.9519 Y-93.5777 F120.00
G01 X133.9539 Y-93.5575 F120.00
G01 X133.9550 Y-93.5307 F120.00
G01 X133.9550 Y-93.2300 F120.00
G01 X133.9547 Y-93.2191 F120.00
G01 X133.9539 Y-93.2025 F120.00
G01 X133.9519 Y-93.1823 F120.00
G01 X133.9496 Y-93.1670 F120.00
G01 X133.9454 Y-93.1456 F120.00
G01 X133.9415 Y-93.1299 F120.00
G01 X133.9353 Y-93.1097 F120.00
G01 X133.9296 Y-93.0937 F120.00
G01 X133.9215 Y-93.0743 F120.00
G01 X133.9149 Y-93.0603 F120.00
G01 X133.9053 Y-93.0423 F120.00
G01 X133.8966 Y-93.0278 F120.00
G01 X133.8849 Y-93.0103 F120.00
G01 X133.8752 Y-92.9972 F120.00
G01 X133.8614 Y-92.9804 F120.00
G01 X133.8505 Y-92.9684 F120.00
G01 X133.8361 Y-92.9540 F120.00
G01 X133.8246 Y-92.9436 F120.00
G01 X133.8078 Y-92.9298 F120.00
G01 X133.7948 Y-92.9201 F120.00
G01 X133.7772 Y-92.9084 F120.00
G01 X133.7627 Y-92.8997 F120.00
G01 X133.7447 Y-92.8901 F120.00
G01 X133.7307 Y-92.8835 F120.00
G01 X133.7106 Y-92.8751 F120.00
G01 X133.6953 Y-92.8697 F120.00
G01 X133.6751 Y-92.8635 F120.00
G01 X133.6594 Y-92.8596 F120.00
G01 X133.6387 Y-92.8555 F120.00
G01 X133.6227 Y-92.8531 F120.00
G01 X133.6017 Y-92.8510 F120.00
G01 X133.5750 Y-92.8500 F120.00
G01 X131.9246 Y-92.8500 F120.00
G01 X131.8975 Y-92.8511 F120.00
G01 X131.8773 Y-92.8531 F120.00
G01 X131.8613 Y-92.8555 F120.00
G01 X131.8406 Y-92.8596 F120.00
G01 X131.8256 Y-92.8634 F120.00
G01 X131.8040 Y-92.8699 F120.00
M5
G00 X134.2896 Y-93.7786
G01 F60.00
M03 S5000.0
G01 F120.00
G01 X134.2519 Y-93.7921 F120.00
G01 X134.2279 Y-93.8020 F120.00
G01 X134.1911 Y-93.8194 F120.00
G01 X134.1681 Y-93.8317 F120.00
G01 X134.1332 Y-93.8526 F120.00
G01 X134.1116 Y-93.8671 F120.00
G01 X134.0789 Y-93.8913 F120.00
G01 X134.0588 Y-93.9078 F120.00
G01 X134.0286 Y-93.9352 F120.00
G01 X134.0102 Y-93.9536 F120.00
G01 X133.9828 Y-93.9838 F120.00
G01 X133.9663 Y-94.0039 F120.00
G01 X133.9421 Y-94.0366 F120.00
G01 X133.9276 Y-94.0582 F120.00
G01 X133.9067 Y-94.0931 F120.00
G01 X133.8944 Y-94.1161 F120.00
G01 X133.8770 Y-94.1529 F120.00
G01 X133.8671 Y-94.1769 F120.00
G01 X133.8534 Y-94.2153 F120.00
G01 X133.8458 Y-94.2401 F120.00
G01 X133.8359 Y-94.2796 F120.00
G01 X133.8308 Y-94.3052 F120.00
G01 X133.8249 Y-94.3454 F120.00
G01 X133.8223 Y-94.3713 F120.00
G01 X133.8203 Y-94.4120 F120.00
G01 X133.8203 Y-94.4380 F120.00
G01 X133.8223 Y-94.4787 F120.00
G01 X133.8249 Y-94.5046 F120.00
G01 X133.8308 Y-94.5448 F120.00
G01 X133.8359 Y-94.5704 F120.00
G01 X133.8458 Y-94.6099 F120.00
G01 X133.8534 Y-94.6347 F120.00
G01 X133.8671 Y-94.6731 F120.00
G01 X133.8770 Y-94.6971 F120.00
G01 X133.8944 Y-94.7339 F120.00
G01 X133.9067 Y-94.7569 F120.00
G01 X133.9276 Y-94.7918 F120.00
G01 X133.9421 Y-94.8134 F120.00
G01 X133.9663 Y-94.8461 F120.00
G01 X133.9828 Y-94.8662 F120.00
G01 X134.0102 Y-94.8964 F120.00
G01 X134.0286 Y-94.9148 F120.00
G01 X134.0588 Y-94.9422 F120.00
G01 X134.0789 Y-94.9587 F120.00
G01 X134.1116 Y-94.9829 F120.00
G01 X134.1332 Y-94.9974 F120.00
G01 X134.1681 Y-95.0183 F120.00
G01 X134.1911 Y-95.0306 F120.00
G01 X134.2279 Y-95.0480 F120.00
G01 X134.2519 Y-95.0579 F120.00
G01 X134.2903 Y-95.0716 F120.00
G01 X134.3151 Y-95.0792 F120.00
G01 X134.3546 Y-95.0891 F120.00
G01 X134.3802 Y-95.0942 F120.00
G01 X134.4204 Y-95.1001 F120.00
G01 X134.4463 Y-95.1027 F120.00
G01 X134.4870 Y-95.1047 F120.00
G01 X134.5130 Y-95.1047 F120.00
G01 X134.5537 Y-95.1027 F120.00
G01 X134.5796 Y-95.1001 F120.00
G01 X134.6198 Y-95.0942 F120.00
G01 X134.6454 Y-95.0891 F120.00
G01 X134.6849 Y-95.0792 F120.00
G01 X134.7097 Y-95.0716 F120.00
G01 X134.7481 Y-95.0579 F120.00
G01 X134.7721 Y-95.0480 F120.00
G01 X134.8089 Y-95.0306 F120.00
G01 X134.8319 Y-95.0183 F120.00
G01 X134.8668 Y-94.9974 F120.00
G01 X134.8884 Y-94.9829 F120.00
G01 X134.9211 Y-94.9587 F120.00
G01 X134.9412 Y-94.9422 F120.00
G01 X134.9714 Y-94.9148 F120.00
G01 X134.9898 Y-94.8964 F120.00
G01 X135.0172 Y-94.8662 F120.00
G01 X135.0337 Y-94.8461 F120.00
G01 X135.0579 Y-94.8134 F120.00
G01 X135.0724 Y-94.7918 F120.00
G01 X135.0933 Y-94.7569 F120.00
G01 X135.1056 Y-94.7339 F120.00
G01 X135.1230 Y-94.6971 F120.00
G01 X135.1329 Y-94.6731 F120.00
G01 X135.1466 Y-94.6347 F120.00
G01 X135.1542 Y-94.6099 F120.00
G01 X135.1641 Y-94.5704 F120.00
G01 X135.1692 Y-94.5448 F120.00
G01 X135.1751 Y-94.5046 F120.00
G01 X135.1777 Y-94.4787 F120.00
G01 X135.1797 Y-94.4380 F120.00
G01 X135.1797 Y-94.4120 F120.00
G01 X135.1777 Y-94.3713 F120.00
G01 X135.1751 Y-94.3454 F120.00
G01 X135.1692 Y-94.3052 F120.00
G01 X135.1641 Y-94.2796 F120.00
G01 X135.1542 Y-94.2401 F120.00
G01 X135.1466 Y-94.2153 F120.00
G01 X135.1329 Y-94.1769 F120.00
G01 X135.1230 Y-94.1529 F120.00
G01 X135.1056 Y-94.1161 F120.00
G01 X135.0933 Y-94.0931 F120.00
G01 X135.0724 Y-94.0582 F120.00
G01 X135.0579 Y-94.0366 F120.00
G01 X135.0337 Y-94.0039 F120.00
G01 X135.0172 Y-93.9838 F120.00
G01 X134.9898 Y-93.9536 F120.00
G01 X134.9714 Y-93.9352 F120.00
G01 X134.9412 Y-93.9078 F120.00
G01 X134.9211 Y-93.8913 F120.00
G01 X134.8884 Y-93.8671 F120.00
G01 X134.8668 Y-93.8526 F120.00
G01 X134.8319 Y-93.8317 F120.00
G01 X134.8089 Y-93.8194 F120.00
G01 X134.7721 Y-93.8020 F120.00
G01 X134.7481 Y-93.7921 F120.00
G01 X134.7097 Y-93.7784 F120.00
G01 X134.6849 Y-93.7708 F120.00
G01 X134.6454 Y-93.7609 F120.00
G01 X134.6198 Y-93.7558 F120.00
G01 X134.5796 Y-93.7499 F120.00
G01 X134.5537 Y-93.7473 F120.00
G01 X134.5130 Y-93.7453 F120.00
G01 X134.4870 Y-93.7453 F120.00
G01 X134.4463 Y-93.7473 F120.00
G01 X134.4204 Y-93.7499 F120.00
G01 X134.3802 Y-93.7558 F120.00
G01 X134.3546 Y-93.7609 F120.00
G01 X134.3151 Y-93.7708 F120.00
G01 X134.2896 Y-93.7786 F120.00
M5
G00 X136.7540 Y-92.8699
G01 F60.00
M03 S5000.0
G01 F120.00
G01 X136.7394 Y-92.8751 F120.00
G01 X136.7206 Y-92.8829 F120.00
G01 X136.7046 Y-92.8905 F120.00
G01 X136.6867 Y-92.9001 F120.00
G01 X136.6728 Y-92.9084 F120.00
G01 X136.6552 Y-92.9201 F120.00
G01 X136.6428 Y-92.9293 F120.00
G01 X136.6254 Y-92.9436 F120.00
G01 X136.6139 Y-92.9540 F120.00
G01 X136.5990 Y-92.9689 F120.00
G01 X136.5877 Y-92.9815 F120.00
G01 X136.5748 Y-92.9972 F120.00
G01 X136.5651 Y-93.0103 F120.00
G01 X136.5530 Y-93.0284 F120.00
G01 X136.5451 Y-93.0417 F120.00
G01 X136.5351 Y-93.0603 F120.00
G01 X136.5282 Y-93.0749 F120.00
G01 X136.5204 Y-93.0937 F120.00
G01 X136.5147 Y-93.1097 F120.00
G01 X136.5085 Y-93.1299 F120.00
G01 X136.5048 Y-93.1449 F120.00
G01 X136.5005 Y-93.1663 F120.00
G01 X136.4981 Y-93.1823 F120.00
G01 X136.4961 Y-93.2025 F120.00
G01 X136.4950 Y-93.2296 F120.00
G01 X136.4950 Y-93.5300 F120.00
G01 X136.4960 Y-93.5560 F120.00
G01 X136.4982 Y-93.5785 F120.00
G01 X136.5005 Y-93.5937 F120.00
G01 X136.5046 Y-93.6144 F120.00
G01 X136.5087 Y-93.6308 F120.00
G01 X136.5147 Y-93.6503 F120.00
G01 X136.5201 Y-93.6656 F120.00
G01 X136.5282 Y-93.6851 F120.00
G01 X136.5351 Y-93.6997 F120.00
G01 X136.5451 Y-93.7183 F120.00
G01 X136.5534 Y-93.7322 F120.00
G01 X136.5651 Y-93.7498 F120.00
G01 X136.5748 Y-93.7628 F120.00
G01 X136.5881 Y-93.7791 F120.00
G01 X136.5995 Y-93.7916 F120.00
G01 X136.6139 Y-93.8060 F120.00
G01 X136.6265 Y-93.8173 F120.00
G01 X136.6422 Y-93.8302 F120.00
G01 X136.6547 Y-93.8395 F120.00
G01 X136.6722 Y-93.8512 F120.00
G01 X136.6867 Y-93.8599 F120.00
G01 X136.7053 Y-93.8699 F120.00
G01 X136.7199 Y-93.8768 F120.00
G01 X136.7394 Y-93.8849 F120.00
G01 X136.7547 Y-93.8903 F120.00
G01 X136.7749 Y-93.8965 F120.00
G01 X136.7906 Y-93.9004 F120.00
G01 X136.8113 Y-93.9045 F120.00
G01 X136.8273 Y-93.9069 F120.00
G01 X136.8475 Y-93.9089 F120.00
G01 X136.8746 Y-93.9100 F120.00
G01 X138.5250 Y-93.9100 F120.00
G01 X138.5517 Y-93.9090 F120.00
G01 X138.5720 Y-93.9070 F120.00
G01 X138.5895 Y-93.9044 F120.00
G01 X138.6094 Y-93.9004 F120.00
G01 X138.6244 Y-93.8967 F120.00
G01 X138.6453 Y-93.8903 F120.00
G01 X138.6613 Y-93.8846 F120.00
G01 X138.6801 Y-93.8768 F120.00
G01 X138.6940 Y-93.8702 F120.00
G01 X138.7133 Y-93.8599 F120.00
G01 X138.7278 Y-93.8512 F120.00
G01 X138.7447 Y-93.8399 F120.00
G01 X138.7578 Y-93.8302 F120.00
G01 X138.7746 Y-93.8164 F120.00
G01 X138.7861 Y-93.8060 F120.00
G01 X138.8010 Y-93.7911 F120.00
G01 X138.8123 Y-93.7785 F120.00
G01 X138.8252 Y-93.7628 F120.00
G01 X138.8345 Y-93.7503 F120.00
G01 X138.8466 Y-93.7322 F120.00
G01 X138.8553 Y-93.7177 F120.00
G01 X138.8649 Y-93.6997 F120.00
G01 X138.8715 Y-93.6857 F120.00
G01 X138.8799 Y-93.6656 F120.00
G01 X138.8853 Y-93.6503 F120.00
G01 X138.8915 Y-93.6301 F120.00
G01 X138.8954 Y-93.6144 F120.00
G01 X138.8994 Y-93.5945 F120.00
G01 X138.9019 Y-93.5777 F120.00
G01 X138.9039 Y-93.5575 F120.00
G01 X138.9050 Y-93.5307 F120.00
G01 X138.9050 Y-93.2300 F120.00
G01 X138.9047 Y-93.2191 F120.00
G01 X138.9039 Y-93.2025 F120.00
G01 X138.9019 Y-93.1823 F120.00
G01 X138.8996 Y-93.1670 F120.00
G01 X138.8954 Y-93.1456 F120.00
G01 X138.8915 Y-93.1299 F120.00
G01 X138.8853 Y-93.1097 F120.00
G01 X138.8796 Y-93.0937 F120.00
G01 X138.8715 Y-93.0743 F120.00
G01 X138.8649 Y-93.0603 F120.00
G01 X138.8553 Y-93.0423 F120.00
G01 X138.8466 Y-93.0278 F120.00
G01 X138.8349 Y-93.0103 F120.00
G01 X138.8252 Y-92.9972 F120.00
G01 X138.8114 Y-92.9804 F120.00
G01 X138.8005 Y-92.9684 F120.00
G01 X138.7861 Y-92.9540 F120.00
G01 X138.7746 Y-92.9436 F120.00
G01 X138.7578 Y-92.9298 F120.00
G01 X138.7447 Y-92.9201 F120.00
G01 X138.7272 Y-92.9084 F120.00
G01 X138.7127 Y-92.8997 F120.00
G01 X138.6947 Y-92.8901 F120.00
G01 X138.6807 Y-92.8835 F120.00
G01 X138.6606 Y-92.8751 F120.00
G01 X138.6453 Y-92.8697 F120.00
G01 X138.6251 Y-92.8635 F120.00
G01 X138.6094 Y-92.8596 F120.00
G01 X138.5887 Y-92.8555 F120.00
G01 X138.5727 Y-92.8531 F120.00
G01 X138.5517 Y-92.8510 F120.00
G01 X138.5250 Y-92.8500 F120.00
G01 X136.8746 Y-92.8500 F120.00
G01 X136.8475 Y-92.8511 F120.00
G01 X136.8273 Y-92.8531 F120.00
G01 X136.8113 Y-92.8555 F120.00
G01 X136.7906 Y-92.8596 F120.00
G01 X136.7756 Y-92.8634 F120.00
G01 X136.7540 Y-92.8699 F120.00
M5
G00 X136.7540 Y-91.5999
G01 F60.00
M03 S5000.0
G01 F120.00
G01 X136.7394 Y-91.6051 F120.00
G01 X136.7206 Y-91.6129 F120.00
G01 X136.7046 Y-91.6205 F120.00
G01 X136.6867 Y-91.6301 F120.00
G01 X136.6728 Y-91.6384 F120.00
G01 X136.6552 Y-91.6501 F120.00
G01 X136.6428 Y-91.6593 F120.00
G01 X136.6254 Y-91.6736 F120.00
G01 X136.6139 Y-91.6840 F120.00
G01 X136.5990 Y-91.6989 F120.00
G01 X136.5877 Y-91.7115 F120.00
G01 X136.5748 Y-91.7272 F120.00
G01 X136.5651 Y-91.7403 F120.00
G01 X136.5530 Y-91.7584 F120.00
G01 X136.5451 Y-91.7717 F120.00
G01 X136.5351 Y-91.7903 F120.00
G01 X136.5282 Y-91.8049 F120.00
G01 X136.5204 Y-91.8237 F120.00
G01 X136.5147 Y-91.8397 F120.00
G01 X136.5085 Y-91.8599 F120.00
G01 X136.5048 Y-91.8749 F120.00
G01 X136.5005 Y-91.8963 F120.00
G01 X136.4981 Y-91.9123 F120.00
G01 X136.4961 Y-91.9325 F120.00
G01 X136.4950 Y-91.9596 F120.00
G01 X136.4950 Y-92.2600 F120.00
G01 X136.4960 Y-92.2860 F120.00
G01 X136.4982 Y-92.3085 F120.00
G01 X136.5005 Y-92.3237 F120.00
G01 X136.5046 Y-92.3444 F120.00
G01 X136.5087 Y-92.3608 F120.00
G01 X136.5147 Y-92.3803 F120.00
G01 X136.5201 Y-92.3956 F120.00
G01 X136.5282 Y-92.4151 F120.00
G01 X136.5351 Y-92.4297 F120.00
G01 X136.5451 Y-92.4483 F120.00
G01 X136.5534 Y-92.4622 F120.00
G01 X136.5651 Y-92.4797 F120.00
G01 X136.5748 Y-92.4928 F120.00
G01 X136.5881 Y-92.5091 F120.00
G01 X136.5995 Y-92.5216 F120.00
G01 X136.6139 Y-92.5360 F120.00
G01 X136.6265 Y-92.5473 F120.00
G01 X136.6422 Y-92.5602 F120.00
G01 X136.6547 Y-92.5695 F120.00
G01 X136.6722 Y-92.5812 F120.00
G01 X136.6867 Y-92.5899 F120.00
G01 X136.7053 Y-92.5999 F120.00
G01 X136.7199 Y-92.6068 F120.00
G01 X136.7394 Y-92.6149 F120.00
G01 X136.7547 Y-92.6203 F120.00
G01 X136.7749 Y-92.6265 F120.00
G01 X136.7906 Y-92.6304 F120.00
G01 X136.8113 Y-92.6345 F120.00
G01 X136.8273 Y-92.6369 F120.00
G01 X136.8475 Y-92.6389 F120.00
G01 X136.8746 Y-92.6400 F120.00
G01 X138.5250 Y-92.6400 F120.00
G01 X138.5517 Y-92.6390 F120.00
G01 X138.5720 Y-92.6370 F120.00
G01 X138.5895 Y-92.6344 F120.00
G01 X138.6094 Y-92.6304 F120.00
G01 X138.6244 Y-92.6266 F120.00
G01 X138.6453 Y-92.6203 F120.00
G01 X138.6613 Y-92.6146 F120.00
G01 X138.6801 Y-92.6068 F120.00
G01 X138.6940 Y-92.6002 F120.00
G01 X138.7133 Y-92.5899 F120.00
G01 X138.7278 Y-92.5812 F120.00
G01 X138.7448 Y-92.5699 F120.00
G01 X138.7578 Y-92.5602 F120.00
G01 X138.7746 Y-92.5464 F120.00
G01 X138.7861 Y-92.5360 F120.00
G01 X138.8010 Y-92.5211 F120.00
G01 X138.8123 Y-92.5085 F120.00
G01 X138.8252 Y-92.4928 F120.00
G01 X138.8345 Y-92.4803 F120.00
G01 X138.8466 Y-92.4622 F120.00
G01 X138.8553 Y-92.4477 F120.00
G01 X138.8649 Y-92.4297 F120.00
G01 X138.8715 Y-92.4157 F120.00
G01 X138.8799 Y-92.3956 F120.00
G01 X138.8853 Y-92.3803 F120.00
G01 X138.8915 Y-92.3601 F120.00
G01 X138.8954 Y-92.3444 F120.00
G01 X138.8994 Y-92.3245 F120.00
G01 X138.9019 Y-92.3077 F120.00
G01 X138.9039 Y-92.2875 F120.00
G01 X138.9050 Y-92.2607 F120.00
G01 X138.9050 Y-91.9600 F120.00
G01 X138.9047 Y-91.9491 F120.00
G01 X138.9039 Y-91.9325 F120.00
G01 X138.9019 Y-91.9123 F120.00
G01 X138.8996 Y-91.8970 F120.00
G01 X138.8954 Y-91.8756 F120.00
G01 X138.8915 Y-91.8599 F120.00
G01 X138.8853 Y-91.8397 F120.00
G01 X138.8796 Y-91.8237 F120.00
G01 X138.8715 Y-91.8043 F120.00
G01 X138.8649 Y-91.7903 F120.00
G01 X138.8553 Y-91.7723 F120.00
G01 X138.8466 Y-91.7578 F120.00
G01 X138.8349 Y-91.7403 F120.00
G01 X138.8252 Y-91.7272 F120.00
G01 X138.8114 Y-91.7104 F120.00
G01 X138.8005 Y-91.6984 F120.00
G01 X138.7861 Y-91.6840 F120.00
G01 X138.7746 Y-91.6736 F120.00
G01 X138.7578 Y-91.6598 F120.00
G01 X138.7448 Y-91.6501 F120.00
G01 X138.7272 Y-91.6384 F120.00
G01 X138.7127 Y-91.6297 F120.00
G01 X138.6947 Y-91.6201 F120.00
G01 X138.6807 Y-91.6135 F120.00
G01 X138.6606 Y-91.6051 F120.00
G01 X138.6453 Y-91.5997 F120.00
G01 X138.6251 Y-91.5935 F120.00
G01 X138.6094 Y-91.5896 F120.00
G01 X138.5887 Y-91.5855 F120.00
G01 X138.5727 Y-91.5831 F120.00
G01 X138.5517 Y-91.5810 F120.00
G01 X138.5250 Y-91.5800 F120.00
G01 X136.8746 Y-91.5800 F120.00
G01 X136.8475 Y-91.5811 F120.00
G01 X136.8273 Y-91.5831 F120.00
G01 X136.8113 Y-91.5855 F120.00
G01 X136.7906 Y-91.5896 F120.00
G01 X136.7756 Y-91.5934 F120.00
G01 X136.7540 Y-91.5999 F120.00
M5
G00 X136.7540 Y-90.3299
G01 F60.00
M03 S5000.0
G01 F120.00
G01 X136.7394 Y-90.3351 F120.00
G01 X136.7206 Y-90.3429 F120.00
G01 X136.7046 Y-90.3505 F120.00
G01 X136.6867 Y-90.3601 F120.00
G01 X136.6728 Y-90.3684 F120.00
G01 X136.6552 Y-90.3801 F120.00
G01 X136.6428 Y-90.3893 F120.00
G01 X136.6254 Y-90.4036 F120.00
G01 X136.6139 Y-90.4140 F120.00
G01 X136.5990 Y-90.4289 F120.00
G01 X136.5877 Y-90.4415 F120.00
G01 X136.5748 Y-90.4572 F120.00
G01 X136.5651 Y-90.4703 F120.00
G01 X136.5530 Y-90.4884 F120.00
G01 X136.5451 Y-90.5017 F120.00
G01 X136.5351 Y-90.5203 F120.00
G01 X136.5282 Y-90.5349 F120.00
G01 X136.5204 Y-90.5537 F120.00
G01 X136.5147 Y-90.5697 F120.00
G01 X136.5085 Y-90.5899 F120.00
G01 X136.5048 Y-90.6049 F120.00
G01 X136.5005 Y-90.6263 F120.00
G01 X136.4981 Y-90.6423 F120.00
G01 X136.4961 Y-90.6625 F120.00
G01 X136.4950 Y-90.6896 F120.00
G01 X136.4950 Y-90.9900 F120.00
G01 X136.4960 Y-91.0160 F120.00
G01 X136.4982 Y-91.0385 F120.00
G01 X136.5005 Y-91.0537 F120.00
G01 X136.5046 Y-91.0744 F120.00
G01 X136.5087 Y-91.0908 F120.00
G01 X136.5147 Y-91.1103 F120.00
G01 X136.5201 Y-91.1256 F120.00
G01 X136.5282 Y-91.1451 F120.00
G01 X136.5351 Y-91.1597 F120.00
G01 X136.5451 Y-91.1783 F120.00
G01 X136.5534 Y-91.1922 F120.00
G01 X136.5651 Y-91.2097 F120.00
G01 X136.5748 Y-91.2228 F120.00
G01 X136.5881 Y-91.2391 F120.00
G01 X136.5995 Y-91.2516 F120.00
G01 X136.6139 Y-91.2660 F120.00
G01 X136.6265 Y-91.2773 F120.00
G01 X136.6422 Y-91.2902 F120.00
G01 X136.6547 Y-91.2995 F120.00
G01 X136.6722 Y-91.3112 F120.00
G01 X136.6867 Y-91.3199 F120.00
G01 X136.7053 Y-91.3299 F120.00
G01 X136.7199 Y-91.3368 F120.00
G01 X136.7394 Y-91.3449 F120.00
G01 X136.7547 Y-91.3503 F120.00
G01 X136.7749 Y-91.3565 F120.00
G01 X136.7906 Y-91.3604 F120.00
G01 X136.8113 Y-91.3645 F120.00
G01 X136.8273 Y-91.3669 F120.00
G01 X136.8475 Y-91.3689 F120.00
G01 X136.8746 Y-91.3700 F120.00
G01 X138.5250 Y-91.3700 F120.00
G01 X138.5517 Y-91.3690 F120.00
G01 X138.5720 Y-91.3670 F120.00
G01 X138.5895 Y-91.3644 F120.00
G01 X138.6094 Y-91.3604 F120.00
G01 X138.6244 Y-91.3566 F120.00
G01 X138.6453 Y-91.3503 F120.00
G01 X138.6613 Y-91.3446 F120.00
G01 X138.6801 Y-91.3368 F120.00
G01 X138.6940 Y-91.3302 F120.00
G01 X138.7133 Y-91.3199 F120.00
G01 X138.7278 Y-91.3112 F120.00
G01 X138.7448 Y-91.2999 F120.00
G01 X138.7578 Y-91.2902 F120.00
G01 X138.7746 Y-91.2764 F120.00
G01 X138.7861 Y-91.2660 F120.00
G01 X138.8010 Y-91.2511 F120.00
G01 X138.8123 Y-91.2385 F120.00
G01 X138.8252 Y-91.2228 F120.00
G01 X138.8345 Y-91.2103 F120.00
G01 X138.8466 Y-91.1922 F120.00
G01 X138.8553 Y-91.1777 F120.00
G01 X138.8649 Y-91.1597 F120.00
G01 X138.8715 Y-91.1457 F120.00
G01 X138.8799 Y-91.1256 F120.00
G01 X138.8853 Y-91.1103 F120.00
G01 X138.8915 Y-91.0901 F120.00
G01 X138.8954 Y-91.0744 F120.00
G01 X138.8994 Y-91.0545 F120.00
G01 X138.9019 Y-91.0377 F120.00
G01 X138.9039 Y-91.0175 F120.00
G01 X138.9050 Y-90.9907 F120.00
G01 X138.9050 Y-90.6900 F120.00
G01 X138.9047 Y-90.6791 F120.00
G01 X138.9039 Y-90.6625 F120.00
G01 X138.9019 Y-90.6423 F120.00
G01 X138.8996 Y-90.6270 F120.00
G01 X138.8954 Y-90.6056 F120.00
G01 X138.8915 Y-90.5899 F120.00
G01 X138.8853 Y-90.5697 F120.00
G01 X138.8796 Y-90.5537 F120.00
G01 X138.8715 Y-90.5343 F120.00
G01 X138.8649 Y-90.5203 F120.00
G01 X138.8553 Y-90.5023 F120.00
G01 X138.8466 Y-90.4878 F120.00
G01 X138.8349 Y-90.4703 F120.00
G01 X138.8252 Y-90.4572 F120.00
G01 X138.8114 Y-90.4404 F120.00
G01 X138.8005 Y-90.4284 F120.00
G01 X138.7861 Y-90.4140 F120.00
G01 X138.7746 Y-90.4036 F120.00
G01 X138.7578 Y-90.3898 F120.00
G01 X138.7448 Y-90.3801 F120.00
G01 X138.7272 Y-90.3684 F120.00
G01 X138.7127 Y-90.3597 F120.00
G01 X138.6947 Y-90.3501 F120.00
G01 X138.6807 Y-90.3435 F120.00
G01 X138.6606 Y-90.3351 F120.00
G01 X138.6453 Y-90.3297 F120.00
G01 X138.6251 Y-90.3235 F120.00
G01 X138.6094 Y-90.3196 F120.00
G01 X138.5887 Y-90.3155 F120.00
G01 X138.5727 Y-90.3131 F120.00
G01 X138.5517 Y-90.3110 F120.00
G01 X138.5250 Y-90.3100 F120.00
G01 X136.8746 Y-90.3100 F120.00
G01 X136.8475 Y-90.3111 F120.00
G01 X136.8273 Y-90.3131 F120.00
G01 X136.8113 Y-90.3155 F120.00
G01 X136.7906 Y-90.3196 F120.00
G01 X136.7756 Y-90.3234 F120.00
G01 X136.7540 Y-90.3299 F120.00
M5
G00 X136.7540 Y-89.0599
G01 F60.00
M03 S5000.0
G01 F120.00
G01 X136.7394 Y-89.0651 F120.00
G01 X136.7206 Y-89.0729 F120.00
G01 X136.7046 Y-89.0805 F120.00
G01 X136.6867 Y-89.0901 F120.00
G01 X136.6728 Y-89.0984 F120.00
G01 X136.6552 Y-89.1101 F120.00
G01 X136.6428 Y-89.1193 F120.00
G01 X136.6254 Y-89.1336 F120.00
G01 X136.6139 Y-89.1440 F120.00
G01 X136.5990 Y-89.1589 F120.00
G01 X136.5877 Y-89.1715 F120.00
G01 X136.5748 Y-89.1872 F120.00
G01 X136.5651 Y-89.2002 F120.00
G01 X136.5530 Y-89.2184 F120.00
G01 X136.5451 Y-89.2317 F120.00
G01 X136.5351 Y-89.2503 F120.00
G01 X136.5282 Y-89.2649 F120.00
G01 X136.5204 Y-89.2837 F120.00
G01 X136.5147 Y-89.2997 F120.00
G01 X136.5085 Y-89.3199 F120.00
G01 X136.5048 Y-89.3349 F120.00
G01 X136.5005 Y-89.3563 F120.00
G01 X136.4981 Y-89.3723 F120.00
G01 X136.4961 Y-89.3925 F120.00
G01 X136.4950 Y-89.4196 F120.00
G01 X136.4950 Y-89.7200 F120.00
G01 X136.4960 Y-89.7460 F120.00
G01 X136.4982 Y-89.7684 F120.00
G01 X136.5005 Y-89.7837 F120.00
G01 X136.5046 Y-89.8044 F120.00
G01 X136.5087 Y-89.8208 F120.00
G01 X136.5147 Y-89.8403 F120.00
G01 X136.5201 Y-89.8556 F120.00
G01 X136.5282 Y-89.8751 F120.00
G01 X136.5351 Y-89.8897 F120.00
G01 X136.5451 Y-89.9083 F120.00
G01 X136.5534 Y-89.9222 F120.00
G01 X136.5651 Y-89.9397 F120.00
G01 X136.5748 Y-89.9528 F120.00
G01 X136.5881 Y-89.9691 F120.00
G01 X136.5995 Y-89.9816 F120.00
G01 X136.6139 Y-89.9960 F120.00
G01 X136.6265 Y-90.0073 F120.00
G01 X136.6422 Y-90.0202 F120.00
G01 X136.6547 Y-90.0295 F120.00
G01 X136.6722 Y-90.0412 F120.00
G01 X136.6867 Y-90.0499 F120.00
G01 X136.7053 Y-90.0599 F120.00
G01 X136.7199 Y-90.0668 F120.00
G01 X136.7394 Y-90.0749 F120.00
G01 X136.7547 Y-90.0803 F120.00
G01 X136.7749 Y-90.0865 F120.00
G01 X136.7906 Y-90.0904 F120.00
G01 X136.8113 Y-90.0945 F120.00
G01 X136.8273 Y-90.0969 F120.00
G01 X136.8475 Y-90.0989 F120.00
G01 X136.8746 Y-90.1000 F120.00
G01 X138.5250 Y-90.1000 F120.00
G01 X138.5517 Y-90.0990 F120.00
G01 X138.5720 Y-90.0970 F120.00
G01 X138.5895 Y-90.0944 F120.00
G01 X138.6094 Y-90.0904 F120.00
G01 X138.6244 Y-90.0866 F120.00
G01 X138.6453 Y-90.0803 F120.00
G01 X138.6613 Y-90.0746 F120.00
G01 X138.6801 Y-90.0668 F120.00
G01 X138.6940 Y-90.0602 F120.00
G01 X138.7133 Y-90.0499 F120.00
G01 X138.7278 Y-90.0412 F120.00
G01 X138.7448 Y-90.0299 F120.00
G01 X138.7578 Y-90.0202 F120.00
G01 X138.7746 Y-90.0064 F120.00
G01 X138.7861 Y-89.9960 F120.00
G01 X138.8010 Y-89.9811 F120.00
G01 X138.8123 Y-89.9685 F120.00
G01 X138.8252 Y-89.9528 F120.00
G01 X138.8345 Y-89.9403 F120.00
G01 X138.8466 Y-89.9222 F120.00
G01 X138.8553 Y-89.9077 F120.00
G01 X138.8649 Y-89.8897 F120.00
G01 X138.8715 Y-89.8757 F120.00
G01 X138.8799 Y-89.8556 F120.00
G01 X138.8853 Y-89.8403 F120.00
G01 X138.8915 Y-89.8201 F120.00
G01 X138.8954 Y-89.8044 F120.00
G01 X138.8994 Y-89.7845 F120.00
G01 X138.9019 Y-89.7677 F120.00
G01 X138.9039 Y-89.7475 F120.00
G01 X138.9050 Y-89.7207 F120.00
G01 X138.9050 Y-89.4200 F120.00
G01 X138.9047 Y-89.4091 F120.00
G01 X138.9039 Y-89.3925 F120.00
G01 X138.9019 Y-89.3723 F120.00
G01 X138.8996 Y-89.3570 F120.00
G01 X138.8954 Y-89.3356 F120.00
G01 X138.8915 Y-89.3199 F120.00
G01 X138.8853 Y-89.2997 F120.00
G01 X138.8796 Y-89.2837 F120.00
G01 X138.8715 Y-89.2643 F120.00
G01 X138.8649 Y-89.2503 F120.00
G01 X138.8553 Y-89.2323 F120.00
G01 X138.8466 Y-89.2178 F120.00
G01 X138.8349 Y-89.2002 F120.00
G01 X138.8252 Y-89.1872 F120.00
G01 X138.8114 Y-89.1704 F120.00
G01 X138.8005 Y-89.1584 F120.00
G01 X138.7861 Y-89.1440 F120.00
G01 X138.7746 Y-89.1336 F120.00
G01 X138.7578 Y-89.1198 F120.00
G01 X138.7448 Y-89.1101 F120.00
G01 X138.7272 Y-89.0984 F120.00
G01 X138.7127 Y-89.0897 F120.00
G01 X138.6947 Y-89.0801 F120.00
G01 X138.6807 Y-89.0735 F120.00
G01 X138.6606 Y-89.0651 F120.00
G01 X138.6453 Y-89.0597 F120.00
G01 X138.6251 Y-89.0535 F120.00
G01 X138.6094 Y-89.0496 F120.00
G01 X138.5887 Y-89.0455 F120.00
G01 X138.5727 Y-89.0431 F120.00
G01 X138.5517 Y-89.0410 F120.00
G01 X138.5250 Y-89.0400 F120.00
G01 X136.8746 Y-89.0400 F120.00
G01 X136.8475 Y-89.0411 F120.00
G01 X136.8273 Y-89.0431 F120.00
G01 X136.8113 Y-89.0455 F120.00
G01 X136.7906 Y-89.0496 F120.00
G01 X136.7756 Y-89.0534 F120.00
G01 X136.7540 Y-89.0599 F120.00
M5
G00 X140.3500 Y-87.7765
G01 F60.00
M03 S5000.0
G01 F120.00
G01 X141.2869 Y-88.7134 F120.00
G01 X141.3011 Y-88.7266 F120.00
G01 X141.3180 Y-88.7404 F120.00
G01 X141.3245 Y-88.7452 F120.00
G01 X141.3414 Y-88.7566 F120.00
G01 X141.3502 Y-88.7618 F120.00
G01 X141.3682 Y-88.7714 F120.00
G01 X141.3762 Y-88.7752 F120.00
G01 X141.3957 Y-88.7833 F120.00
G01 X141.4033 Y-88.7860 F120.00
G01 X141.4249 Y-88.7926 F120.00
G01 X141.4327 Y-88.7945 F120.00
G01 X141.4527 Y-88.7985 F120.00
G01 X141.4629 Y-88.8000 F120.00
G01 X141.4832 Y-88.8020 F120.00
G01 X141.4913 Y-88.8024 F120.00
G01 X141.5138 Y-88.8024 F120.00
G01 X141.5219 Y-88.8020 F120.00
G01 X141.5429 Y-88.8000 F120.00
G01 X141.5524 Y-88.7985 F120.00
G01 X141.5724 Y-88.7945 F120.00
G01 X141.5809 Y-88.7924 F120.00
G01 X141.6018 Y-88.7860 F120.00
G01 X141.6094 Y-88.7833 F120.00
G01 X141.6289 Y-88.7752 F120.00
G01 X141.6376 Y-88.7711 F120.00
G01 X141.6555 Y-88.7615 F120.00
G01 X141.6631 Y-88.7570 F120.00
G01 X141.6806 Y-88.7452 F120.00
G01 X141.6877 Y-88.7400 F120.00
G01 X141.7040 Y-88.7266 F120.00
G01 X141.7177 Y-88.7139 F120.00
G01 X141.8245 Y-88.6070 F120.00
G01 X141.8375 Y-88.5931 F120.00
G01 X141.8509 Y-88.5768 F120.00
G01 X141.8561 Y-88.5697 F120.00
G01 X141.8683 Y-88.5515 F120.00
G01 X141.8724 Y-88.5446 F120.00
G01 X141.8820 Y-88.5266 F120.00
G01 X141.8861 Y-88.5180 F120.00
G01 X141.8942 Y-88.4985 F120.00
G01 X141.8974 Y-88.4895 F120.00
G01 X141.9035 Y-88.4693 F120.00
G01 X141.9055 Y-88.4614 F120.00
G01 X141.9089 Y-88.4444 F120.00
G01 X141.9259 Y-88.4410 F120.00
G01 X141.9338 Y-88.4390 F120.00
G01 X141.9540 Y-88.4329 F120.00
G01 X141.9630 Y-88.4297 F120.00
G01 X141.9818 Y-88.4220 F120.00
G01 X141.9905 Y-88.4179 F120.00
G01 X142.0091 Y-88.4079 F120.00
G01 X142.0166 Y-88.4034 F120.00
G01 X142.0348 Y-88.3912 F120.00
G01 X142.0413 Y-88.3864 F120.00
G01 X142.0576 Y-88.3730 F120.00
G01 X142.0715 Y-88.3601 F120.00
G01 X142.1778 Y-88.2538 F120.00
G01 X142.1906 Y-88.2401 F120.00
G01 X142.2049 Y-88.2227 F120.00
G01 X142.2097 Y-88.2162 F120.00
G01 X142.2210 Y-88.1992 F120.00
G01 X142.2260 Y-88.1910 F120.00
G01 X142.2362 Y-88.1718 F120.00
G01 X142.2397 Y-88.1645 F120.00
G01 X142.2475 Y-88.1456 F120.00
G01 X142.2507 Y-88.1366 F120.00
G01 X142.2570 Y-88.1157 F120.00
G01 X142.2590 Y-88.1079 F120.00
G01 X142.2624 Y-88.0908 F120.00
G01 X142.2795 Y-88.0874 F120.00
G01 X142.2873 Y-88.0855 F120.00
G01 X142.3075 Y-88.0794 F120.00
G01 X142.3165 Y-88.0762 F120.00
G01 X142.3353 Y-88.0684 F120.00
G01 X142.3440 Y-88.0643 F120.00
G01 X142.3626 Y-88.0544 F120.00
G01 X142.3702 Y-88.0498 F120.00
G01 X142.3877 Y-88.0381 F120.00
G01 X142.3948 Y-88.0329 F120.00
G01 X142.4111 Y-88.0195 F120.00
G01 X142.4251 Y-88.0065 F120.00
G01 X142.5389 Y-87.8923 F120.00
G01 X142.5446 Y-87.8860 F120.00
G01 X142.5575 Y-87.8703 F120.00
G01 X142.5633 Y-87.8626 F120.00
G01 X142.5754 Y-87.8444 F120.00
G01 X142.5795 Y-87.8375 F120.00
G01 X142.5895 Y-87.8189 F120.00
G01 X142.5932 Y-87.8109 F120.00
G01 X142.6010 Y-87.7921 F120.00
G01 X142.6043 Y-87.7831 F120.00
G01 X142.6106 Y-87.7622 F120.00
G01 X142.6126 Y-87.7543 F120.00
G01 X142.6160 Y-87.7373 F120.00
G01 X142.6330 Y-87.7339 F120.00
G01 X142.6409 Y-87.7319 F120.00
G01 X142.6611 Y-87.7258 F120.00
G01 X142.6701 Y-87.7226 F120.00
G01 X142.6889 Y-87.7148 F120.00
G01 X142.6976 Y-87.7108 F120.00
G01 X142.7162 Y-87.7008 F120.00
G01 X142.7237 Y-87.6963 F120.00
G01 X142.7413 Y-87.6846 F120.00
G01 X142.7484 Y-87.6793 F120.00
G01 X142.7647 Y-87.6659 F120.00
G01 X142.7786 Y-87.6530 F120.00
G01 X142.8922 Y-87.5390 F120.00
G01 X142.8982 Y-87.5325 F120.00
G01 X142.9111 Y-87.5167 F120.00
G01 X142.9168 Y-87.5091 F120.00
G01 X142.9289 Y-87.4909 F120.00
G01 X142.9331 Y-87.4839 F120.00
G01 X142.9430 Y-87.4653 F120.00
G01 X142.9468 Y-87.4573 F120.00
G01 X142.9546 Y-87.4385 F120.00
G01 X142.9578 Y-87.4295 F120.00
G01 X142.9642 Y-87.4086 F120.00
G01 X142.9661 Y-87.4008 F120.00
G01 X142.9695 Y-87.3837 F120.00
G01 X142.9866 Y-87.3803 F120.00
G01 X142.9944 Y-87.3784 F120.00
G01 X143.0146 Y-87.3723 F120.00
G01 X143.0236 Y-87.3691 F120.00
G01 X143.0425 Y-87.3613 F120.00
G01 X143.0511 Y-87.3572 F120.00
G01 X143.0697 Y-87.3473 F120.00
G01 X143.0773 Y-87.3427 F120.00
G01 X143.0948 Y-87.3310 F120.00
G01 X143.1019 Y-87.3258 F120.00
G01 X143.1182 Y-87.3124 F120.00
G01 X143.1319 Y-87.2997 F120.00
G01 X143.2390 Y-87.1926 F120.00
G01 X143.2517 Y-87.1789 F120.00
G01 X143.2651 Y-87.1626 F120.00
G01 X143.2704 Y-87.1555 F120.00
G01 X143.2825 Y-87.1373 F120.00
G01 X143.2866 Y-87.1304 F120.00
G01 X143.2966 Y-87.1118 F120.00
G01 X143.3003 Y-87.1038 F120.00
G01 X143.3081 Y-87.0850 F120.00
G01 X143.3114 Y-87.0760 F120.00
G01 X143.3177 Y-87.0551 F120.00
G01 X143.3197 Y-87.0472 F120.00
G01 X143.3231 Y-87.0302 F120.00
G01 X143.3401 Y-87.0268 F120.00
G01 X143.3480 Y-87.0248 F120.00
G01 X143.3682 Y-87.0187 F120.00
G01 X143.3772 Y-87.0155 F120.00
G01 X143.3960 Y-87.0077 F120.00
G01 X143.4047 Y-87.0037 F120.00
G01 X143.4233 Y-86.9937 F120.00
G01 X143.4309 Y-86.9892 F120.00
G01 X143.4484 Y-86.9775 F120.00
G01 X143.4555 Y-86.9722 F120.00
G01 X143.4718 Y-86.9588 F120.00
G01 X143.4855 Y-86.9461 F120.00
G01 X143.5923 Y-86.8393 F120.00
G01 X143.6053 Y-86.8254 F120.00
G01 X143.6187 Y-86.8090 F120.00
G01 X143.6239 Y-86.8019 F120.00
G01 X143.6360 Y-86.7838 F120.00
G01 X143.6402 Y-86.7768 F120.00
G01 X143.6501 Y-86.7582 F120.00
G01 X143.6539 Y-86.7502 F120.00
G01 X143.6617 Y-86.7314 F120.00
G01 X143.6649 Y-86.7224 F120.00
G01 X143.6713 Y-86.7015 F120.00
G01 X143.6732 Y-86.6937 F120.00
G01 X143.6766 Y-86.6766 F120.00
G01 X143.6937 Y-86.6732 F120.00
G01 X143.7015 Y-86.6713 F120.00
G01 X143.7217 Y-86.6652 F120.00
G01 X143.7307 Y-86.6620 F120.00
G01 X143.7496 Y-86.6542 F120.00
G01 X143.7582 Y-86.6501 F120.00
G01 X143.7768 Y-86.6402 F120.00
G01 X143.7844 Y-86.6356 F120.00
G01 X143.8019 Y-86.6239 F120.00
G01 X143.8090 Y-86.6187 F120.00
G01 X143.8254 Y-86.6053 F120.00
G01 X143.8390 Y-86.5926 F120.00
G01 X143.9459 Y-86.4857 F120.00
G01 X143.9588 Y-86.4718 F120.00
G01 X143.9722 Y-86.4555 F120.00
G01 X143.9775 Y-86.4484 F120.00
G01 X143.9896 Y-86.4302 F120.00
G01 X143.9937 Y-86.4233 F120.00
G01 X144.0037 Y-86.4047 F120.00
G01 X144.0074 Y-86.3967 F120.00
G01 X144.0152 Y-86.3779 F120.00
G01 X144.0185 Y-86.3689 F120.00
G01 X144.0248 Y-86.3480 F120.00
G01 X144.0268 Y-86.3401 F120.00
G01 X144.0302 Y-86.3231 F120.00
G01 X144.0472 Y-86.3197 F120.00
G01 X144.0551 Y-86.3177 F120.00
G01 X144.0753 Y-86.3116 F120.00
G01 X144.0843 Y-86.3084 F120.00
G01 X144.1031 Y-86.3006 F120.00
G01 X144.1118 Y-86.2966 F120.00
G01 X144.1304 Y-86.2866 F120.00
G01 X144.1380 Y-86.2821 F120.00
G01 X144.1555 Y-86.2704 F120.00
G01 X144.1626 Y-86.2651 F120.00
G01 X144.1789 Y-86.2517 F120.00
G01 X144.1926 Y-86.2390 F120.00
G01 X144.2994 Y-86.1322 F120.00
G01 X144.3124 Y-86.1182 F120.00
G01 X144.3258 Y-86.1019 F120.00
G01 X144.3310 Y-86.0948 F120.00
G01 X144.3431 Y-86.0767 F120.00
G01 X144.3473 Y-86.0697 F120.00
G01 X144.3572 Y-86.0511 F120.00
G01 X144.3610 Y-86.0431 F120.00
G01 X144.3688 Y-86.0243 F120.00
G01 X144.3721 Y-86.0153 F120.00
G01 X144.3784 Y-85.9944 F120.00
G01 X144.3803 Y-85.9866 F120.00
G01 X144.3837 Y-85.9695 F120.00
G01 X144.4008 Y-85.9661 F120.00
G01 X144.4086 Y-85.9642 F120.00
G01 X144.4288 Y-85.9581 F120.00
G01 X144.4379 Y-85.9549 F120.00
G01 X144.4567 Y-85.9471 F120.00
G01 X144.4653 Y-85.9430 F120.00
G01 X144.4839 Y-85.9331 F120.00
G01 X144.4915 Y-85.9285 F120.00
G01 X144.5091 Y-85.9168 F120.00
G01 X144.5162 Y-85.9115 F120.00
G01 X144.5325 Y-85.8982 F120.00
G01 X144.5461 Y-85.8855 F120.00
G01 X144.6530 Y-85.7786 F120.00
G01 X144.6659 Y-85.7647 F120.00
G01 X144.6793 Y-85.7484 F120.00
G01 X144.6846 Y-85.7413 F120.00
G01 X144.6967 Y-85.7231 F120.00
G01 X144.7008 Y-85.7162 F120.00
G01 X144.7108 Y-85.6976 F120.00
G01 X144.7146 Y-85.6896 F120.00
G01 X144.7224 Y-85.6708 F120.00
G01 X144.7256 Y-85.6618 F120.00
G01 X144.7319 Y-85.6409 F120.00
G01 X144.7339 Y-85.6330 F120.00
G01 X144.7373 Y-85.6160 F120.00
G01 X144.7543 Y-85.6126 F120.00
G01 X144.7622 Y-85.6106 F120.00
G01 X144.7824 Y-85.6045 F120.00
G01 X144.7914 Y-85.6013 F120.00
G01 X144.8102 Y-85.5935 F120.00
G01 X144.8189 Y-85.5895 F120.00
G01 X144.8375 Y-85.5795 F120.00
G01 X144.8451 Y-85.5750 F120.00
G01 X144.8626 Y-85.5633 F120.00
G01 X144.8697 Y-85.5580 F120.00
G01 X144.8860 Y-85.5446 F120.00
G01 X144.8997 Y-85.5319 F120.00
G01 X145.0065 Y-85.4251 F120.00
G01 X145.0195 Y-85.4111 F120.00
G01 X145.0329 Y-85.3948 F120.00
G01 X145.0381 Y-85.3877 F120.00
G01 X145.0502 Y-85.3696 F120.00
G01 X145.0544 Y-85.3626 F120.00
G01 X145.0643 Y-85.3440 F120.00
G01 X145.0681 Y-85.3360 F120.00
G01 X145.0759 Y-85.3172 F120.00
G01 X145.0792 Y-85.3082 F120.00
G01 X145.0855 Y-85.2873 F120.00
G01 X145.0874 Y-85.2795 F120.00
G01 X145.0908 Y-85.2624 F120.00
G01 X145.1079 Y-85.2590 F120.00
G01 X145.1157 Y-85.2570 F120.00
G01 X145.1359 Y-85.2510 F120.00
G01 X145.1450 Y-85.2478 F120.00
G01 X145.1638 Y-85.2400 F120.00
G01 X145.1724 Y-85.2359 F120.00
G01 X145.1910 Y-85.2260 F120.00
G01 X145.1986 Y-85.2214 F120.00
G01 X145.2162 Y-85.2097 F120.00
G01 X145.2233 Y-85.2044 F120.00
G01 X145.2396 Y-85.1911 F120.00
G01 X145.2532 Y-85.1784 F120.00
G01 X145.3601 Y-85.0715 F120.00
G01 X145.3730 Y-85.0576 F120.00
G01 X145.3864 Y-85.0413 F120.00
G01 X145.3917 Y-85.0342 F120.00
G01 X145.4038 Y-85.0160 F120.00
G01 X145.4079 Y-85.0091 F120.00
G01 X145.4179 Y-84.9905 F120.00
G01 X145.4217 Y-84.9825 F120.00
G01 X145.4295 Y-84.9637 F120.00
G01 X145.4327 Y-84.9547 F120.00
G01 X145.4390 Y-84.9338 F120.00
G01 X145.4410 Y-84.9259 F120.00
G01 X145.4444 Y-84.9089 F120.00
G01 X145.4614 Y-84.9055 F120.00
G01 X145.4693 Y-84.9035 F120.00
G01 X145.4895 Y-84.8974 F120.00
G01 X145.4985 Y-84.8942 F120.00
G01 X145.5173 Y-84.8864 F120.00
G01 X145.5260 Y-84.8824 F120.00
G01 X145.5446 Y-84.8724 F120.00
G01 X145.5522 Y-84.8679 F120.00
G01 X145.5697 Y-84.8561 F120.00
G01 X145.5768 Y-84.8509 F120.00
G01 X145.5931 Y-84.8375 F120.00
G01 X145.6070 Y-84.8245 F120.00
G01 X145.7209 Y-84.7103 F120.00
G01 X145.7266 Y-84.7040 F120.00
G01 X145.7400 Y-84.6877 F120.00
G01 X145.7452 Y-84.6806 F120.00
G01 X145.7566 Y-84.6637 F120.00
G01 X145.7618 Y-84.6549 F120.00
G01 X145.7714 Y-84.6369 F120.00
G01 X145.7752 Y-84.6289 F120.00
G01 X145.7833 Y-84.6094 F120.00
G01 X145.7860 Y-84.6018 F120.00
G01 X145.7926 Y-84.5802 F120.00
G01 X145.7945 Y-84.5724 F120.00
G01 X145.7987 Y-84.5517 F120.00
G01 X145.8000 Y-84.5429 F120.00
G01 X145.8020 Y-84.5227 F120.00
G01 X145.8025 Y-84.5124 F120.00
G01 X145.8025 Y-84.4920 F120.00
G01 X145.8020 Y-84.4832 F120.00
G01 X145.8000 Y-84.4622 F120.00
G01 X145.7988 Y-84.4542 F120.00
G01 X145.7944 Y-84.4320 F120.00
G01 X145.7924 Y-84.4242 F120.00
G01 X145.7863 Y-84.4040 F120.00
G01 X145.7833 Y-84.3957 F120.00
G01 X145.7755 Y-84.3769 F120.00
G01 X145.7711 Y-84.3675 F120.00
G01 X145.7615 Y-84.3496 F120.00
G01 X145.7570 Y-84.3420 F120.00
G01 X145.7452 Y-84.3245 F120.00
G01 X145.7400 Y-84.3174 F120.00
G01 X145.7266 Y-84.3011 F120.00
G01 X145.7134 Y-84.2869 F120.00
G01 X144.7765 Y-83.3500 F120.00
G01 X144.7623 Y-83.3367 F120.00
G01 X144.7460 Y-83.3234 F120.00
G01 X144.7389 Y-83.3181 F120.00
G01 X144.7219 Y-83.3068 F120.00
G01 X144.7137 Y-83.3018 F120.00
G01 X144.6951 Y-83.2919 F120.00
G01 X144.6878 Y-83.2884 F120.00
G01 X144.6677 Y-83.2800 F120.00
G01 X144.6586 Y-83.2768 F120.00
G01 X144.6392 Y-83.2709 F120.00
G01 X144.6306 Y-83.2688 F120.00
G01 X144.6099 Y-83.2647 F120.00
G01 X144.6019 Y-83.2635 F120.00
G01 X144.5794 Y-83.2613 F120.00
G01 X144.5713 Y-83.2609 F120.00
G01 X144.5502 Y-83.2609 F120.00
G01 X144.5414 Y-83.2613 F120.00
G01 X144.5211 Y-83.2633 F120.00
G01 X144.5110 Y-83.2648 F120.00
G01 X144.4910 Y-83.2688 F120.00
G01 X144.4831 Y-83.2708 F120.00
G01 X144.4615 Y-83.2773 F120.00
G01 X144.4539 Y-83.2800 F120.00
G01 X144.4344 Y-83.2881 F120.00
G01 X144.4258 Y-83.2922 F120.00
G01 X144.4078 Y-83.3018 F120.00
G01 X144.4002 Y-83.3064 F120.00
G01 X144.3827 Y-83.3181 F120.00
G01 X144.3756 Y-83.3234 F120.00
G01 X144.3593 Y-83.3367 F120.00
G01 X144.3456 Y-83.3495 F120.00
G01 X144.2388 Y-83.4563 F120.00
G01 X144.2258 Y-83.4702 F120.00
G01 X144.2125 Y-83.4865 F120.00
G01 X144.2072 Y-83.4936 F120.00
G01 X144.1951 Y-83.5118 F120.00
G01 X144.1909 Y-83.5187 F120.00
G01 X144.1813 Y-83.5367 F120.00
G01 X144.1772 Y-83.5453 F120.00
G01 X144.1691 Y-83.5648 F120.00
G01 X144.1659 Y-83.5738 F120.00
G01 X144.1598 Y-83.5940 F120.00
G01 X144.1579 Y-83.6019 F120.00
G01 X144.1545 Y-83.6190 F120.00
G01 X144.1374 Y-83.6224 F120.00
G01 X144.1296 Y-83.6243 F120.00
G01 X144.1094 Y-83.6304 F120.00
G01 X144.1004 Y-83.6336 F120.00
G01 X144.0815 Y-83.6414 F120.00
G01 X144.0729 Y-83.6454 F120.00
G01 X144.0543 Y-83.6554 F120.00
G01 X144.0467 Y-83.6599 F120.00
G01 X144.0286 Y-83.6721 F120.00
G01 X144.0221 Y-83.6769 F120.00
G01 X144.0057 Y-83.6903 F120.00
G01 X143.9918 Y-83.7033 F120.00
G01 X143.8855 Y-83.8096 F120.00
G01 X143.8728 Y-83.8232 F120.00
G01 X143.8585 Y-83.8407 F120.00
G01 X143.8536 Y-83.8472 F120.00
G01 X143.8423 Y-83.8641 F120.00
G01 X143.8374 Y-83.8723 F120.00
G01 X143.8271 Y-83.8916 F120.00
G01 X143.8237 Y-83.8989 F120.00
G01 X143.8158 Y-83.9177 F120.00
G01 X143.8126 Y-83.9267 F120.00
G01 X143.8063 Y-83.9476 F120.00
G01 X143.8043 Y-83.9555 F120.00
G01 X143.8009 Y-83.9725 F120.00
G01 X143.7839 Y-83.9759 F120.00
G01 X143.7760 Y-83.9779 F120.00
G01 X143.7558 Y-83.9840 F120.00
G01 X143.7468 Y-83.9872 F120.00
G01 X143.7280 Y-83.9949 F120.00
G01 X143.7193 Y-83.9990 F120.00
G01 X143.7007 Y-84.0089 F120.00
G01 X143.6931 Y-84.0135 F120.00
G01 X143.6756 Y-84.0252 F120.00
G01 X143.6685 Y-84.0305 F120.00
G01 X143.6522 Y-84.0439 F120.00
G01 X143.6383 Y-84.0568 F120.00
G01 X143.5244 Y-84.1710 F120.00
G01 X143.5187 Y-84.1773 F120.00
G01 X143.5058 Y-84.1931 F120.00
G01 X143.5001 Y-84.2007 F120.00
G01 X143.4880 Y-84.2189 F120.00
G01 X143.4838 Y-84.2258 F120.00
G01 X143.4739 Y-84.2445 F120.00
G01 X143.4701 Y-84.2524 F120.00
G01 X143.4623 Y-84.2712 F120.00
G01 X143.4590 Y-84.2802 F120.00
G01 X143.4527 Y-84.3012 F120.00
G01 X143.4508 Y-84.3090 F120.00
G01 X143.4474 Y-84.3261 F120.00
G01 X143.4303 Y-84.3295 F120.00
G01 X143.4225 Y-84.3314 F120.00
G01 X143.4023 Y-84.3375 F120.00
G01 X143.3933 Y-84.3407 F120.00
G01 X143.3744 Y-84.3485 F120.00
G01 X143.3658 Y-84.3526 F120.00
G01 X143.3472 Y-84.3625 F120.00
G01 X143.3396 Y-84.3670 F120.00
G01 X143.3220 Y-84.3788 F120.00
G01 X143.3150 Y-84.3840 F120.00
G01 X143.2986 Y-84.3974 F120.00
G01 X143.2847 Y-84.4104 F120.00
G01 X143.1711 Y-84.5243 F120.00
G01 X143.1652 Y-84.5309 F120.00
G01 X143.1523 Y-84.5466 F120.00
G01 X143.1465 Y-84.5543 F120.00
G01 X143.1344 Y-84.5724 F120.00
G01 X143.1303 Y-84.5794 F120.00
G01 X143.1203 Y-84.5980 F120.00
G01 X143.1165 Y-84.6060 F120.00
G01 X143.1087 Y-84.6248 F120.00
G01 X143.1055 Y-84.6338 F120.00
G01 X143.0992 Y-84.6547 F120.00
G01 X143.0972 Y-84.6626 F120.00
G01 X143.0938 Y-84.6796 F120.00
G01 X143.0768 Y-84.6830 F120.00
G01 X143.0689 Y-84.6850 F120.00
G01 X143.0487 Y-84.6911 F120.00
G01 X143.0397 Y-84.6943 F120.00
G01 X143.0209 Y-84.7020 F120.00
G01 X143.0122 Y-84.7061 F120.00
G01 X142.9936 Y-84.7161 F120.00
G01 X142.9860 Y-84.7206 F120.00
G01 X142.9685 Y-84.7323 F120.00
G01 X142.9614 Y-84.7376 F120.00
G01 X142.9451 Y-84.7510 F120.00
G01 X142.9314 Y-84.7637 F120.00
G01 X142.8243 Y-84.8708 F120.00
G01 X142.8116 Y-84.8844 F120.00
G01 X142.7982 Y-84.9007 F120.00
G01 X142.7930 Y-84.9078 F120.00
G01 X142.7809 Y-84.9260 F120.00
G01 X142.7767 Y-84.9330 F120.00
G01 X142.7668 Y-84.9516 F120.00
G01 X142.7630 Y-84.9595 F120.00
G01 X142.7552 Y-84.9784 F120.00
G01 X142.7519 Y-84.9874 F120.00
G01 X142.7456 Y-85.0083 F120.00
G01 X142.7437 Y-85.0161 F120.00
G01 X142.7403 Y-85.0332 F120.00
G01 X142.7232 Y-85.0366 F120.00
