(G-CODE GENERATED BY FLATCAM v8.994 - www.flatcam.org - Version Date: 2020/11/7)

(Name: HOKUSHIME_Edge_Cut_cutout_cnc)
(Type: G-code from Geometry)
(Units: MM)

(Created on Sunday, 18 May 2025 at 09:47)

(This preprocessor is used with a motion controller loaded with GRBL firmware. )
(It is for the case when it is used together with a LASER connected on the SPINDLE connector.)

(Feedrate: 120.0 mm/min)
(Feedrate rapids: 1500.0 mm/min)

(Z Focus: 2.0 mm)
(Steps per circle: 64)
(Preprocessor Geometry: GRBL_laser)

(X range:  126.1183 ...  180.9809  mm)
(Y range: -122.2201 ...  -72.0989  mm)

(Laser Power - Spindle Speed: 10000.0)

G21
G90
G17
G94

G01 F120.00

M5
G01 F120.00
G00 X126.1183 Y-95.9595
G01 F60.00
M03 S10000.0
G01 F120.00
G01 X126.1183 Y-73.2989 F120.00
G01 X126.1241 Y-73.1813 F120.00
G01 X126.1414 Y-73.0648 F120.00
G01 X126.1700 Y-72.9506 F120.00
G01 X126.2097 Y-72.8397 F120.00
G01 X126.2600 Y-72.7333 F120.00
G01 X126.3205 Y-72.6323 F120.00
G01 X126.3907 Y-72.5377 F120.00
G01 X126.4698 Y-72.4504 F120.00
G01 X126.5570 Y-72.3713 F120.00
G01 X126.6516 Y-72.3012 F120.00
G01 X126.7526 Y-72.2406 F120.00
G01 X126.8591 Y-72.1903 F120.00
G01 X126.9700 Y-72.1506 F120.00
G01 X127.0842 Y-72.1220 F120.00
G01 X127.2007 Y-72.1047 F120.00
G01 X127.3183 Y-72.0989 F120.00
G01 X152.3496 Y-72.0989 F120.00
M5
G00 X154.7496 Y-72.0989
G01 F60.00
M03 S10000.0
G01 F120.00
G01 X179.7809 Y-72.0989 F120.00
G01 X179.8985 Y-72.1047 F120.00
G01 X180.0150 Y-72.1220 F120.00
G01 X180.1292 Y-72.1506 F120.00
G01 X180.2401 Y-72.1903 F120.00
G01 X180.3465 Y-72.2406 F120.00
G01 X180.4476 Y-72.3012 F120.00
G01 X180.5421 Y-72.3713 F120.00
G01 X180.6294 Y-72.4504 F120.00
G01 X180.7085 Y-72.5377 F120.00
G01 X180.7786 Y-72.6323 F120.00
G01 X180.8392 Y-72.7333 F120.00
G01 X180.8895 Y-72.8397 F120.00
G01 X180.9292 Y-72.9506 F120.00
G01 X180.9578 Y-73.0648 F120.00
G01 X180.9751 Y-73.1813 F120.00
G01 X180.9809 Y-73.2989 F120.00
G01 X180.9809 Y-95.9595 F120.00
M5
G00 X180.9809 Y-98.3595
G01 F60.00
M03 S10000.0
G01 F120.00
G01 X180.9809 Y-121.0201 F120.00
G01 X180.9751 Y-121.1378 F120.00
G01 X180.9578 Y-121.2543 F120.00
G01 X180.9292 Y-121.3685 F120.00
G01 X180.8895 Y-121.4794 F120.00
G01 X180.8392 Y-121.5858 F120.00
G01 X180.7786 Y-121.6868 F120.00
G01 X180.7085 Y-121.7814 F120.00
G01 X180.6294 Y-121.8687 F120.00
G01 X180.5421 Y-121.9478 F120.00
G01 X180.4476 Y-122.0179 F120.00
G01 X180.3465 Y-122.0785 F120.00
G01 X180.2401 Y-122.1288 F120.00
G01 X180.1292 Y-122.1685 F120.00
G01 X180.0150 Y-122.1971 F120.00
G01 X179.8985 Y-122.2144 F120.00
G01 X179.7809 Y-122.2201 F120.00
G01 X154.7496 Y-122.2201 F120.00
M5
G00 X152.3496 Y-122.2201
G01 F60.00
M03 S10000.0
G01 F120.00
G01 X127.3183 Y-122.2201 F120.00
G01 X127.2007 Y-122.2144 F120.00
G01 X127.0842 Y-122.1971 F120.00
G01 X126.9700 Y-122.1685 F120.00
G01 X126.8591 Y-122.1288 F120.00
G01 X126.7526 Y-122.0785 F120.00
G01 X126.6516 Y-122.0179 F120.00
G01 X126.5570 Y-121.9478 F120.00
G01 X126.4698 Y-121.8687 F120.00
G01 X126.3907 Y-121.7814 F120.00
G01 X126.3205 Y-121.6868 F120.00
G01 X126.2600 Y-121.5858 F120.00
G01 X126.2097 Y-121.4794 F120.00
G01 X126.1700 Y-121.3685 F120.00
G01 X126.1414 Y-121.2543 F120.00
G01 X126.1241 Y-121.1378 F120.00
G01 X126.1183 Y-121.0201 F120.00
G01 X126.1183 Y-98.3595 F120.00
M5
M5
M5
G00 Z15.00


