(G-CODE GENERATED BY FLATCAM v8.994 - www.flatcam.org - Version Date: 2020/11/7)

(Name: hokushime-db9-to-rs232-B_Silkscreen.gbr_mt_paint_cnc)
(Type: G-code from Geometry)
(Units: MM)

(Created on Thursday, 22 May 2025 at 18:57)

(This preprocessor is used with a motion controller loaded with GRBL firmware. )
(It is for the case when it is used together with a LASER connected on the SPINDLE connector.)

(Feedrate: 120.0 mm/min)
(Feedrate rapids: 1500.0 mm/min)

(Z Focus: 2.0 mm)
(Steps per circle: 64)
(Preprocessor Geometry: GRBL_laser)

(X range:  126.8243 ...  180.1765  mm)
(Y range: -121.4858 ...  -72.8742  mm)

(Laser Power - Spindle Speed: 1000.0)

G21
G90
G17
G94

G01 F120.00

M5
G01 F120.00
G00 X127.0999 Y-73.9302
G01 F60.00
M03 S1000.0
G01 F120.00
G01 X128.4014 Y-73.9302 F120.00
M5
G00 X128.3168 Y-73.9782
G01 F60.00
M03 S1000.0
G01 F120.00
G01 X127.0722 Y-73.9782 F120.00
G01 X127.0478 Y-74.0262 F120.00
G01 X128.2450 Y-74.0262 F120.00
G01 X128.1834 Y-74.0742 F120.00
G01 X127.0256 Y-74.0742 F120.00
G01 X127.0034 Y-74.1222 F120.00
G01 X128.1308 Y-74.1222 F120.00
M5
G00 X128.0821 Y-74.1702
G01 F60.00
M03 S1000.0
G01 F120.00
G01 X126.9821 Y-74.1702 F120.00
G01 X126.9637 Y-74.2182 F120.00
G01 X128.0401 Y-74.2182 F120.00
M5
G00 X128.0018 Y-74.2662
G01 F60.00
M03 S1000.0
G01 F120.00
G01 X126.9468 Y-74.2662 F120.00
G01 X126.9300 Y-74.3142 F120.00
G01 X127.9673 Y-74.3142 F120.00
M5
G00 X127.9367 Y-74.3622
G01 F60.00
M03 S1000.0
G01 F120.00
G01 X126.9140 Y-74.3622 F120.00
G01 X126.9008 Y-74.4102 F120.00
G01 X127.9087 Y-74.4102 F120.00
M5
G00 X127.8842 Y-74.4582
G01 F60.00
M03 S1000.0
G01 F120.00
G01 X126.8889 Y-74.4582 F120.00
G01 X126.8770 Y-74.5062 F120.00
G01 X127.8620 Y-74.5062 F120.00
M5
G00 X127.8425 Y-74.5542
G01 F60.00
M03 S1000.0
G01 F120.00
G01 X126.8659 Y-74.5542 F120.00
G01 X126.8573 Y-74.6022 F120.00
G01 X127.8256 Y-74.6022 F120.00
M5
G00 X127.8103 Y-74.6502
G01 F60.00
M03 S1000.0
G01 F120.00
G01 X126.8502 Y-74.6502 F120.00
G01 X126.8431 Y-74.6982 F120.00
G01 X127.7984 Y-74.6982 F120.00
M5
G00 X127.7867 Y-74.7462
G01 F60.00
M03 S1000.0
G01 F120.00
G01 X126.8364 Y-74.7462 F120.00
G01 X126.8321 Y-74.7942 F120.00
G01 X127.7796 Y-74.7942 F120.00
G01 X127.7725 Y-74.8422 F120.00
G01 X126.8296 Y-74.8422 F120.00
G01 X126.8270 Y-74.8902 F120.00
G01 X127.7688 Y-74.8902 F120.00
G01 X127.7663 Y-74.9382 F120.00
G01 X126.8246 Y-74.9382 F120.00
G01 X126.8244 Y-74.9862 F120.00
G01 X127.7658 Y-74.9862 F120.00
G01 X127.7678 Y-75.0342 F120.00
G01 X126.8265 Y-75.0342 F120.00
G01 X126.8285 Y-75.0822 F120.00
G01 X127.7699 Y-75.0822 F120.00
M5
G00 X127.7704 Y-75.0931
G01 F60.00
M03 S1000.0
G01 F120.00
G01 X127.7700 Y-75.0985 F120.00
G01 X127.7711 Y-75.1199 F120.00
G01 X127.7711 Y-119.2197 F120.00
G01 X127.7706 Y-119.2300 F120.00
G01 X127.7706 Y-119.2413 F120.00
G01 X127.7650 Y-119.3743 F120.00
G01 X127.7708 Y-119.4855 F120.00
G01 X127.7872 Y-119.5958 F120.00
G01 X127.8139 Y-119.7039 F120.00
G01 X127.8514 Y-119.8103 F120.00
G01 X127.8983 Y-119.9114 F120.00
G01 X127.9538 Y-120.0064 F120.00
G01 X128.0179 Y-120.0958 F120.00
G01 X128.0921 Y-120.1808 F120.00
G01 X128.1726 Y-120.2568 F120.00
G01 X128.2622 Y-120.3266 F120.00
G01 X128.3550 Y-120.3856 F120.00
G01 X128.4542 Y-120.4363 F120.00
G01 X128.5592 Y-120.4777 F120.00
G01 X128.6649 Y-120.5082 F120.00
G01 X128.7506 Y-120.5244 F120.00
G01 X128.7554 Y-120.5249 F120.00
G01 X150.3850 Y-120.5338 F120.00
G01 X150.3894 Y-120.5335 F120.00
G01 X150.3944 Y-120.5323 F120.00
G01 X150.3984 Y-120.5306 F120.00
G01 X150.4022 Y-120.5283 F120.00
G01 X150.4062 Y-120.5250 F120.00
G01 X150.4091 Y-120.5217 F120.00
G01 X150.4118 Y-120.5173 F120.00
G01 X150.4135 Y-120.5132 F120.00
G01 X150.4145 Y-120.5089 F120.00
G01 X150.4150 Y-120.5038 F120.00
G01 X150.4147 Y-115.4314 F120.00
G01 X150.4137 Y-115.4263 F120.00
G01 X150.4118 Y-115.4215 F120.00
G01 X150.4086 Y-115.4166 F120.00
G01 X150.4051 Y-115.4128 F120.00
G01 X150.4010 Y-115.4097 F120.00
G01 X150.3965 Y-115.4073 F120.00
G01 X150.3915 Y-115.4058 F120.00
G01 X150.3864 Y-115.4051 F120.00
G01 X149.4957 Y-115.4050 F120.00
G01 X149.4921 Y-115.4049 F120.00
G01 X149.4863 Y-115.4037 F120.00
G01 X149.4809 Y-115.4015 F120.00
G01 X149.4783 Y-115.3999 F120.00
G01 X149.4760 Y-115.3982 F120.00
G01 X149.4718 Y-115.3940 F120.00
G01 X149.4685 Y-115.3891 F120.00
G01 X149.4663 Y-115.3837 F120.00
G01 X149.4652 Y-115.3779 F120.00
G01 X149.4650 Y-115.3743 F120.00
G01 X149.4650 Y-112.7157 F120.00
G01 X149.4652 Y-112.7121 F120.00
G01 X149.4663 Y-112.7063 F120.00
G01 X149.4685 Y-112.7009 F120.00
G01 X149.4718 Y-112.6960 F120.00
G01 X149.4760 Y-112.6918 F120.00
G01 X149.4783 Y-112.6901 F120.00
G01 X149.4809 Y-112.6885 F120.00
G01 X149.4863 Y-112.6863 F120.00
G01 X149.4921 Y-112.6852 F120.00
G01 X149.4957 Y-112.6850 F120.00
G01 X150.3850 Y-112.6850 F120.00
G01 X150.3901 Y-112.6845 F120.00
G01 X150.3951 Y-112.6832 F120.00
G01 X150.3991 Y-112.6814 F120.00
G01 X150.4028 Y-112.6791 F120.00
G01 X150.4062 Y-112.6762 F120.00
G01 X150.4086 Y-112.6734 F120.00
G01 X150.4111 Y-112.6698 F120.00
G01 X150.4130 Y-112.6658 F120.00
G01 X150.4142 Y-112.6615 F120.00
G01 X150.4149 Y-112.6572 F120.00
G01 X150.4150 Y-112.3857 F120.00
G01 X150.4156 Y-112.3792 F120.00
G01 X150.4173 Y-112.3735 F120.00
G01 X150.4185 Y-112.3709 F120.00
G01 X150.4218 Y-112.3660 F120.00
G01 X150.4260 Y-112.3618 F120.00
G01 X150.4309 Y-112.3585 F120.00
G01 X150.4335 Y-112.3573 F120.00
G01 X150.4391 Y-112.3556 F120.00
G01 X150.4450 Y-112.3550 F120.00
G01 X150.4509 Y-112.3556 F120.00
G01 X150.4565 Y-112.3573 F120.00
G01 X150.4591 Y-112.3585 F120.00
G01 X150.4640 Y-112.3618 F120.00
G01 X150.4682 Y-112.3660 F120.00
G01 X150.4715 Y-112.3709 F120.00
G01 X150.4727 Y-112.3735 F120.00
G01 X150.4744 Y-112.3792 F120.00
G01 X150.4750 Y-112.3857 F120.00
G01 X150.4752 Y-112.6579 F120.00
G01 X150.4759 Y-112.6623 F120.00
G01 X150.4776 Y-112.6671 F120.00
G01 X150.4801 Y-112.6716 F120.00
G01 X150.4833 Y-112.6757 F120.00
G01 X150.4872 Y-112.6791 F120.00
G01 X150.4915 Y-112.6818 F120.00
G01 X150.4963 Y-112.6837 F120.00
G01 X150.5014 Y-112.6847 F120.00
G01 X151.1450 Y-112.6850 F120.00
G01 X151.1515 Y-112.6842 F120.00
G01 X151.1578 Y-112.6821 F120.00
G01 X151.1610 Y-112.6803 F120.00
G01 X151.1646 Y-112.6777 F120.00
G01 X151.1677 Y-112.6746 F120.00
G01 X151.1699 Y-112.6716 F120.00
G01 X151.1718 Y-112.6685 F120.00
G01 X151.1735 Y-112.6644 F120.00
G01 X151.1744 Y-112.6608 F120.00
G01 X151.1749 Y-112.6564 F120.00
G01 X151.1752 Y-112.3821 F120.00
G01 X151.1763 Y-112.3763 F120.00
G01 X151.1773 Y-112.3735 F120.00
G01 X151.1801 Y-112.3683 F120.00
G01 X151.1838 Y-112.3638 F120.00
G01 X151.1883 Y-112.3601 F120.00
G01 X151.1935 Y-112.3573 F120.00
G01 X151.1991 Y-112.3556 F120.00
G01 X151.2050 Y-112.3550 F120.00
G01 X151.2079 Y-112.3552 F120.00
G01 X151.2137 Y-112.3563 F120.00
G01 X151.2191 Y-112.3585 F120.00
G01 X151.2240 Y-112.3618 F120.00
G01 X151.2282 Y-112.3660 F120.00
G01 X151.2315 Y-112.3709 F120.00
G01 X151.2327 Y-112.3735 F120.00
G01 X151.2344 Y-112.3792 F120.00
G01 X151.2350 Y-112.3857 F120.00
G01 X151.2351 Y-112.6572 F120.00
G01 X151.2358 Y-112.6615 F120.00
G01 X151.2373 Y-112.6665 F120.00
G01 X151.2397 Y-112.6710 F120.00
G01 X151.2423 Y-112.6746 F120.00
G01 X151.2460 Y-112.6782 F120.00
G01 X151.2496 Y-112.6807 F120.00
G01 X151.2542 Y-112.6830 F120.00
G01 X151.2592 Y-112.6844 F120.00
G01 X151.2650 Y-112.6850 F120.00
G01 X152.9286 Y-112.6847 F120.00
G01 X152.9337 Y-112.6837 F120.00
G01 X152.9385 Y-112.6818 F120.00
G01 X152.9428 Y-112.6791 F120.00
G01 X152.9467 Y-112.6757 F120.00
G01 X152.9499 Y-112.6716 F120.00
G01 X152.9524 Y-112.6671 F120.00
G01 X152.9541 Y-112.6623 F120.00
G01 X152.9549 Y-112.6572 F120.00
G01 X152.9552 Y-112.3150 F120.00
G01 X152.9563 Y-112.3092 F120.00
G01 X152.9585 Y-112.3038 F120.00
G01 X152.9618 Y-112.2989 F120.00
G01 X152.9638 Y-112.2967 F120.00
G01 X152.9683 Y-112.2930 F120.00
G01 X152.9735 Y-112.2902 F120.00
G01 X152.9791 Y-112.2885 F120.00
G01 X152.9850 Y-112.2879 F120.00
G01 X152.9909 Y-112.2885 F120.00
G01 X152.9965 Y-112.2902 F120.00
G01 X152.9991 Y-112.2915 F120.00
G01 X153.0040 Y-112.2947 F120.00
G01 X153.0082 Y-112.2989 F120.00
G01 X153.0115 Y-112.3038 F120.00
G01 X153.0127 Y-112.3065 F120.00
G01 X153.0144 Y-112.3121 F120.00
G01 X153.0150 Y-112.3187 F120.00
G01 X153.0151 Y-112.6572 F120.00
G01 X153.0161 Y-112.6630 F120.00
G01 X153.0179 Y-112.6678 F120.00
G01 X153.0209 Y-112.6728 F120.00
G01 X153.0243 Y-112.6767 F120.00
G01 X153.0284 Y-112.6799 F120.00
G01 X153.0335 Y-112.6827 F120.00
G01 X153.0385 Y-112.6842 F120.00
G01 X153.0443 Y-112.6850 F120.00
G01 X153.6850 Y-112.6850 F120.00
G01 X153.6886 Y-112.6847 F120.00
G01 X153.6930 Y-112.6839 F120.00
G01 X153.6998 Y-112.6811 F120.00
G01 X153.7057 Y-112.6767 F120.00
G01 X153.7103 Y-112.6710 F120.00
G01 X153.7135 Y-112.6644 F120.00
G01 X153.7144 Y-112.6608 F120.00
G01 X153.7149 Y-112.6564 F120.00
G01 X153.7152 Y-112.3150 F120.00
G01 X153.7163 Y-112.3092 F120.00
G01 X153.7185 Y-112.3038 F120.00
G01 X153.7218 Y-112.2989 F120.00
G01 X153.7238 Y-112.2967 F120.00
G01 X153.7283 Y-112.2930 F120.00
G01 X153.7335 Y-112.2902 F120.00
G01 X153.7392 Y-112.2885 F120.00
G01 X153.7450 Y-112.2879 F120.00
G01 X153.7509 Y-112.2885 F120.00
G01 X153.7565 Y-112.2902 F120.00
G01 X153.7617 Y-112.2930 F120.00
G01 X153.7662 Y-112.2967 F120.00
G01 X153.7682 Y-112.2989 F120.00
G01 X153.7715 Y-112.3038 F120.00
G01 X153.7737 Y-112.3092 F120.00
G01 X153.7749 Y-112.3150 F120.00
G01 X153.7751 Y-112.6572 F120.00
G01 X153.7759 Y-112.6623 F120.00
G01 X153.7776 Y-112.6671 F120.00
G01 X153.7801 Y-112.6716 F120.00
G01 X153.7828 Y-112.6751 F120.00
G01 X153.7866 Y-112.6786 F120.00
G01 X153.7909 Y-112.6814 F120.00
G01 X153.7956 Y-112.6835 F120.00
G01 X153.8006 Y-112.6846 F120.00
G01 X153.8050 Y-112.6850 F120.00
G01 X155.4650 Y-112.6850 F120.00
G01 X155.4715 Y-112.6842 F120.00
G01 X155.4765 Y-112.6827 F120.00
G01 X155.4804 Y-112.6807 F120.00
G01 X155.4846 Y-112.6777 F120.00
G01 X155.4877 Y-112.6746 F120.00
G01 X155.4903 Y-112.6710 F120.00
G01 X155.4927 Y-112.6665 F120.00
G01 X155.4942 Y-112.6615 F120.00
G01 X155.4949 Y-112.6572 F120.00
G01 X155.4951 Y-112.3150 F120.00
G01 X155.4963 Y-112.3092 F120.00
G01 X155.4985 Y-112.3038 F120.00
G01 X155.5018 Y-112.2989 F120.00
G01 X155.5060 Y-112.2947 F120.00
G01 X155.5109 Y-112.2915 F120.00
G01 X155.5163 Y-112.2892 F120.00
G01 X155.5221 Y-112.2881 F120.00
G01 X155.5250 Y-112.2879 F120.00
G01 X155.5308 Y-112.2885 F120.00
G01 X155.5365 Y-112.2902 F120.00
G01 X155.5417 Y-112.2930 F120.00
G01 X155.5462 Y-112.2967 F120.00
G01 X155.5482 Y-112.2989 F120.00
G01 X155.5514 Y-112.3038 F120.00
G01 X155.5537 Y-112.3092 F120.00
G01 X155.5548 Y-112.3150 F120.00
G01 X155.5551 Y-112.6564 F120.00
G01 X155.5563 Y-112.6637 F120.00
G01 X155.5576 Y-112.6671 F120.00
G01 X155.5597 Y-112.6710 F120.00
G01 X155.5643 Y-112.6767 F120.00
G01 X155.5702 Y-112.6811 F120.00
G01 X155.5770 Y-112.6839 F120.00
G01 X155.5814 Y-112.6847 F120.00
G01 X155.5850 Y-112.6850 F120.00
G01 X156.2286 Y-112.6847 F120.00
G01 X156.2337 Y-112.6837 F120.00
G01 X156.2385 Y-112.6818 F120.00
G01 X156.2428 Y-112.6791 F120.00
G01 X156.2467 Y-112.6757 F120.00
G01 X156.2499 Y-112.6716 F120.00
G01 X156.2524 Y-112.6671 F120.00
G01 X156.2541 Y-112.6623 F120.00
G01 X156.2549 Y-112.6572 F120.00
G01 X156.2552 Y-112.3150 F120.00
G01 X156.2563 Y-112.3092 F120.00
G01 X156.2585 Y-112.3038 F120.00
G01 X156.2618 Y-112.2989 F120.00
G01 X156.2638 Y-112.2967 F120.00
G01 X156.2683 Y-112.2930 F120.00
G01 X156.2735 Y-112.2902 F120.00
G01 X156.2791 Y-112.2885 F120.00
G01 X156.2850 Y-112.2879 F120.00
G01 X156.2909 Y-112.2885 F120.00
G01 X156.2965 Y-112.2902 F120.00
G01 X156.3017 Y-112.2930 F120.00
G01 X156.3062 Y-112.2967 F120.00
G01 X156.3082 Y-112.2989 F120.00
G01 X156.3115 Y-112.3038 F120.00
G01 X156.3137 Y-112.3092 F120.00
G01 X156.3148 Y-112.3150 F120.00
G01 X156.3151 Y-112.6572 F120.00
G01 X156.3161 Y-112.6630 F120.00
G01 X156.3179 Y-112.6678 F120.00
G01 X156.3205 Y-112.6722 F120.00
G01 X156.3243 Y-112.6767 F120.00
G01 X156.3284 Y-112.6799 F120.00
G01 X156.3329 Y-112.6824 F120.00
G01 X156.3377 Y-112.6841 F120.00
G01 X156.3436 Y-112.6849 F120.00
G01 X158.0050 Y-112.6850 F120.00
G01 X158.0115 Y-112.6842 F120.00
G01 X158.0164 Y-112.6827 F120.00
G01 X158.0204 Y-112.6807 F120.00
G01 X158.0240 Y-112.6782 F120.00
G01 X158.0277 Y-112.6746 F120.00
G01 X158.0303 Y-112.6710 F120.00
G01 X158.0327 Y-112.6665 F120.00
G01 X158.0341 Y-112.6623 F120.00
G01 X158.0349 Y-112.6572 F120.00
G01 X158.0352 Y-112.3150 F120.00
G01 X158.0363 Y-112.3092 F120.00
G01 X158.0385 Y-112.3038 F120.00
G01 X158.0418 Y-112.2989 F120.00
G01 X158.0438 Y-112.2967 F120.00
G01 X158.0483 Y-112.2930 F120.00
G01 X158.0535 Y-112.2902 F120.00
G01 X158.0591 Y-112.2885 F120.00
G01 X158.0650 Y-112.2879 F120.00
G01 X158.0679 Y-112.2881 F120.00
G01 X158.0737 Y-112.2892 F120.00
G01 X158.0791 Y-112.2915 F120.00
G01 X158.0840 Y-112.2947 F120.00
G01 X158.0882 Y-112.2989 F120.00
G01 X158.0915 Y-112.3038 F120.00
G01 X158.0937 Y-112.3092 F120.00
G01 X158.0948 Y-112.3150 F120.00
G01 X158.0951 Y-112.6564 F120.00
G01 X158.0963 Y-112.6637 F120.00
G01 X158.0993 Y-112.6704 F120.00
G01 X158.1014 Y-112.6734 F120.00
G01 X158.1043 Y-112.6767 F120.00
G01 X158.1102 Y-112.6811 F120.00
G01 X158.1135 Y-112.6827 F120.00
G01 X158.1177 Y-112.6841 F120.00
G01 X158.1250 Y-112.6850 F120.00
G01 X158.7650 Y-112.6850 F120.00
G01 X158.7694 Y-112.6846 F120.00
G01 X158.7744 Y-112.6835 F120.00
G01 X158.7791 Y-112.6814 F120.00
G01 X158.7828 Y-112.6791 F120.00
G01 X158.7867 Y-112.6757 F120.00
G01 X158.7899 Y-112.6716 F120.00
G01 X158.7924 Y-112.6671 F120.00
G01 X158.7941 Y-112.6623 F120.00
G01 X158.7949 Y-112.6572 F120.00
G01 X158.7952 Y-112.3150 F120.00
G01 X158.7963 Y-112.3092 F120.00
G01 X158.7985 Y-112.3038 F120.00
G01 X158.8018 Y-112.2989 F120.00
G01 X158.8038 Y-112.2967 F120.00
G01 X158.8083 Y-112.2930 F120.00
G01 X158.8135 Y-112.2902 F120.00
G01 X158.8192 Y-112.2885 F120.00
G01 X158.8250 Y-112.2879 F120.00
G01 X158.8279 Y-112.2881 F120.00
G01 X158.8337 Y-112.2892 F120.00
G01 X158.8391 Y-112.2915 F120.00
G01 X158.8440 Y-112.2947 F120.00
G01 X158.8482 Y-112.2989 F120.00
G01 X158.8515 Y-112.3038 F120.00
G01 X158.8537 Y-112.3092 F120.00
G01 X158.8549 Y-112.3150 F120.00
G01 X158.8551 Y-112.6572 F120.00
G01 X158.8561 Y-112.6630 F120.00
G01 X158.8579 Y-112.6678 F120.00
G01 X158.8609 Y-112.6728 F120.00
G01 X158.8643 Y-112.6767 F120.00
G01 X158.8684 Y-112.6799 F120.00
G01 X158.8735 Y-112.6827 F120.00
G01 X158.8785 Y-112.6842 F120.00
G01 X158.8836 Y-112.6849 F120.00
G01 X160.5450 Y-112.6850 F120.00
G01 X160.5515 Y-112.6842 F120.00
G01 X160.5558 Y-112.6830 F120.00
G01 X160.5604 Y-112.6807 F120.00
G01 X160.5640 Y-112.6782 F120.00
G01 X160.5677 Y-112.6746 F120.00
G01 X160.5703 Y-112.6710 F120.00
G01 X160.5727 Y-112.6664 F120.00
G01 X160.5742 Y-112.6615 F120.00
G01 X160.5749 Y-112.6572 F120.00
G01 X160.5751 Y-112.3150 F120.00
G01 X160.5763 Y-112.3092 F120.00
G01 X160.5785 Y-112.3038 F120.00
G01 X160.5818 Y-112.2989 F120.00
G01 X160.5838 Y-112.2967 F120.00
G01 X160.5883 Y-112.2930 F120.00
G01 X160.5935 Y-112.2902 F120.00
G01 X160.5991 Y-112.2885 F120.00
G01 X160.6050 Y-112.2879 F120.00
G01 X160.6108 Y-112.2885 F120.00
G01 X160.6165 Y-112.2902 F120.00
G01 X160.6217 Y-112.2930 F120.00
G01 X160.6262 Y-112.2967 F120.00
G01 X160.6282 Y-112.2989 F120.00
G01 X160.6315 Y-112.3038 F120.00
G01 X160.6337 Y-112.3092 F120.00
G01 X160.6348 Y-112.3150 F120.00
G01 X160.6351 Y-112.6572 F120.00
G01 X160.6359 Y-112.6623 F120.00
G01 X160.6376 Y-112.6671 F120.00
G01 X160.6401 Y-112.6716 F120.00
G01 X160.6433 Y-112.6757 F120.00
G01 X160.6472 Y-112.6791 F120.00
G01 X160.6515 Y-112.6818 F120.00
G01 X160.6563 Y-112.6837 F120.00
G01 X160.6614 Y-112.6847 F120.00
G01 X161.3050 Y-112.6850 F120.00
G01 X161.3086 Y-112.6847 F120.00
G01 X161.3130 Y-112.6839 F120.00
G01 X161.3198 Y-112.6811 F120.00
G01 X161.3257 Y-112.6767 F120.00
G01 X161.3303 Y-112.6710 F120.00
G01 X161.3335 Y-112.6644 F120.00
G01 X161.3344 Y-112.6608 F120.00
G01 X161.3349 Y-112.6564 F120.00
G01 X161.3352 Y-112.3150 F120.00
G01 X161.3363 Y-112.3092 F120.00
G01 X161.3386 Y-112.3038 F120.00
G01 X161.3418 Y-112.2989 F120.00
G01 X161.3438 Y-112.2967 F120.00
G01 X161.3483 Y-112.2930 F120.00
G01 X161.3535 Y-112.2902 F120.00
G01 X161.3592 Y-112.2885 F120.00
G01 X161.3650 Y-112.2879 F120.00
G01 X161.3679 Y-112.2881 F120.00
G01 X161.3737 Y-112.2892 F120.00
G01 X161.3791 Y-112.2915 F120.00
G01 X161.3840 Y-112.2947 F120.00
G01 X161.3882 Y-112.2989 F120.00
G01 X161.3915 Y-112.3038 F120.00
G01 X161.3937 Y-112.3092 F120.00
G01 X161.3949 Y-112.3150 F120.00
G01 X161.3951 Y-112.6572 F120.00
G01 X161.3959 Y-112.6623 F120.00
G01 X161.3973 Y-112.6664 F120.00
G01 X161.3997 Y-112.6710 F120.00
G01 X161.4023 Y-112.6746 F120.00
G01 X161.4060 Y-112.6782 F120.00
G01 X161.4096 Y-112.6807 F120.00
G01 X161.4142 Y-112.6830 F120.00
G01 X161.4185 Y-112.6842 F120.00
G01 X161.4250 Y-112.6850 F120.00
G01 X163.0850 Y-112.6850 F120.00
G01 X163.0894 Y-112.6846 F120.00
G01 X163.0944 Y-112.6835 F120.00
G01 X163.0991 Y-112.6814 F120.00
G01 X163.1034 Y-112.6786 F120.00
G01 X163.1072 Y-112.6751 F120.00
G01 X163.1103 Y-112.6710 F120.00
G01 X163.1127 Y-112.6664 F120.00
G01 X163.1141 Y-112.6623 F120.00
G01 X163.1149 Y-112.6572 F120.00
G01 X163.1152 Y-112.3150 F120.00
G01 X163.1163 Y-112.3092 F120.00
G01 X163.1173 Y-112.3065 F120.00
G01 X163.1201 Y-112.3013 F120.00
G01 X163.1238 Y-112.2967 F120.00
G01 X163.1283 Y-112.2930 F120.00
G01 X163.1335 Y-112.2902 F120.00
G01 X163.1392 Y-112.2885 F120.00
G01 X163.1450 Y-112.2879 F120.00
G01 X163.1509 Y-112.2885 F120.00
G01 X163.1565 Y-112.2902 F120.00
G01 X163.1617 Y-112.2930 F120.00
G01 X163.1662 Y-112.2967 F120.00
G01 X163.1699 Y-112.3013 F120.00
G01 X163.1727 Y-112.3065 F120.00
G01 X163.1744 Y-112.3121 F120.00
G01 X163.1749 Y-112.3150 F120.00
G01 X163.1751 Y-112.6564 F120.00
G01 X163.1763 Y-112.6637 F120.00
G01 X163.1776 Y-112.6671 F120.00
G01 X163.1797 Y-112.6710 F120.00
G01 X163.1843 Y-112.6767 F120.00
G01 X163.1902 Y-112.6811 F120.00
G01 X163.1970 Y-112.6839 F120.00
G01 X163.2014 Y-112.6847 F120.00
G01 X163.2050 Y-112.6850 F120.00
G01 X163.8472 Y-112.6849 F120.00
G01 X163.8523 Y-112.6841 F120.00
G01 X163.8578 Y-112.6821 F120.00
G01 X163.8622 Y-112.6795 F120.00
G01 X163.8662 Y-112.6762 F120.00
G01 X163.8699 Y-112.6716 F120.00
G01 X163.8724 Y-112.6671 F120.00
G01 X163.8741 Y-112.6623 F120.00
G01 X163.8749 Y-112.6572 F120.00
G01 X163.8752 Y-112.3150 F120.00
G01 X163.8763 Y-112.3092 F120.00
G01 X163.8785 Y-112.3038 F120.00
G01 X163.8818 Y-112.2989 F120.00
G01 X163.8838 Y-112.2967 F120.00
G01 X163.8883 Y-112.2930 F120.00
G01 X163.8935 Y-112.2902 F120.00
G01 X163.8991 Y-112.2885 F120.00
G01 X163.9050 Y-112.2879 F120.00
G01 X163.9079 Y-112.2881 F120.00
G01 X163.9137 Y-112.2892 F120.00
G01 X163.9191 Y-112.2915 F120.00
G01 X163.9240 Y-112.2947 F120.00
G01 X163.9282 Y-112.2989 F120.00
G01 X163.9315 Y-112.3038 F120.00
G01 X163.9337 Y-112.3092 F120.00
G01 X163.9348 Y-112.3150 F120.00
G01 X163.9351 Y-112.6572 F120.00
G01 X163.9359 Y-112.6623 F120.00
G01 X163.9373 Y-112.6664 F120.00
G01 X163.9397 Y-112.6710 F120.00
G01 X163.9423 Y-112.6746 F120.00
G01 X163.9460 Y-112.6782 F120.00
G01 X163.9496 Y-112.6807 F120.00
G01 X163.9542 Y-112.6830 F120.00
G01 X163.9585 Y-112.6842 F120.00
G01 X163.9650 Y-112.6850 F120.00
G01 X165.6264 Y-112.6849 F120.00
G01 X165.6315 Y-112.6842 F120.00
G01 X165.6365 Y-112.6827 F120.00
G01 X165.6416 Y-112.6799 F120.00
G01 X165.6457 Y-112.6767 F120.00
G01 X165.6491 Y-112.6728 F120.00
G01 X165.6521 Y-112.6678 F120.00
G01 X165.6539 Y-112.6630 F120.00
G01 X165.6549 Y-112.6572 F120.00
G01 X165.6552 Y-112.3150 F120.00
G01 X165.6563 Y-112.3092 F120.00
G01 X165.6585 Y-112.3038 F120.00
G01 X165.6618 Y-112.2989 F120.00
G01 X165.6638 Y-112.2967 F120.00
G01 X165.6683 Y-112.2930 F120.00
G01 X165.6735 Y-112.2902 F120.00
G01 X165.6791 Y-112.2885 F120.00
G01 X165.6850 Y-112.2879 F120.00
G01 X165.6909 Y-112.2885 F120.00
G01 X165.6965 Y-112.2902 F120.00
G01 X165.7017 Y-112.2930 F120.00
G01 X165.7062 Y-112.2967 F120.00
G01 X165.7082 Y-112.2989 F120.00
G01 X165.7115 Y-112.3038 F120.00
G01 X165.7137 Y-112.3092 F120.00
G01 X165.7148 Y-112.3150 F120.00
G01 X165.7151 Y-112.6564 F120.00
G01 X165.7156 Y-112.6608 F120.00
G01 X165.7165 Y-112.6644 F120.00
G01 X165.7197 Y-112.6710 F120.00
G01 X165.7243 Y-112.6767 F120.00
G01 X165.7302 Y-112.6811 F120.00
G01 X165.7370 Y-112.6839 F120.00
G01 X165.7414 Y-112.6847 F120.00
G01 X165.7450 Y-112.6850 F120.00
G01 X166.3857 Y-112.6850 F120.00
G01 X166.3908 Y-112.6844 F120.00
G01 X166.3965 Y-112.6827 F120.00
G01 X166.4016 Y-112.6799 F120.00
G01 X166.4057 Y-112.6767 F120.00
G01 X166.4095 Y-112.6722 F120.00
G01 X166.4121 Y-112.6678 F120.00
G01 X166.4139 Y-112.6630 F120.00
G01 X166.4149 Y-112.6572 F120.00
G01 X166.4150 Y-112.3187 F120.00
G01 X166.4156 Y-112.3121 F120.00
G01 X166.4163 Y-112.3092 F120.00
G01 X166.4185 Y-112.3038 F120.00
G01 X166.4218 Y-112.2989 F120.00
G01 X166.4260 Y-112.2947 F120.00
G01 X166.4309 Y-112.2915 F120.00
G01 X166.4335 Y-112.2902 F120.00
G01 X166.4392 Y-112.2885 F120.00
G01 X166.4450 Y-112.2879 F120.00
G01 X166.4479 Y-112.2881 F120.00
G01 X166.4537 Y-112.2892 F120.00
G01 X166.4591 Y-112.2915 F120.00
G01 X166.4640 Y-112.2947 F120.00
G01 X166.4682 Y-112.2989 F120.00
G01 X166.4715 Y-112.3038 F120.00
G01 X166.4737 Y-112.3092 F120.00
G01 X166.4749 Y-112.3150 F120.00
G01 X166.4751 Y-112.6564 F120.00
G01 X166.4755 Y-112.6601 F120.00
G01 X166.4765 Y-112.6644 F120.00
G01 X166.4782 Y-112.6685 F120.00
G01 X166.4805 Y-112.6722 F120.00
G01 X166.4828 Y-112.6751 F120.00
G01 X166.4860 Y-112.6782 F120.00
G01 X166.4896 Y-112.6807 F120.00
G01 X166.4935 Y-112.6827 F120.00
G01 X166.4992 Y-112.6844 F120.00
G01 X166.5050 Y-112.6850 F120.00
G01 X167.3943 Y-112.6850 F120.00
G01 X167.3979 Y-112.6851 F120.00
G01 X167.4037 Y-112.6863 F120.00
G01 X167.4091 Y-112.6885 F120.00
G01 X167.4117 Y-112.6901 F120.00
G01 X167.4162 Y-112.6938 F120.00
G01 X167.4182 Y-112.6960 F120.00
G01 X167.4215 Y-112.7009 F120.00
G01 X167.4227 Y-112.7035 F120.00
G01 X167.4244 Y-112.7091 F120.00
G01 X167.4250 Y-112.7157 F120.00
G01 X167.4250 Y-115.3743 F120.00
G01 X167.4248 Y-115.3779 F120.00
G01 X167.4237 Y-115.3837 F120.00
G01 X167.4215 Y-115.3891 F120.00
G01 X167.4182 Y-115.3940 F120.00
G01 X167.4140 Y-115.3982 F120.00
G01 X167.4117 Y-115.3999 F120.00
G01 X167.4091 Y-115.4015 F120.00
G01 X167.4037 Y-115.4037 F120.00
G01 X167.3979 Y-115.4049 F120.00
G01 X167.3943 Y-115.4050 F120.00
G01 X166.5036 Y-115.4051 F120.00
G01 X166.4985 Y-115.4058 F120.00
G01 X166.4935 Y-115.4073 F120.00
G01 X166.4890 Y-115.4097 F120.00
G01 X166.4849 Y-115.4128 F120.00
G01 X166.4814 Y-115.4166 F120.00
G01 X166.4782 Y-115.4215 F120.00
G01 X166.4763 Y-115.4263 F120.00
G01 X166.4753 Y-115.4314 F120.00
G01 X166.4750 Y-120.5104 F120.00
G01 X166.4755 Y-120.5156 F120.00
G01 X166.4765 Y-120.5199 F120.00
G01 X166.4786 Y-120.5246 F120.00
G01 X166.4809 Y-120.5283 F120.00
G01 X166.4838 Y-120.5317 F120.00
G01 X166.4877 Y-120.5350 F120.00
G01 X166.4915 Y-120.5372 F120.00
G01 X166.4963 Y-120.5392 F120.00
G01 X166.5006 Y-120.5401 F120.00
G01 X166.5050 Y-120.5404 F120.00
G01 X178.2454 Y-120.5453 F120.00
G01 X178.2503 Y-120.5448 F120.00
G01 X178.3359 Y-120.5286 F120.00
G01 X178.4429 Y-120.4977 F120.00
G01 X178.5466 Y-120.4567 F120.00
G01 X178.6446 Y-120.4067 F120.00
G01 X178.7410 Y-120.3454 F120.00
G01 X178.8277 Y-120.2777 F120.00
G01 X178.9096 Y-120.2002 F120.00
G01 X178.9820 Y-120.1173 F120.00
G01 X179.0471 Y-120.0269 F120.00
G01 X179.1032 Y-119.9306 F120.00
G01 X179.1500 Y-119.8295 F120.00
G01 X179.1869 Y-119.7244 F120.00
G01 X179.2137 Y-119.6162 F120.00
G01 X179.2300 Y-119.5060 F120.00
G01 X179.2359 Y-119.3947 F120.00
G01 X179.2302 Y-119.2618 F120.00
G01 X179.2303 Y-119.2510 F120.00
G01 X179.2298 Y-119.2402 F120.00
G01 X179.2298 Y-75.1403 F120.00
G01 X179.2303 Y-75.1289 F120.00
G01 X179.2302 Y-75.1187 F120.00
G01 X179.2359 Y-74.9858 F120.00
G01 X179.2301 Y-74.8745 F120.00
G01 X179.2137 Y-74.7643 F120.00
G01 X179.1869 Y-74.6561 F120.00
G01 X179.1494 Y-74.5497 F120.00
G01 X179.1032 Y-74.4499 F120.00
G01 X179.0478 Y-74.3548 F120.00
G01 X178.9829 Y-74.2643 F120.00
G01 X178.9087 Y-74.1793 F120.00
G01 X178.8282 Y-74.1032 F120.00
G01 X178.7386 Y-74.0334 F120.00
G01 X178.6458 Y-73.9744 F120.00
G01 X178.5466 Y-73.9238 F120.00
G01 X178.4416 Y-73.8824 F120.00
G01 X178.3359 Y-73.8519 F120.00
G01 X178.2502 Y-73.8357 F120.00
G01 X178.2447 Y-73.8352 F120.00
G01 X128.7552 Y-73.8148 F120.00
G01 X128.7503 Y-73.8153 F120.00
G01 X128.6649 Y-73.8314 F120.00
G01 X128.5578 Y-73.8623 F120.00
G01 X128.4542 Y-73.9033 F120.00
G01 X128.3550 Y-73.9539 F120.00
G01 X128.2610 Y-74.0138 F120.00
G01 X128.1731 Y-74.0823 F120.00
G01 X128.0921 Y-74.1588 F120.00
G01 X128.0183 Y-74.2433 F120.00
G01 X127.9537 Y-74.3332 F120.00
G01 X127.8976 Y-74.4294 F120.00
G01 X127.8508 Y-74.5305 F120.00
G01 X127.8139 Y-74.6357 F120.00
G01 X127.7871 Y-74.7438 F120.00
G01 X127.7708 Y-74.8540 F120.00
G01 X127.7649 Y-74.9653 F120.00
G01 X127.7704 Y-75.0931 F120.00
M5
G00 X127.7711 Y-75.1302
G01 F60.00
M03 S1000.0
G01 F120.00
G01 X126.8306 Y-75.1302 F120.00
G01 X126.8306 Y-75.1782 F120.00
G01 X127.7711 Y-75.1782 F120.00
G01 X127.7711 Y-75.2262 F120.00
G01 X126.8306 Y-75.2262 F120.00
G01 X126.8306 Y-75.2742 F120.00
G01 X127.7711 Y-75.2742 F120.00
G01 X127.7711 Y-75.3222 F120.00
G01 X126.8306 Y-75.3222 F120.00
G01 X126.8306 Y-75.3702 F120.00
G01 X127.7711 Y-75.3702 F120.00
G01 X127.7711 Y-75.4182 F120.00
G01 X126.8306 Y-75.4182 F120.00
G01 X126.8306 Y-75.4662 F120.00
G01 X127.7711 Y-75.4662 F120.00
G01 X127.7711 Y-75.5142 F120.00
G01 X126.8306 Y-75.5142 F120.00
G01 X126.8306 Y-75.5622 F120.00
G01 X127.7711 Y-75.5622 F120.00
G01 X127.7711 Y-75.6102 F120.00
G01 X126.8306 Y-75.6102 F120.00
G01 X126.8306 Y-75.6582 F120.00
G01 X127.7711 Y-75.6582 F120.00
G01 X127.7711 Y-75.7062 F120.00
G01 X126.8306 Y-75.7062 F120.00
G01 X126.8306 Y-75.7542 F120.00
G01 X127.7711 Y-75.7542 F120.00
G01 X127.7711 Y-75.8022 F120.00
G01 X126.8306 Y-75.8022 F120.00
G01 X126.8306 Y-75.8502 F120.00
G01 X127.7711 Y-75.8502 F120.00
G01 X127.7711 Y-75.8982 F120.00
G01 X126.8306 Y-75.8982 F120.00
G01 X126.8306 Y-75.9462 F120.00
G01 X127.7711 Y-75.9462 F120.00
G01 X127.7711 Y-75.9942 F120.00
G01 X126.8306 Y-75.9942 F120.00
G01 X126.8306 Y-76.0422 F120.00
G01 X127.7711 Y-76.0422 F120.00
G01 X127.7711 Y-76.0902 F120.00
G01 X126.8306 Y-76.0902 F120.00
G01 X126.8306 Y-76.1382 F120.00
G01 X127.7711 Y-76.1382 F120.00
G01 X127.7711 Y-76.1862 F120.00
G01 X126.8306 Y-76.1862 F120.00
G01 X126.8306 Y-76.2342 F120.00
G01 X127.7711 Y-76.2342 F120.00
G01 X127.7711 Y-76.2822 F120.00
G01 X126.8306 Y-76.2822 F120.00
G01 X126.8306 Y-76.3302 F120.00
G01 X127.7711 Y-76.3302 F120.00
G01 X127.7711 Y-76.3782 F120.00
G01 X126.8306 Y-76.3782 F120.00
G01 X126.8306 Y-76.4262 F120.00
G01 X127.7711 Y-76.4262 F120.00
G01 X127.7711 Y-76.4742 F120.00
G01 X126.8306 Y-76.4742 F120.00
G01 X126.8306 Y-76.5222 F120.00
G01 X127.7711 Y-76.5222 F120.00
G01 X127.7711 Y-76.5702 F120.00
G01 X126.8306 Y-76.5702 F120.00
G01 X126.8306 Y-76.6182 F120.00
G01 X127.7711 Y-76.6182 F120.00
G01 X127.7711 Y-76.6662 F120.00
G01 X126.8306 Y-76.6662 F120.00
G01 X126.8306 Y-76.7142 F120.00
G01 X127.7711 Y-76.7142 F120.00
G01 X127.7711 Y-76.7622 F120.00
G01 X126.8306 Y-76.7622 F120.00
G01 X126.8306 Y-76.8102 F120.00
G01 X127.7711 Y-76.8102 F120.00
G01 X127.7711 Y-76.8582 F120.00
G01 X126.8306 Y-76.8582 F120.00
G01 X126.8306 Y-76.9062 F120.00
G01 X127.7711 Y-76.9062 F120.00
G01 X127.7711 Y-76.9542 F120.00
G01 X126.8306 Y-76.9542 F120.00
G01 X126.8306 Y-77.0022 F120.00
G01 X127.7711 Y-77.0022 F120.00
G01 X127.7711 Y-77.0502 F120.00
G01 X126.8306 Y-77.0502 F120.00
G01 X126.8306 Y-77.0982 F120.00
G01 X127.7711 Y-77.0982 F120.00
G01 X127.7711 Y-77.1462 F120.00
G01 X126.8306 Y-77.1462 F120.00
G01 X126.8306 Y-77.1942 F120.00
G01 X127.7711 Y-77.1942 F120.00
G01 X127.7711 Y-77.2422 F120.00
G01 X126.8306 Y-77.2422 F120.00
G01 X126.8306 Y-77.2902 F120.00
G01 X127.7711 Y-77.2902 F120.00
G01 X127.7711 Y-77.3382 F120.00
G01 X126.8306 Y-77.3382 F120.00
G01 X126.8306 Y-77.3862 F120.00
G01 X127.7711 Y-77.3862 F120.00
G01 X127.7711 Y-77.4342 F120.00
G01 X126.8306 Y-77.4342 F120.00
G01 X126.8306 Y-77.4822 F120.00
G01 X127.7711 Y-77.4822 F120.00
G01 X127.7711 Y-77.5302 F120.00
G01 X126.8306 Y-77.5302 F120.00
G01 X126.8306 Y-77.5782 F120.00
G01 X127.7711 Y-77.5782 F120.00
G01 X127.7711 Y-77.6262 F120.00
G01 X126.8306 Y-77.6262 F120.00
G01 X126.8306 Y-77.6742 F120.00
G01 X127.7711 Y-77.6742 F120.00
G01 X127.7711 Y-77.7222 F120.00
G01 X126.8306 Y-77.7222 F120.00
G01 X126.8306 Y-77.7702 F120.00
G01 X127.7711 Y-77.7702 F120.00
G01 X127.7711 Y-77.8182 F120.00
G01 X126.8306 Y-77.8182 F120.00
G01 X126.8306 Y-77.8662 F120.00
G01 X127.7711 Y-77.8662 F120.00
G01 X127.7711 Y-77.9142 F120.00
G01 X126.8306 Y-77.9142 F120.00
G01 X126.8306 Y-77.9622 F120.00
G01 X127.7711 Y-77.9622 F120.00
G01 X127.7711 Y-78.0102 F120.00
G01 X126.8306 Y-78.0102 F120.00
G01 X126.8306 Y-78.0582 F120.00
G01 X127.7711 Y-78.0582 F120.00
G01 X127.7711 Y-78.1062 F120.00
G01 X126.8306 Y-78.1062 F120.00
G01 X126.8306 Y-78.1542 F120.00
G01 X127.7711 Y-78.1542 F120.00
G01 X127.7711 Y-78.2022 F120.00
G01 X126.8306 Y-78.2022 F120.00
G01 X126.8306 Y-78.2502 F120.00
G01 X127.7711 Y-78.2502 F120.00
G01 X127.7711 Y-78.2982 F120.00
G01 X126.8306 Y-78.2982 F120.00
G01 X126.8306 Y-78.3462 F120.00
G01 X127.7711 Y-78.3462 F120.00
G01 X127.7711 Y-78.3942 F120.00
G01 X126.8306 Y-78.3942 F120.00
G01 X126.8306 Y-78.4422 F120.00
G01 X127.7711 Y-78.4422 F120.00
G01 X127.7711 Y-78.4902 F120.00
G01 X126.8306 Y-78.4902 F120.00
G01 X126.8306 Y-78.5382 F120.00
G01 X127.7711 Y-78.5382 F120.00
G01 X127.7711 Y-78.5862 F120.00
G01 X126.8306 Y-78.5862 F120.00
G01 X126.8306 Y-78.6342 F120.00
G01 X127.7711 Y-78.6342 F120.00
G01 X127.7711 Y-78.6822 F120.00
G01 X126.8306 Y-78.6822 F120.00
G01 X126.8306 Y-78.7302 F120.00
G01 X127.7711 Y-78.7302 F120.00
G01 X127.7711 Y-78.7782 F120.00
G01 X126.8306 Y-78.7782 F120.00
G01 X126.8306 Y-78.8262 F120.00
G01 X127.7711 Y-78.8262 F120.00
G01 X127.7711 Y-78.8742 F120.00
G01 X126.8306 Y-78.8742 F120.00
G01 X126.8306 Y-78.9222 F120.00
G01 X127.7711 Y-78.9222 F120.00
G01 X127.7711 Y-78.9702 F120.00
G01 X126.8306 Y-78.9702 F120.00
G01 X126.8306 Y-79.0182 F120.00
G01 X127.7711 Y-79.0182 F120.00
G01 X127.7711 Y-79.0662 F120.00
G01 X126.8306 Y-79.0662 F120.00
G01 X126.8306 Y-79.1142 F120.00
G01 X127.7711 Y-79.1142 F120.00
G01 X127.7711 Y-79.1622 F120.00
G01 X126.8306 Y-79.1622 F120.00
G01 X126.8306 Y-79.2102 F120.00
G01 X127.7711 Y-79.2102 F120.00
G01 X127.7711 Y-79.2582 F120.00
G01 X126.8306 Y-79.2582 F120.00
G01 X126.8306 Y-79.3062 F120.00
G01 X127.7711 Y-79.3062 F120.00
G01 X127.7711 Y-79.3542 F120.00
G01 X126.8306 Y-79.3542 F120.00
G01 X126.8306 Y-79.4022 F120.00
G01 X127.7711 Y-79.4022 F120.00
G01 X127.7711 Y-79.4502 F120.00
G01 X126.8306 Y-79.4502 F120.00
G01 X126.8306 Y-79.4982 F120.00
G01 X127.7711 Y-79.4982 F120.00
G01 X127.7711 Y-79.5462 F120.00
G01 X126.8306 Y-79.5462 F120.00
G01 X126.8306 Y-79.5942 F120.00
G01 X127.7711 Y-79.5942 F120.00
G01 X127.7711 Y-79.6422 F120.00
G01 X126.8306 Y-79.6422 F120.00
G01 X126.8306 Y-79.6902 F120.00
G01 X127.7711 Y-79.6902 F120.00
G01 X127.7711 Y-79.7382 F120.00
G01 X126.8306 Y-79.7382 F120.00
G01 X126.8306 Y-79.7862 F120.00
G01 X127.7711 Y-79.7862 F120.00
G01 X127.7711 Y-79.8342 F120.00
G01 X126.8306 Y-79.8342 F120.00
G01 X126.8306 Y-79.8822 F120.00
G01 X127.7711 Y-79.8822 F120.00
G01 X127.7711 Y-79.9302 F120.00
G01 X126.8306 Y-79.9302 F120.00
G01 X126.8306 Y-79.9782 F120.00
G01 X127.7711 Y-79.9782 F120.00
G01 X127.7711 Y-80.0262 F120.00
G01 X126.8306 Y-80.0262 F120.00
G01 X126.8306 Y-80.0742 F120.00
G01 X127.7711 Y-80.0742 F120.00
G01 X127.7711 Y-80.1222 F120.00
G01 X126.8306 Y-80.1222 F120.00
G01 X126.8306 Y-80.1702 F120.00
G01 X127.7711 Y-80.1702 F120.00
G01 X127.7711 Y-80.2182 F120.00
G01 X126.8306 Y-80.2182 F120.00
G01 X126.8306 Y-80.2662 F120.00
G01 X127.7711 Y-80.2662 F120.00
G01 X127.7711 Y-80.3142 F120.00
G01 X126.8306 Y-80.3142 F120.00
G01 X126.8306 Y-80.3622 F120.00
G01 X127.7711 Y-80.3622 F120.00
G01 X127.7711 Y-80.4102 F120.00
G01 X126.8306 Y-80.4102 F120.00
G01 X126.8306 Y-80.4582 F120.00
G01 X127.7711 Y-80.4582 F120.00
G01 X127.7711 Y-80.5062 F120.00
G01 X126.8306 Y-80.5062 F120.00
G01 X126.8306 Y-80.5542 F120.00
G01 X127.7711 Y-80.5542 F120.00
G01 X127.7711 Y-80.6022 F120.00
G01 X126.8306 Y-80.6022 F120.00
G01 X126.8306 Y-80.6502 F120.00
G01 X127.7711 Y-80.6502 F120.00
G01 X127.7711 Y-80.6982 F120.00
G01 X126.8306 Y-80.6982 F120.00
G01 X126.8306 Y-80.7462 F120.00
G01 X127.7711 Y-80.7462 F120.00
G01 X127.7711 Y-80.7942 F120.00
G01 X126.8306 Y-80.7942 F120.00
G01 X126.8306 Y-80.8422 F120.00
G01 X127.7711 Y-80.8422 F120.00
G01 X127.7711 Y-80.8902 F120.00
G01 X126.8306 Y-80.8902 F120.00
G01 X126.8306 Y-80.9382 F120.00
G01 X127.7711 Y-80.9382 F120.00
G01 X127.7711 Y-80.9862 F120.00
G01 X126.8306 Y-80.9862 F120.00
G01 X126.8306 Y-81.0342 F120.00
G01 X127.7711 Y-81.0342 F120.00
G01 X127.7711 Y-81.0822 F120.00
G01 X126.8306 Y-81.0822 F120.00
G01 X126.8306 Y-81.1302 F120.00
G01 X127.7711 Y-81.1302 F120.00
G01 X127.7711 Y-81.1782 F120.00
G01 X126.8306 Y-81.1782 F120.00
G01 X126.8306 Y-81.2262 F120.00
G01 X127.7711 Y-81.2262 F120.00
G01 X127.7711 Y-81.2742 F120.00
G01 X126.8306 Y-81.2742 F120.00
G01 X126.8306 Y-81.3222 F120.00
G01 X127.7711 Y-81.3222 F120.00
G01 X127.7711 Y-81.3702 F120.00
G01 X126.8306 Y-81.3702 F120.00
G01 X126.8306 Y-81.4182 F120.00
G01 X127.7711 Y-81.4182 F120.00
G01 X127.7711 Y-81.4662 F120.00
G01 X126.8306 Y-81.4662 F120.00
G01 X126.8306 Y-81.5142 F120.00
G01 X127.7711 Y-81.5142 F120.00
G01 X127.7711 Y-81.5622 F120.00
G01 X126.8306 Y-81.5622 F120.00
G01 X126.8306 Y-81.6102 F120.00
G01 X127.7711 Y-81.6102 F120.00
G01 X127.7711 Y-81.6582 F120.00
G01 X126.8306 Y-81.6582 F120.00
G01 X126.8306 Y-81.7062 F120.00
G01 X127.7711 Y-81.7062 F120.00
G01 X127.7711 Y-81.7542 F120.00
G01 X126.8306 Y-81.7542 F120.00
G01 X126.8306 Y-81.8022 F120.00
G01 X127.7711 Y-81.8022 F120.00
G01 X127.7711 Y-81.8502 F120.00
G01 X126.8306 Y-81.8502 F120.00
G01 X126.8306 Y-81.8982 F120.00
G01 X127.7711 Y-81.8982 F120.00
G01 X127.7711 Y-81.9462 F120.00
G01 X126.8306 Y-81.9462 F120.00
G01 X126.8306 Y-81.9942 F120.00
G01 X127.7711 Y-81.9942 F120.00
G01 X127.7711 Y-82.0422 F120.00
G01 X126.8306 Y-82.0422 F120.00
G01 X126.8306 Y-82.0902 F120.00
G01 X127.7711 Y-82.0902 F120.00
G01 X127.7711 Y-82.1382 F120.00
G01 X126.8306 Y-82.1382 F120.00
G01 X126.8306 Y-82.1862 F120.00
G01 X127.7711 Y-82.1862 F120.00
G01 X127.7711 Y-82.2342 F120.00
G01 X126.8306 Y-82.2342 F120.00
G01 X126.8306 Y-82.2822 F120.00
G01 X127.7711 Y-82.2822 F120.00
G01 X127.7711 Y-82.3302 F120.00
G01 X126.8306 Y-82.3302 F120.00
G01 X126.8306 Y-82.3782 F120.00
G01 X127.7711 Y-82.3782 F120.00
G01 X127.7711 Y-82.4262 F120.00
G01 X126.8306 Y-82.4262 F120.00
G01 X126.8306 Y-82.4742 F120.00
G01 X127.7711 Y-82.4742 F120.00
G01 X127.7711 Y-82.5222 F120.00
G01 X126.8306 Y-82.5222 F120.00
G01 X126.8306 Y-82.5702 F120.00
G01 X127.7711 Y-82.5702 F120.00
G01 X127.7711 Y-82.6182 F120.00
G01 X126.8306 Y-82.6182 F120.00
G01 X126.8306 Y-82.6662 F120.00
G01 X127.7711 Y-82.6662 F120.00
G01 X127.7711 Y-82.7142 F120.00
G01 X126.8306 Y-82.7142 F120.00
G01 X126.8306 Y-82.7622 F120.00
G01 X127.7711 Y-82.7622 F120.00
G01 X127.7711 Y-82.8102 F120.00
G01 X126.8306 Y-82.8102 F120.00
G01 X126.8306 Y-82.8582 F120.00
G01 X127.7711 Y-82.8582 F120.00
G01 X127.7711 Y-82.9062 F120.00
G01 X126.8306 Y-82.9062 F120.00
G01 X126.8306 Y-82.9542 F120.00
G01 X127.7711 Y-82.9542 F120.00
G01 X127.7711 Y-83.0022 F120.00
G01 X126.8306 Y-83.0022 F120.00
G01 X126.8306 Y-83.0502 F120.00
G01 X127.7711 Y-83.0502 F120.00
G01 X127.7711 Y-83.0982 F120.00
G01 X126.8306 Y-83.0982 F120.00
G01 X126.8306 Y-83.1462 F120.00
G01 X127.7711 Y-83.1462 F120.00
G01 X127.7711 Y-83.1942 F120.00
G01 X126.8306 Y-83.1942 F120.00
G01 X126.8306 Y-83.2422 F120.00
G01 X127.7711 Y-83.2422 F120.00
G01 X127.7711 Y-83.2902 F120.00
G01 X126.8306 Y-83.2902 F120.00
G01 X126.8306 Y-83.3382 F120.00
G01 X127.7711 Y-83.3382 F120.00
G01 X127.7711 Y-83.3862 F120.00
G01 X126.8306 Y-83.3862 F120.00
G01 X126.8306 Y-83.4342 F120.00
G01 X127.7711 Y-83.4342 F120.00
G01 X127.7711 Y-83.4822 F120.00
G01 X126.8306 Y-83.4822 F120.00
G01 X126.8306 Y-83.5302 F120.00
G01 X127.7711 Y-83.5302 F120.00
G01 X127.7711 Y-83.5782 F120.00
G01 X126.8306 Y-83.5782 F120.00
G01 X126.8306 Y-83.6262 F120.00
G01 X127.7711 Y-83.6262 F120.00
G01 X127.7711 Y-83.6742 F120.00
G01 X126.8306 Y-83.6742 F120.00
G01 X126.8306 Y-83.7222 F120.00
G01 X127.7711 Y-83.7222 F120.00
G01 X127.7711 Y-83.7702 F120.00
G01 X126.8306 Y-83.7702 F120.00
G01 X126.8306 Y-83.8182 F120.00
G01 X127.7711 Y-83.8182 F120.00
G01 X127.7711 Y-83.8662 F120.00
G01 X126.8306 Y-83.8662 F120.00
G01 X126.8306 Y-83.9142 F120.00
G01 X127.7711 Y-83.9142 F120.00
G01 X127.7711 Y-83.9622 F120.00
G01 X126.8306 Y-83.9622 F120.00
G01 X126.8306 Y-84.0102 F120.00
G01 X127.7711 Y-84.0102 F120.00
G01 X127.7711 Y-84.0582 F120.00
G01 X126.8306 Y-84.0582 F120.00
G01 X126.8306 Y-84.1062 F120.00
G01 X127.7711 Y-84.1062 F120.00
G01 X127.7711 Y-84.1542 F120.00
G01 X126.8306 Y-84.1542 F120.00
G01 X126.8306 Y-84.2022 F120.00
G01 X127.7711 Y-84.2022 F120.00
G01 X127.7711 Y-84.2502 F120.00
G01 X126.8306 Y-84.2502 F120.00
G01 X126.8306 Y-84.2982 F120.00
G01 X127.7711 Y-84.2982 F120.00
G01 X127.7711 Y-84.3462 F120.00
G01 X126.8306 Y-84.3462 F120.00
G01 X126.8306 Y-84.3942 F120.00
G01 X127.7711 Y-84.3942 F120.00
G01 X127.7711 Y-84.4422 F120.00
G01 X126.8306 Y-84.4422 F120.00
G01 X126.8306 Y-84.4902 F120.00
G01 X127.7711 Y-84.4902 F120.00
G01 X127.7711 Y-84.5382 F120.00
G01 X126.8306 Y-84.5382 F120.00
G01 X126.8306 Y-84.5862 F120.00
G01 X127.7711 Y-84.5862 F120.00
G01 X127.7711 Y-84.6342 F120.00
G01 X126.8306 Y-84.6342 F120.00
G01 X126.8306 Y-84.6822 F120.00
G01 X127.7711 Y-84.6822 F120.00
G01 X127.7711 Y-84.7302 F120.00
G01 X126.8306 Y-84.7302 F120.00
G01 X126.8306 Y-84.7782 F120.00
G01 X127.7711 Y-84.7782 F120.00
G01 X127.7711 Y-84.8262 F120.00
G01 X126.8306 Y-84.8262 F120.00
G01 X126.8306 Y-84.8742 F120.00
G01 X127.7711 Y-84.8742 F120.00
G01 X127.7711 Y-84.9222 F120.00
G01 X126.8306 Y-84.9222 F120.00
G01 X126.8306 Y-84.9702 F120.00
G01 X127.7711 Y-84.9702 F120.00
G01 X127.7711 Y-85.0182 F120.00
G01 X126.8306 Y-85.0182 F120.00
G01 X126.8306 Y-85.0662 F120.00
G01 X127.7711 Y-85.0662 F120.00
G01 X127.7711 Y-85.1142 F120.00
G01 X126.8306 Y-85.1142 F120.00
G01 X126.8306 Y-85.1622 F120.00
G01 X127.7711 Y-85.1622 F120.00
G01 X127.7711 Y-85.2102 F120.00
G01 X126.8306 Y-85.2102 F120.00
G01 X126.8306 Y-85.2582 F120.00
G01 X127.7711 Y-85.2582 F120.00
G01 X127.7711 Y-85.3062 F120.00
G01 X126.8306 Y-85.3062 F120.00
G01 X126.8306 Y-85.3542 F120.00
G01 X127.7711 Y-85.3542 F120.00
G01 X127.7711 Y-85.4022 F120.00
G01 X126.8306 Y-85.4022 F120.00
G01 X126.8306 Y-85.4502 F120.00
G01 X127.7711 Y-85.4502 F120.00
G01 X127.7711 Y-85.4982 F120.00
G01 X126.8306 Y-85.4982 F120.00
G01 X126.8306 Y-85.5462 F120.00
G01 X127.7711 Y-85.5462 F120.00
G01 X127.7711 Y-85.5942 F120.00
G01 X126.8306 Y-85.5942 F120.00
G01 X126.8306 Y-85.6422 F120.00
G01 X127.7711 Y-85.6422 F120.00
G01 X127.7711 Y-85.6902 F120.00
G01 X126.8306 Y-85.6902 F120.00
G01 X126.8306 Y-85.7382 F120.00
G01 X127.7711 Y-85.7382 F120.00
G01 X127.7711 Y-85.7862 F120.00
G01 X126.8306 Y-85.7862 F120.00
G01 X126.8306 Y-85.8342 F120.00
G01 X127.7711 Y-85.8342 F120.00
G01 X127.7711 Y-85.8822 F120.00
G01 X126.8306 Y-85.8822 F120.00
G01 X126.8306 Y-85.9302 F120.00
G01 X127.7711 Y-85.9302 F120.00
G01 X127.7711 Y-85.9782 F120.00
G01 X126.8306 Y-85.9782 F120.00
G01 X126.8306 Y-86.0262 F120.00
G01 X127.7711 Y-86.0262 F120.00
G01 X127.7711 Y-86.0742 F120.00
G01 X126.8306 Y-86.0742 F120.00
G01 X126.8306 Y-86.1222 F120.00
G01 X127.7711 Y-86.1222 F120.00
G01 X127.7711 Y-86.1702 F120.00
G01 X126.8306 Y-86.1702 F120.00
G01 X126.8306 Y-86.2182 F120.00
G01 X127.7711 Y-86.2182 F120.00
G01 X127.7711 Y-86.2662 F120.00
G01 X126.8306 Y-86.2662 F120.00
G01 X126.8306 Y-86.3142 F120.00
G01 X127.7711 Y-86.3142 F120.00
G01 X127.7711 Y-86.3622 F120.00
G01 X126.8306 Y-86.3622 F120.00
G01 X126.8306 Y-86.4102 F120.00
G01 X127.7711 Y-86.4102 F120.00
G01 X127.7711 Y-86.4582 F120.00
G01 X126.8306 Y-86.4582 F120.00
G01 X126.8306 Y-86.5062 F120.00
G01 X127.7711 Y-86.5062 F120.00
G01 X127.7711 Y-86.5542 F120.00
G01 X126.8306 Y-86.5542 F120.00
G01 X126.8306 Y-86.6022 F120.00
G01 X127.7711 Y-86.6022 F120.00
G01 X127.7711 Y-86.6502 F120.00
G01 X126.8306 Y-86.6502 F120.00
G01 X126.8306 Y-86.6982 F120.00
G01 X127.7711 Y-86.6982 F120.00
G01 X127.7711 Y-86.7462 F120.00
G01 X126.8306 Y-86.7462 F120.00
G01 X126.8306 Y-86.7942 F120.00
G01 X127.7711 Y-86.7942 F120.00
G01 X127.7711 Y-86.8422 F120.00
G01 X126.8306 Y-86.8422 F120.00
G01 X126.8306 Y-86.8902 F120.00
G01 X127.7711 Y-86.8902 F120.00
G01 X127.7711 Y-86.9382 F120.00
G01 X126.8306 Y-86.9382 F120.00
G01 X126.8306 Y-86.9862 F120.00
G01 X127.7711 Y-86.9862 F120.00
G01 X127.7711 Y-87.0342 F120.00
G01 X126.8306 Y-87.0342 F120.00
G01 X126.8306 Y-87.0822 F120.00
G01 X127.7711 Y-87.0822 F120.00
G01 X127.7711 Y-87.1302 F120.00
G01 X126.8306 Y-87.1302 F120.00
G01 X126.8306 Y-87.1782 F120.00
G01 X127.7711 Y-87.1782 F120.00
G01 X127.7711 Y-87.2262 F120.00
G01 X126.8306 Y-87.2262 F120.00
G01 X126.8306 Y-87.2742 F120.00
G01 X127.7711 Y-87.2742 F120.00
G01 X127.7711 Y-87.3222 F120.00
G01 X126.8306 Y-87.3222 F120.00
G01 X126.8306 Y-87.3702 F120.00
G01 X127.7711 Y-87.3702 F120.00
G01 X127.7711 Y-87.4182 F120.00
G01 X126.8306 Y-87.4182 F120.00
G01 X126.8306 Y-87.4662 F120.00
G01 X127.7711 Y-87.4662 F120.00
G01 X127.7711 Y-87.5142 F120.00
G01 X126.8306 Y-87.5142 F120.00
G01 X126.8306 Y-87.5622 F120.00
G01 X127.7711 Y-87.5622 F120.00
G01 X127.7711 Y-87.6102 F120.00
G01 X126.8306 Y-87.6102 F120.00
G01 X126.8306 Y-87.6582 F120.00
G01 X127.7711 Y-87.6582 F120.00
G01 X127.7711 Y-87.7062 F120.00
G01 X126.8306 Y-87.7062 F120.00
G01 X126.8306 Y-87.7542 F120.00
G01 X127.7711 Y-87.7542 F120.00
G01 X127.7711 Y-87.8022 F120.00
G01 X126.8306 Y-87.8022 F120.00
G01 X126.8306 Y-87.8502 F120.00
G01 X127.7711 Y-87.8502 F120.00
G01 X127.7711 Y-87.8982 F120.00
G01 X126.8306 Y-87.8982 F120.00
G01 X126.8306 Y-87.9462 F120.00
G01 X127.7711 Y-87.9462 F120.00
G01 X127.7711 Y-87.9942 F120.00
G01 X126.8306 Y-87.9942 F120.00
G01 X126.8306 Y-88.0422 F120.00
G01 X127.7711 Y-88.0422 F120.00
G01 X127.7711 Y-88.0902 F120.00
G01 X126.8306 Y-88.0902 F120.00
G01 X126.8306 Y-88.1382 F120.00
G01 X127.7711 Y-88.1382 F120.00
G01 X127.7711 Y-88.1862 F120.00
G01 X126.8306 Y-88.1862 F120.00
G01 X126.8306 Y-88.2342 F120.00
G01 X127.7711 Y-88.2342 F120.00
G01 X127.7711 Y-88.2822 F120.00
G01 X126.8306 Y-88.2822 F120.00
G01 X126.8306 Y-88.3302 F120.00
G01 X127.7711 Y-88.3302 F120.00
G01 X127.7711 Y-88.3782 F120.00
G01 X126.8306 Y-88.3782 F120.00
G01 X126.8306 Y-88.4262 F120.00
G01 X127.7711 Y-88.4262 F120.00
G01 X127.7711 Y-88.4742 F120.00
G01 X126.8306 Y-88.4742 F120.00
G01 X126.8306 Y-88.5222 F120.00
G01 X127.7711 Y-88.5222 F120.00
G01 X127.7711 Y-88.5702 F120.00
G01 X126.8306 Y-88.5702 F120.00
G01 X126.8306 Y-88.6182 F120.00
G01 X127.7711 Y-88.6182 F120.00
G01 X127.7711 Y-88.6662 F120.00
G01 X126.8306 Y-88.6662 F120.00
G01 X126.8306 Y-88.7142 F120.00
G01 X127.7711 Y-88.7142 F120.00
G01 X127.7711 Y-88.7622 F120.00
G01 X126.8306 Y-88.7622 F120.00
G01 X126.8306 Y-88.8102 F120.00
G01 X127.7711 Y-88.8102 F120.00
G01 X127.7711 Y-88.8582 F120.00
G01 X126.8306 Y-88.8582 F120.00
G01 X126.8306 Y-88.9062 F120.00
G01 X127.7711 Y-88.9062 F120.00
G01 X127.7711 Y-88.9542 F120.00
G01 X126.8306 Y-88.9542 F120.00
G01 X126.8306 Y-89.0022 F120.00
G01 X127.7711 Y-89.0022 F120.00
G01 X127.7711 Y-89.0502 F120.00
G01 X126.8306 Y-89.0502 F120.00
G01 X126.8306 Y-89.0982 F120.00
G01 X127.7711 Y-89.0982 F120.00
G01 X127.7711 Y-89.1462 F120.00
G01 X126.8306 Y-89.1462 F120.00
G01 X126.8306 Y-89.1942 F120.00
G01 X127.7711 Y-89.1942 F120.00
G01 X127.7711 Y-89.2422 F120.00
G01 X126.8306 Y-89.2422 F120.00
G01 X126.8306 Y-89.2902 F120.00
G01 X127.7711 Y-89.2902 F120.00
G01 X127.7711 Y-89.3382 F120.00
G01 X126.8306 Y-89.3382 F120.00
G01 X126.8306 Y-89.3862 F120.00
G01 X127.7711 Y-89.3862 F120.00
G01 X127.7711 Y-89.4342 F120.00
G01 X126.8306 Y-89.4342 F120.00
G01 X126.8306 Y-89.4822 F120.00
G01 X127.7711 Y-89.4822 F120.00
G01 X127.7711 Y-89.5302 F120.00
G01 X126.8306 Y-89.5302 F120.00
G01 X126.8306 Y-89.5782 F120.00
G01 X127.7711 Y-89.5782 F120.00
G01 X127.7711 Y-89.6262 F120.00
G01 X126.8306 Y-89.6262 F120.00
G01 X126.8306 Y-89.6742 F120.00
G01 X127.7711 Y-89.6742 F120.00
G01 X127.7711 Y-89.7222 F120.00
G01 X126.8306 Y-89.7222 F120.00
G01 X126.8306 Y-89.7702 F120.00
G01 X127.7711 Y-89.7702 F120.00
G01 X127.7711 Y-89.8182 F120.00
G01 X126.8306 Y-89.8182 F120.00
G01 X126.8306 Y-89.8662 F120.00
G01 X127.7711 Y-89.8662 F120.00
G01 X127.7711 Y-89.9142 F120.00
G01 X126.8306 Y-89.9142 F120.00
G01 X126.8306 Y-89.9622 F120.00
G01 X127.7711 Y-89.9622 F120.00
G01 X127.7711 Y-90.0102 F120.00
G01 X126.8306 Y-90.0102 F120.00
G01 X126.8306 Y-90.0582 F120.00
G01 X127.7711 Y-90.0582 F120.00
G01 X127.7711 Y-90.1062 F120.00
G01 X126.8306 Y-90.1062 F120.00
G01 X126.8306 Y-90.1542 F120.00
G01 X127.7711 Y-90.1542 F120.00
G01 X127.7711 Y-90.2022 F120.00
G01 X126.8306 Y-90.2022 F120.00
G01 X126.8306 Y-90.2502 F120.00
G01 X127.7711 Y-90.2502 F120.00
G01 X127.7711 Y-90.2982 F120.00
G01 X126.8306 Y-90.2982 F120.00
G01 X126.8306 Y-90.3462 F120.00
G01 X127.7711 Y-90.3462 F120.00
G01 X127.7711 Y-90.3942 F120.00
G01 X126.8306 Y-90.3942 F120.00
G01 X126.8306 Y-90.4422 F120.00
G01 X127.7711 Y-90.4422 F120.00
G01 X127.7711 Y-90.4902 F120.00
G01 X126.8306 Y-90.4902 F120.00
G01 X126.8306 Y-90.5382 F120.00
G01 X127.7711 Y-90.5382 F120.00
G01 X127.7711 Y-90.5862 F120.00
G01 X126.8306 Y-90.5862 F120.00
G01 X126.8306 Y-90.6342 F120.00
G01 X127.7711 Y-90.6342 F120.00
G01 X127.7711 Y-90.6822 F120.00
G01 X126.8306 Y-90.6822 F120.00
G01 X126.8306 Y-90.7302 F120.00
G01 X127.7711 Y-90.7302 F120.00
G01 X127.7711 Y-90.7782 F120.00
G01 X126.8306 Y-90.7782 F120.00
G01 X126.8306 Y-90.8262 F120.00
G01 X127.7711 Y-90.8262 F120.00
G01 X127.7711 Y-90.8742 F120.00
G01 X126.8306 Y-90.8742 F120.00
G01 X126.8306 Y-90.9222 F120.00
G01 X127.7711 Y-90.9222 F120.00
G01 X127.7711 Y-90.9702 F120.00
G01 X126.8306 Y-90.9702 F120.00
G01 X126.8306 Y-91.0182 F120.00
G01 X127.7711 Y-91.0182 F120.00
G01 X127.7711 Y-91.0662 F120.00
G01 X126.8306 Y-91.0662 F120.00
G01 X126.8306 Y-91.1142 F120.00
G01 X127.7711 Y-91.1142 F120.00
G01 X127.7711 Y-91.1622 F120.00
G01 X126.8306 Y-91.1622 F120.00
G01 X126.8306 Y-91.2102 F120.00
G01 X127.7711 Y-91.2102 F120.00
G01 X127.7711 Y-91.2582 F120.00
G01 X126.8306 Y-91.2582 F120.00
G01 X126.8306 Y-91.3062 F120.00
G01 X127.7711 Y-91.3062 F120.00
G01 X127.7711 Y-91.3542 F120.00
G01 X126.8306 Y-91.3542 F120.00
G01 X126.8306 Y-91.4022 F120.00
G01 X127.7711 Y-91.4022 F120.00
G01 X127.7711 Y-91.4502 F120.00
G01 X126.8306 Y-91.4502 F120.00
G01 X126.8306 Y-91.4982 F120.00
G01 X127.7711 Y-91.4982 F120.00
G01 X127.7711 Y-91.5462 F120.00
G01 X126.8306 Y-91.5462 F120.00
G01 X126.8306 Y-91.5942 F120.00
G01 X127.7711 Y-91.5942 F120.00
G01 X127.7711 Y-91.6422 F120.00
G01 X126.8306 Y-91.6422 F120.00
G01 X126.8306 Y-91.6902 F120.00
G01 X127.7711 Y-91.6902 F120.00
G01 X127.7711 Y-91.7382 F120.00
G01 X126.8306 Y-91.7382 F120.00
G01 X126.8306 Y-91.7862 F120.00
G01 X127.7711 Y-91.7862 F120.00
G01 X127.7711 Y-91.8342 F120.00
G01 X126.8306 Y-91.8342 F120.00
G01 X126.8306 Y-91.8822 F120.00
G01 X127.7711 Y-91.8822 F120.00
G01 X127.7711 Y-91.9302 F120.00
G01 X126.8306 Y-91.9302 F120.00
G01 X126.8306 Y-91.9782 F120.00
G01 X127.7711 Y-91.9782 F120.00
G01 X127.7711 Y-92.0262 F120.00
G01 X126.8306 Y-92.0262 F120.00
G01 X126.8306 Y-92.0742 F120.00
G01 X127.7711 Y-92.0742 F120.00
G01 X127.7711 Y-92.1222 F120.00
G01 X126.8306 Y-92.1222 F120.00
G01 X126.8306 Y-92.1702 F120.00
G01 X127.7711 Y-92.1702 F120.00
G01 X127.7711 Y-92.2182 F120.00
G01 X126.8306 Y-92.2182 F120.00
G01 X126.8306 Y-92.2662 F120.00
G01 X127.7711 Y-92.2662 F120.00
G01 X127.7711 Y-92.3142 F120.00
G01 X126.8306 Y-92.3142 F120.00
G01 X126.8306 Y-92.3622 F120.00
G01 X127.7711 Y-92.3622 F120.00
G01 X127.7711 Y-92.4102 F120.00
G01 X126.8306 Y-92.4102 F120.00
G01 X126.8306 Y-92.4582 F120.00
G01 X127.7711 Y-92.4582 F120.00
G01 X127.7711 Y-92.5062 F120.00
G01 X126.8306 Y-92.5062 F120.00
G01 X126.8306 Y-92.5542 F120.00
G01 X127.7711 Y-92.5542 F120.00
G01 X127.7711 Y-92.6022 F120.00
G01 X126.8306 Y-92.6022 F120.00
G01 X126.8306 Y-92.6502 F120.00
G01 X127.7711 Y-92.6502 F120.00
G01 X127.7711 Y-92.6982 F120.00
G01 X126.8306 Y-92.6982 F120.00
G01 X126.8306 Y-92.7462 F120.00
G01 X127.7711 Y-92.7462 F120.00
G01 X127.7711 Y-92.7942 F120.00
G01 X126.8306 Y-92.7942 F120.00
G01 X126.8306 Y-92.8422 F120.00
G01 X127.7711 Y-92.8422 F120.00
G01 X127.7711 Y-92.8902 F120.00
G01 X126.8306 Y-92.8902 F120.00
G01 X126.8306 Y-92.9382 F120.00
G01 X127.7711 Y-92.9382 F120.00
G01 X127.7711 Y-92.9862 F120.00
G01 X126.8306 Y-92.9862 F120.00
G01 X126.8306 Y-93.0342 F120.00
G01 X127.7711 Y-93.0342 F120.00
G01 X127.7711 Y-93.0822 F120.00
G01 X126.8306 Y-93.0822 F120.00
G01 X126.8306 Y-93.1302 F120.00
G01 X127.7711 Y-93.1302 F120.00
G01 X127.7711 Y-93.1782 F120.00
G01 X126.8306 Y-93.1782 F120.00
G01 X126.8306 Y-93.2262 F120.00
G01 X127.7711 Y-93.2262 F120.00
G01 X127.7711 Y-93.2742 F120.00
G01 X126.8306 Y-93.2742 F120.00
G01 X126.8306 Y-93.3222 F120.00
G01 X127.7711 Y-93.3222 F120.00
G01 X127.7711 Y-93.3702 F120.00
G01 X126.8306 Y-93.3702 F120.00
G01 X126.8306 Y-93.4182 F120.00
G01 X127.7711 Y-93.4182 F120.00
G01 X127.7711 Y-93.4662 F120.00
G01 X126.8306 Y-93.4662 F120.00
G01 X126.8306 Y-93.5142 F120.00
G01 X127.7711 Y-93.5142 F120.00
G01 X127.7711 Y-93.5622 F120.00
G01 X126.8306 Y-93.5622 F120.00
G01 X126.8306 Y-93.6102 F120.00
G01 X127.7711 Y-93.6102 F120.00
G01 X127.7711 Y-93.6582 F120.00
G01 X126.8306 Y-93.6582 F120.00
G01 X126.8306 Y-93.7062 F120.00
G01 X127.7711 Y-93.7062 F120.00
G01 X127.7711 Y-93.7542 F120.00
G01 X126.8306 Y-93.7542 F120.00
G01 X126.8306 Y-93.8022 F120.00
G01 X127.7711 Y-93.8022 F120.00
G01 X127.7711 Y-93.8502 F120.00
G01 X126.8306 Y-93.8502 F120.00
G01 X126.8306 Y-93.8982 F120.00
G01 X127.7711 Y-93.8982 F120.00
G01 X127.7711 Y-93.9462 F120.00
G01 X126.8306 Y-93.9462 F120.00
G01 X126.8306 Y-93.9942 F120.00
G01 X127.7711 Y-93.9942 F120.00
G01 X127.7711 Y-94.0422 F120.00
G01 X126.8306 Y-94.0422 F120.00
G01 X126.8306 Y-94.0902 F120.00
G01 X127.7711 Y-94.0902 F120.00
G01 X127.7711 Y-94.1382 F120.00
G01 X126.8306 Y-94.1382 F120.00
G01 X126.8306 Y-94.1862 F120.00
G01 X127.7711 Y-94.1862 F120.00
G01 X127.7711 Y-94.2342 F120.00
G01 X126.8306 Y-94.2342 F120.00
G01 X126.8306 Y-94.2822 F120.00
G01 X127.7711 Y-94.2822 F120.00
G01 X127.7711 Y-94.3302 F120.00
G01 X126.8306 Y-94.3302 F120.00
G01 X126.8306 Y-94.3782 F120.00
G01 X127.7711 Y-94.3782 F120.00
G01 X127.7711 Y-94.4262 F120.00
G01 X126.8306 Y-94.4262 F120.00
G01 X126.8306 Y-94.4742 F120.00
G01 X127.7711 Y-94.4742 F120.00
G01 X127.7711 Y-94.5222 F120.00
G01 X126.8306 Y-94.5222 F120.00
G01 X126.8306 Y-94.5702 F120.00
G01 X127.7711 Y-94.5702 F120.00
G01 X127.7711 Y-94.6182 F120.00
G01 X126.8306 Y-94.6182 F120.00
G01 X126.8306 Y-94.6662 F120.00
G01 X127.7711 Y-94.6662 F120.00
G01 X127.7711 Y-94.7142 F120.00
G01 X126.8306 Y-94.7142 F120.00
G01 X126.8306 Y-94.7622 F120.00
G01 X127.7711 Y-94.7622 F120.00
G01 X127.7711 Y-94.8102 F120.00
G01 X126.8306 Y-94.8102 F120.00
G01 X126.8306 Y-94.8582 F120.00
G01 X127.7711 Y-94.8582 F120.00
G01 X127.7711 Y-94.9062 F120.00
G01 X126.8306 Y-94.9062 F120.00
G01 X126.8306 Y-94.9542 F120.00
G01 X127.7711 Y-94.9542 F120.00
G01 X127.7711 Y-95.0022 F120.00
G01 X126.8306 Y-95.0022 F120.00
G01 X126.8306 Y-95.0502 F120.00
G01 X127.7711 Y-95.0502 F120.00
G01 X127.7711 Y-95.0982 F120.00
G01 X126.8306 Y-95.0982 F120.00
G01 X126.8306 Y-95.1462 F120.00
G01 X127.7711 Y-95.1462 F120.00
G01 X127.7711 Y-95.1942 F120.00
G01 X126.8306 Y-95.1942 F120.00
G01 X126.8306 Y-95.2422 F120.00
G01 X127.7711 Y-95.2422 F120.00
G01 X127.7711 Y-95.2902 F120.00
G01 X126.8306 Y-95.2902 F120.00
G01 X126.8306 Y-95.3382 F120.00
G01 X127.7711 Y-95.3382 F120.00
G01 X127.7711 Y-95.3862 F120.00
G01 X126.8306 Y-95.3862 F120.00
G01 X126.8306 Y-95.4342 F120.00
G01 X127.7711 Y-95.4342 F120.00
G01 X127.7711 Y-95.4822 F120.00
G01 X126.8306 Y-95.4822 F120.00
G01 X126.8306 Y-95.5302 F120.00
G01 X127.7711 Y-95.5302 F120.00
G01 X127.7711 Y-95.5782 F120.00
G01 X126.8306 Y-95.5782 F120.00
G01 X126.8306 Y-95.6262 F120.00
G01 X127.7711 Y-95.6262 F120.00
G01 X127.7711 Y-95.6742 F120.00
G01 X126.8306 Y-95.6742 F120.00
G01 X126.8306 Y-95.7222 F120.00
G01 X127.7711 Y-95.7222 F120.00
G01 X127.7711 Y-95.7702 F120.00
G01 X126.8306 Y-95.7702 F120.00
G01 X126.8306 Y-95.8182 F120.00
G01 X127.7711 Y-95.8182 F120.00
G01 X127.7711 Y-95.8662 F120.00
G01 X126.8306 Y-95.8662 F120.00
G01 X126.8306 Y-95.9142 F120.00
G01 X127.7711 Y-95.9142 F120.00
G01 X127.7711 Y-95.9622 F120.00
G01 X126.8306 Y-95.9622 F120.00
G01 X126.8306 Y-96.0102 F120.00
G01 X127.7711 Y-96.0102 F120.00
G01 X127.7711 Y-96.0582 F120.00
G01 X126.8306 Y-96.0582 F120.00
G01 X126.8306 Y-96.1062 F120.00
G01 X127.7711 Y-96.1062 F120.00
G01 X127.7711 Y-96.1542 F120.00
G01 X126.8306 Y-96.1542 F120.00
G01 X126.8306 Y-96.2022 F120.00
G01 X127.7711 Y-96.2022 F120.00
G01 X127.7711 Y-96.2502 F120.00
G01 X126.8306 Y-96.2502 F120.00
G01 X126.8306 Y-96.2982 F120.00
G01 X127.7711 Y-96.2982 F120.00
G01 X127.7711 Y-96.3462 F120.00
G01 X126.8306 Y-96.3462 F120.00
G01 X126.8306 Y-96.3942 F120.00
G01 X127.7711 Y-96.3942 F120.00
G01 X127.7711 Y-96.4422 F120.00
G01 X126.8306 Y-96.4422 F120.00
G01 X126.8306 Y-96.4902 F120.00
G01 X127.7711 Y-96.4902 F120.00
G01 X127.7711 Y-96.5382 F120.00
G01 X126.8306 Y-96.5382 F120.00
G01 X126.8306 Y-96.5862 F120.00
G01 X127.7711 Y-96.5862 F120.00
G01 X127.7711 Y-96.6342 F120.00
G01 X126.8306 Y-96.6342 F120.00
G01 X126.8306 Y-96.6822 F120.00
G01 X127.7711 Y-96.6822 F120.00
G01 X127.7711 Y-96.7302 F120.00
G01 X126.8306 Y-96.7302 F120.00
G01 X126.8306 Y-96.7782 F120.00
G01 X127.7711 Y-96.7782 F120.00
G01 X127.7711 Y-96.8262 F120.00
G01 X126.8306 Y-96.8262 F120.00
G01 X126.8306 Y-96.8742 F120.00
G01 X127.7711 Y-96.8742 F120.00
G01 X127.7711 Y-96.9222 F120.00
G01 X126.8306 Y-96.9222 F120.00
G01 X126.8306 Y-96.9702 F120.00
G01 X127.7711 Y-96.9702 F120.00
G01 X127.7711 Y-97.0182 F120.00
G01 X126.8306 Y-97.0182 F120.00
G01 X126.8306 Y-97.0662 F120.00
G01 X127.7711 Y-97.0662 F120.00
G01 X127.7711 Y-97.1142 F120.00
G01 X126.8306 Y-97.1142 F120.00
G01 X126.8306 Y-97.1622 F120.00
G01 X127.7711 Y-97.1622 F120.00
G01 X127.7711 Y-97.2102 F120.00
G01 X126.8306 Y-97.2102 F120.00
G01 X126.8306 Y-97.2582 F120.00
G01 X127.7711 Y-97.2582 F120.00
G01 X127.7711 Y-97.3062 F120.00
G01 X126.8306 Y-97.3062 F120.00
G01 X126.8306 Y-97.3542 F120.00
G01 X127.7711 Y-97.3542 F120.00
G01 X127.7711 Y-97.4022 F120.00
G01 X126.8306 Y-97.4022 F120.00
G01 X126.8306 Y-97.4502 F120.00
G01 X127.7711 Y-97.4502 F120.00
G01 X127.7711 Y-97.4982 F120.00
G01 X126.8306 Y-97.4982 F120.00
G01 X126.8306 Y-97.5462 F120.00
G01 X127.7711 Y-97.5462 F120.00
G01 X127.7711 Y-97.5942 F120.00
G01 X126.8306 Y-97.5942 F120.00
G01 X126.8306 Y-97.6422 F120.00
G01 X127.7711 Y-97.6422 F120.00
G01 X127.7711 Y-97.6902 F120.00
G01 X126.8306 Y-97.6902 F120.00
G01 X126.8306 Y-97.7382 F120.00
G01 X127.7711 Y-97.7382 F120.00
G01 X127.7711 Y-97.7862 F120.00
G01 X126.8306 Y-97.7862 F120.00
G01 X126.8306 Y-97.8342 F120.00
G01 X127.7711 Y-97.8342 F120.00
G01 X127.7711 Y-97.8822 F120.00
G01 X126.8306 Y-97.8822 F120.00
G01 X126.8306 Y-97.9302 F120.00
G01 X127.7711 Y-97.9302 F120.00
G01 X127.7711 Y-97.9782 F120.00
G01 X126.8306 Y-97.9782 F120.00
G01 X126.8306 Y-98.0262 F120.00
G01 X127.7711 Y-98.0262 F120.00
G01 X127.7711 Y-98.0742 F120.00
G01 X126.8306 Y-98.0742 F120.00
G01 X126.8306 Y-98.1222 F120.00
G01 X127.7711 Y-98.1222 F120.00
G01 X127.7711 Y-98.1702 F120.00
G01 X126.8306 Y-98.1702 F120.00
G01 X126.8306 Y-98.2182 F120.00
G01 X127.7711 Y-98.2182 F120.00
G01 X127.7711 Y-98.2662 F120.00
G01 X126.8306 Y-98.2662 F120.00
G01 X126.8306 Y-98.3142 F120.00
G01 X127.7711 Y-98.3142 F120.00
G01 X127.7711 Y-98.3622 F120.00
G01 X126.8306 Y-98.3622 F120.00
G01 X126.8306 Y-98.4102 F120.00
G01 X127.7711 Y-98.4102 F120.00
G01 X127.7711 Y-98.4582 F120.00
G01 X126.8306 Y-98.4582 F120.00
G01 X126.8306 Y-98.5062 F120.00
G01 X127.7711 Y-98.5062 F120.00
G01 X127.7711 Y-98.5542 F120.00
G01 X126.8306 Y-98.5542 F120.00
G01 X126.8306 Y-98.6022 F120.00
G01 X127.7711 Y-98.6022 F120.00
G01 X127.7711 Y-98.6502 F120.00
G01 X126.8306 Y-98.6502 F120.00
G01 X126.8306 Y-98.6982 F120.00
G01 X127.7711 Y-98.6982 F120.00
G01 X127.7711 Y-98.7462 F120.00
G01 X126.8306 Y-98.7462 F120.00
G01 X126.8306 Y-98.7942 F120.00
G01 X127.7711 Y-98.7942 F120.00
G01 X127.7711 Y-98.8422 F120.00
G01 X126.8306 Y-98.8422 F120.00
G01 X126.8306 Y-98.8902 F120.00
G01 X127.7711 Y-98.8902 F120.00
G01 X127.7711 Y-98.9382 F120.00
G01 X126.8306 Y-98.9382 F120.00
G01 X126.8306 Y-98.9862 F120.00
G01 X127.7711 Y-98.9862 F120.00
G01 X127.7711 Y-99.0342 F120.00
G01 X126.8306 Y-99.0342 F120.00
G01 X126.8306 Y-99.0822 F120.00
G01 X127.7711 Y-99.0822 F120.00
G01 X127.7711 Y-99.1302 F120.00
G01 X126.8306 Y-99.1302 F120.00
G01 X126.8306 Y-99.1782 F120.00
G01 X127.7711 Y-99.1782 F120.00
G01 X127.7711 Y-99.2262 F120.00
G01 X126.8306 Y-99.2262 F120.00
G01 X126.8306 Y-99.2742 F120.00
G01 X127.7711 Y-99.2742 F120.00
G01 X127.7711 Y-99.3222 F120.00
G01 X126.8306 Y-99.3222 F120.00
G01 X126.8306 Y-99.3702 F120.00
G01 X127.7711 Y-99.3702 F120.00
G01 X127.7711 Y-99.4182 F120.00
G01 X126.8306 Y-99.4182 F120.00
G01 X126.8306 Y-99.4662 F120.00
G01 X127.7711 Y-99.4662 F120.00
G01 X127.7711 Y-99.5142 F120.00
G01 X126.8306 Y-99.5142 F120.00
G01 X126.8306 Y-99.5622 F120.00
G01 X127.7711 Y-99.5622 F120.00
G01 X127.7711 Y-99.6102 F120.00
G01 X126.8306 Y-99.6102 F120.00
G01 X126.8306 Y-99.6582 F120.00
G01 X127.7711 Y-99.6582 F120.00
G01 X127.7711 Y-99.7062 F120.00
G01 X126.8306 Y-99.7062 F120.00
G01 X126.8306 Y-99.7542 F120.00
G01 X127.7711 Y-99.7542 F120.00
G01 X127.7711 Y-99.8022 F120.00
G01 X126.8306 Y-99.8022 F120.00
G01 X126.8306 Y-99.8502 F120.00
G01 X127.7711 Y-99.8502 F120.00
G01 X127.7711 Y-99.8982 F120.00
G01 X126.8306 Y-99.8982 F120.00
G01 X126.8306 Y-99.9462 F120.00
G01 X127.7711 Y-99.9462 F120.00
G01 X127.7711 Y-99.9942 F120.00
G01 X126.8306 Y-99.9942 F120.00
G01 X126.8306 Y-100.0422 F120.00
G01 X127.7711 Y-100.0422 F120.00
G01 X127.7711 Y-100.0902 F120.00
G01 X126.8306 Y-100.0902 F120.00
G01 X126.8306 Y-100.1382 F120.00
G01 X127.7711 Y-100.1382 F120.00
G01 X127.7711 Y-100.1862 F120.00
G01 X126.8306 Y-100.1862 F120.00
G01 X126.8306 Y-100.2342 F120.00
G01 X127.7711 Y-100.2342 F120.00
G01 X127.7711 Y-100.2822 F120.00
G01 X126.8306 Y-100.2822 F120.00
G01 X126.8306 Y-100.3302 F120.00
G01 X127.7711 Y-100.3302 F120.00
G01 X127.7711 Y-100.3782 F120.00
G01 X126.8306 Y-100.3782 F120.00
G01 X126.8306 Y-100.4262 F120.00
G01 X127.7711 Y-100.4262 F120.00
G01 X127.7711 Y-100.4742 F120.00
G01 X126.8306 Y-100.4742 F120.00
G01 X126.8306 Y-100.5222 F120.00
G01 X127.7711 Y-100.5222 F120.00
G01 X127.7711 Y-100.5702 F120.00
G01 X126.8306 Y-100.5702 F120.00
G01 X126.8306 Y-100.6182 F120.00
G01 X127.7711 Y-100.6182 F120.00
G01 X127.7711 Y-100.6662 F120.00
G01 X126.8306 Y-100.6662 F120.00
G01 X126.8306 Y-100.7142 F120.00
G01 X127.7711 Y-100.7142 F120.00
G01 X127.7711 Y-100.7622 F120.00
G01 X126.8306 Y-100.7622 F120.00
G01 X126.8306 Y-100.8102 F120.00
G01 X127.7711 Y-100.8102 F120.00
G01 X127.7711 Y-100.8582 F120.00
G01 X126.8306 Y-100.8582 F120.00
G01 X126.8306 Y-100.9062 F120.00
G01 X127.7711 Y-100.9062 F120.00
G01 X127.7711 Y-100.9542 F120.00
G01 X126.8306 Y-100.9542 F120.00
G01 X126.8306 Y-101.0022 F120.00
G01 X127.7711 Y-101.0022 F120.00
G01 X127.7711 Y-101.0502 F120.00
G01 X126.8306 Y-101.0502 F120.00
G01 X126.8306 Y-101.0982 F120.00
G01 X127.7711 Y-101.0982 F120.00
G01 X127.7711 Y-101.1462 F120.00
G01 X126.8306 Y-101.1462 F120.00
G01 X126.8306 Y-101.1942 F120.00
G01 X127.7711 Y-101.1942 F120.00
G01 X127.7711 Y-101.2422 F120.00
G01 X126.8306 Y-101.2422 F120.00
G01 X126.8306 Y-101.2902 F120.00
G01 X127.7711 Y-101.2902 F120.00
G01 X127.7711 Y-101.3382 F120.00
G01 X126.8306 Y-101.3382 F120.00
G01 X126.8306 Y-101.3862 F120.00
G01 X127.7711 Y-101.3862 F120.00
G01 X127.7711 Y-101.4342 F120.00
G01 X126.8306 Y-101.4342 F120.00
G01 X126.8306 Y-101.4822 F120.00
G01 X127.7711 Y-101.4822 F120.00
G01 X127.7711 Y-101.5302 F120.00
G01 X126.8306 Y-101.5302 F120.00
G01 X126.8306 Y-101.5782 F120.00
G01 X127.7711 Y-101.5782 F120.00
G01 X127.7711 Y-101.6262 F120.00
G01 X126.8306 Y-101.6262 F120.00
G01 X126.8306 Y-101.6742 F120.00
G01 X127.7711 Y-101.6742 F120.00
G01 X127.7711 Y-101.7222 F120.00
G01 X126.8306 Y-101.7222 F120.00
G01 X126.8306 Y-101.7702 F120.00
G01 X127.7711 Y-101.7702 F120.00
G01 X127.7711 Y-101.8182 F120.00
G01 X126.8306 Y-101.8182 F120.00
G01 X126.8306 Y-101.8662 F120.00
G01 X127.7711 Y-101.8662 F120.00
G01 X127.7711 Y-101.9142 F120.00
G01 X126.8306 Y-101.9142 F120.00
G01 X126.8306 Y-101.9622 F120.00
G01 X127.7711 Y-101.9622 F120.00
G01 X127.7711 Y-102.0102 F120.00
G01 X126.8306 Y-102.0102 F120.00
G01 X126.8306 Y-102.0582 F120.00
G01 X127.7711 Y-102.0582 F120.00
G01 X127.7711 Y-102.1062 F120.00
G01 X126.8306 Y-102.1062 F120.00
G01 X126.8306 Y-102.1542 F120.00
G01 X127.7711 Y-102.1542 F120.00
G01 X127.7711 Y-102.2022 F120.00
G01 X126.8306 Y-102.2022 F120.00
G01 X126.8306 Y-102.2502 F120.00
G01 X127.7711 Y-102.2502 F120.00
G01 X127.7711 Y-102.2982 F120.00
G01 X126.8306 Y-102.2982 F120.00
G01 X126.8306 Y-102.3462 F120.00
G01 X127.7711 Y-102.3462 F120.00
G01 X127.7711 Y-102.3942 F120.00
G01 X126.8306 Y-102.3942 F120.00
G01 X126.8306 Y-102.4422 F120.00
G01 X127.7711 Y-102.4422 F120.00
G01 X127.7711 Y-102.4902 F120.00
G01 X126.8306 Y-102.4902 F120.00
G01 X126.8306 Y-102.5382 F120.00
G01 X127.7711 Y-102.5382 F120.00
G01 X127.7711 Y-102.5862 F120.00
G01 X126.8306 Y-102.5862 F120.00
G01 X126.8306 Y-102.6342 F120.00
G01 X127.7711 Y-102.6342 F120.00
G01 X127.7711 Y-102.6822 F120.00
G01 X126.8306 Y-102.6822 F120.00
G01 X126.8306 Y-102.7302 F120.00
G01 X127.7711 Y-102.7302 F120.00
G01 X127.7711 Y-102.7782 F120.00
G01 X126.8306 Y-102.7782 F120.00
G01 X126.8306 Y-102.8262 F120.00
G01 X127.7711 Y-102.8262 F120.00
G01 X127.7711 Y-102.8742 F120.00
G01 X126.8306 Y-102.8742 F120.00
G01 X126.8306 Y-102.9222 F120.00
G01 X127.7711 Y-102.9222 F120.00
G01 X127.7711 Y-102.9702 F120.00
G01 X126.8306 Y-102.9702 F120.00
G01 X126.8306 Y-103.0182 F120.00
G01 X127.7711 Y-103.0182 F120.00
G01 X127.7711 Y-103.0662 F120.00
G01 X126.8306 Y-103.0662 F120.00
G01 X126.8306 Y-103.1142 F120.00
G01 X127.7711 Y-103.1142 F120.00
G01 X127.7711 Y-103.1622 F120.00
G01 X126.8306 Y-103.1622 F120.00
G01 X126.8306 Y-103.2102 F120.00
G01 X127.7711 Y-103.2102 F120.00
G01 X127.7711 Y-103.2582 F120.00
G01 X126.8306 Y-103.2582 F120.00
G01 X126.8306 Y-103.3062 F120.00
G01 X127.7711 Y-103.3062 F120.00
G01 X127.7711 Y-103.3542 F120.00
G01 X126.8306 Y-103.3542 F120.00
G01 X126.8306 Y-103.4022 F120.00
G01 X127.7711 Y-103.4022 F120.00
G01 X127.7711 Y-103.4502 F120.00
G01 X126.8306 Y-103.4502 F120.00
G01 X126.8306 Y-103.4982 F120.00
G01 X127.7711 Y-103.4982 F120.00
G01 X127.7711 Y-103.5462 F120.00
G01 X126.8306 Y-103.5462 F120.00
G01 X126.8306 Y-103.5942 F120.00
G01 X127.7711 Y-103.5942 F120.00
G01 X127.7711 Y-103.6422 F120.00
G01 X126.8306 Y-103.6422 F120.00
G01 X126.8306 Y-103.6902 F120.00
G01 X127.7711 Y-103.6902 F120.00
G01 X127.7711 Y-103.7382 F120.00
G01 X126.8306 Y-103.7382 F120.00
G01 X126.8306 Y-103.7862 F120.00
G01 X127.7711 Y-103.7862 F120.00
G01 X127.7711 Y-103.8342 F120.00
G01 X126.8306 Y-103.8342 F120.00
G01 X126.8306 Y-103.8822 F120.00
G01 X127.7711 Y-103.8822 F120.00
G01 X127.7711 Y-103.9302 F120.00
G01 X126.8306 Y-103.9302 F120.00
G01 X126.8306 Y-103.9782 F120.00
G01 X127.7711 Y-103.9782 F120.00
G01 X127.7711 Y-104.0262 F120.00
G01 X126.8306 Y-104.0262 F120.00
G01 X126.8306 Y-104.0742 F120.00
G01 X127.7711 Y-104.0742 F120.00
G01 X127.7711 Y-104.1222 F120.00
G01 X126.8306 Y-104.1222 F120.00
G01 X126.8306 Y-104.1702 F120.00
G01 X127.7711 Y-104.1702 F120.00
G01 X127.7711 Y-104.2182 F120.00
G01 X126.8306 Y-104.2182 F120.00
G01 X126.8306 Y-104.2662 F120.00
G01 X127.7711 Y-104.2662 F120.00
G01 X127.7711 Y-104.3142 F120.00
G01 X126.8306 Y-104.3142 F120.00
G01 X126.8306 Y-104.3622 F120.00
G01 X127.7711 Y-104.3622 F120.00
G01 X127.7711 Y-104.4102 F120.00
G01 X126.8306 Y-104.4102 F120.00
G01 X126.8306 Y-104.4582 F120.00
G01 X127.7711 Y-104.4582 F120.00
G01 X127.7711 Y-104.5062 F120.00
G01 X126.8306 Y-104.5062 F120.00
G01 X126.8306 Y-104.5542 F120.00
G01 X127.7711 Y-104.5542 F120.00
G01 X127.7711 Y-104.6022 F120.00
G01 X126.8306 Y-104.6022 F120.00
G01 X126.8306 Y-104.6502 F120.00
G01 X127.7711 Y-104.6502 F120.00
G01 X127.7711 Y-104.6982 F120.00
G01 X126.8306 Y-104.6982 F120.00
G01 X126.8306 Y-104.7462 F120.00
G01 X127.7711 Y-104.7462 F120.00
G01 X127.7711 Y-104.7942 F120.00
G01 X126.8306 Y-104.7942 F120.00
G01 X126.8306 Y-104.8422 F120.00
G01 X127.7711 Y-104.8422 F120.00
G01 X127.7711 Y-104.8902 F120.00
G01 X126.8306 Y-104.8902 F120.00
G01 X126.8306 Y-104.9382 F120.00
G01 X127.7711 Y-104.9382 F120.00
G01 X127.7711 Y-104.9862 F120.00
G01 X126.8306 Y-104.9862 F120.00
G01 X126.8306 Y-105.0342 F120.00
G01 X127.7711 Y-105.0342 F120.00
G01 X127.7711 Y-105.0822 F120.00
G01 X126.8306 Y-105.0822 F120.00
G01 X126.8306 Y-105.1302 F120.00
G01 X127.7711 Y-105.1302 F120.00
G01 X127.7711 Y-105.1782 F120.00
G01 X126.8306 Y-105.1782 F120.00
G01 X126.8306 Y-105.2262 F120.00
G01 X127.7711 Y-105.2262 F120.00
G01 X127.7711 Y-105.2742 F120.00
G01 X126.8306 Y-105.2742 F120.00
G01 X126.8306 Y-105.3222 F120.00
G01 X127.7711 Y-105.3222 F120.00
G01 X127.7711 Y-105.3702 F120.00
G01 X126.8306 Y-105.3702 F120.00
G01 X126.8306 Y-105.4182 F120.00
G01 X127.7711 Y-105.4182 F120.00
G01 X127.7711 Y-105.4662 F120.00
G01 X126.8306 Y-105.4662 F120.00
G01 X126.8306 Y-105.5142 F120.00
G01 X127.7711 Y-105.5142 F120.00
G01 X127.7711 Y-105.5622 F120.00
G01 X126.8306 Y-105.5622 F120.00
G01 X126.8306 Y-105.6102 F120.00
G01 X127.7711 Y-105.6102 F120.00
G01 X127.7711 Y-105.6582 F120.00
G01 X126.8306 Y-105.6582 F120.00
G01 X126.8306 Y-105.7062 F120.00
G01 X127.7711 Y-105.7062 F120.00
G01 X127.7711 Y-105.7542 F120.00
G01 X126.8306 Y-105.7542 F120.00
G01 X126.8306 Y-105.8022 F120.00
G01 X127.7711 Y-105.8022 F120.00
G01 X127.7711 Y-105.8502 F120.00
G01 X126.8306 Y-105.8502 F120.00
G01 X126.8306 Y-105.8982 F120.00
G01 X127.7711 Y-105.8982 F120.00
G01 X127.7711 Y-105.9462 F120.00
G01 X126.8306 Y-105.9462 F120.00
G01 X126.8306 Y-105.9942 F120.00
G01 X127.7711 Y-105.9942 F120.00
G01 X127.7711 Y-106.0422 F120.00
G01 X126.8306 Y-106.0422 F120.00
G01 X126.8306 Y-106.0902 F120.00
G01 X127.7711 Y-106.0902 F120.00
G01 X127.7711 Y-106.1382 F120.00
G01 X126.8306 Y-106.1382 F120.00
G01 X126.8306 Y-106.1862 F120.00
G01 X127.7711 Y-106.1862 F120.00
G01 X127.7711 Y-106.2342 F120.00
G01 X126.8306 Y-106.2342 F120.00
G01 X126.8306 Y-106.2822 F120.00
G01 X127.7711 Y-106.2822 F120.00
G01 X127.7711 Y-106.3302 F120.00
G01 X126.8306 Y-106.3302 F120.00
G01 X126.8306 Y-106.3782 F120.00
G01 X127.7711 Y-106.3782 F120.00
G01 X127.7711 Y-106.4262 F120.00
G01 X126.8306 Y-106.4262 F120.00
G01 X126.8306 Y-106.4742 F120.00
G01 X127.7711 Y-106.4742 F120.00
G01 X127.7711 Y-106.5222 F120.00
G01 X126.8306 Y-106.5222 F120.00
G01 X126.8306 Y-106.5702 F120.00
G01 X127.7711 Y-106.5702 F120.00
G01 X127.7711 Y-106.6182 F120.00
G01 X126.8306 Y-106.6182 F120.00
G01 X126.8306 Y-106.6662 F120.00
G01 X127.7711 Y-106.6662 F120.00
G01 X127.7711 Y-106.7142 F120.00
G01 X126.8306 Y-106.7142 F120.00
G01 X126.8306 Y-106.7622 F120.00
G01 X127.7711 Y-106.7622 F120.00
G01 X127.7711 Y-106.8102 F120.00
G01 X126.8306 Y-106.8102 F120.00
G01 X126.8306 Y-106.8582 F120.00
G01 X127.7711 Y-106.8582 F120.00
G01 X127.7711 Y-106.9062 F120.00
G01 X126.8306 Y-106.9062 F120.00
G01 X126.8306 Y-106.9542 F120.00
G01 X127.7711 Y-106.9542 F120.00
G01 X127.7711 Y-107.0022 F120.00
G01 X126.8306 Y-107.0022 F120.00
G01 X126.8306 Y-107.0502 F120.00
G01 X127.7711 Y-107.0502 F120.00
G01 X127.7711 Y-107.0982 F120.00
G01 X126.8306 Y-107.0982 F120.00
G01 X126.8306 Y-107.1462 F120.00
G01 X127.7711 Y-107.1462 F120.00
G01 X127.7711 Y-107.1942 F120.00
G01 X126.8306 Y-107.1942 F120.00
G01 X126.8306 Y-107.2422 F120.00
G01 X127.7711 Y-107.2422 F120.00
G01 X127.7711 Y-107.2902 F120.00
G01 X126.8306 Y-107.2902 F120.00
G01 X126.8306 Y-107.3382 F120.00
G01 X127.7711 Y-107.3382 F120.00
G01 X127.7711 Y-107.3862 F120.00
G01 X126.8306 Y-107.3862 F120.00
G01 X126.8306 Y-107.4342 F120.00
G01 X127.7711 Y-107.4342 F120.00
G01 X127.7711 Y-107.4822 F120.00
G01 X126.8306 Y-107.4822 F120.00
G01 X126.8306 Y-107.5302 F120.00
G01 X127.7711 Y-107.5302 F120.00
G01 X127.7711 Y-107.5782 F120.00
G01 X126.8306 Y-107.5782 F120.00
G01 X126.8306 Y-107.6262 F120.00
G01 X127.7711 Y-107.6262 F120.00
G01 X127.7711 Y-107.6742 F120.00
G01 X126.8306 Y-107.6742 F120.00
G01 X126.8306 Y-107.7222 F120.00
G01 X127.7711 Y-107.7222 F120.00
G01 X127.7711 Y-107.7702 F120.00
G01 X126.8306 Y-107.7702 F120.00
G01 X126.8306 Y-107.8182 F120.00
G01 X127.7711 Y-107.8182 F120.00
G01 X127.7711 Y-107.8662 F120.00
G01 X126.8306 Y-107.8662 F120.00
G01 X126.8306 Y-107.9142 F120.00
G01 X127.7711 Y-107.9142 F120.00
G01 X127.7711 Y-107.9622 F120.00
G01 X126.8306 Y-107.9622 F120.00
G01 X126.8306 Y-108.0102 F120.00
G01 X127.7711 Y-108.0102 F120.00
G01 X127.7711 Y-108.0582 F120.00
G01 X126.8306 Y-108.0582 F120.00
G01 X126.8306 Y-108.1062 F120.00
G01 X127.7711 Y-108.1062 F120.00
G01 X127.7711 Y-108.1542 F120.00
G01 X126.8306 Y-108.1542 F120.00
G01 X126.8306 Y-108.2022 F120.00
G01 X127.7711 Y-108.2022 F120.00
G01 X127.7711 Y-108.2502 F120.00
G01 X126.8306 Y-108.2502 F120.00
G01 X126.8306 Y-108.2982 F120.00
G01 X127.7711 Y-108.2982 F120.00
G01 X127.7711 Y-108.3462 F120.00
G01 X126.8306 Y-108.3462 F120.00
G01 X126.8306 Y-108.3942 F120.00
G01 X127.7711 Y-108.3942 F120.00
G01 X127.7711 Y-108.4422 F120.00
G01 X126.8306 Y-108.4422 F120.00
G01 X126.8306 Y-108.4902 F120.00
G01 X127.7711 Y-108.4902 F120.00
G01 X127.7711 Y-108.5382 F120.00
G01 X126.8306 Y-108.5382 F120.00
G01 X126.8306 Y-108.5862 F120.00
G01 X127.7711 Y-108.5862 F120.00
G01 X127.7711 Y-108.6342 F120.00
G01 X126.8306 Y-108.6342 F120.00
G01 X126.8306 Y-108.6822 F120.00
G01 X127.7711 Y-108.6822 F120.00
G01 X127.7711 Y-108.7302 F120.00
G01 X126.8306 Y-108.7302 F120.00
G01 X126.8306 Y-108.7782 F120.00
G01 X127.7711 Y-108.7782 F120.00
G01 X127.7711 Y-108.8262 F120.00
G01 X126.8306 Y-108.8262 F120.00
G01 X126.8306 Y-108.8742 F120.00
G01 X127.7711 Y-108.8742 F120.00
G01 X127.7711 Y-108.9222 F120.00
G01 X126.8306 Y-108.9222 F120.00
G01 X126.8306 Y-108.9702 F120.00
G01 X127.7711 Y-108.9702 F120.00
G01 X127.7711 Y-109.0182 F120.00
G01 X126.8306 Y-109.0182 F120.00
G01 X126.8306 Y-109.0662 F120.00
G01 X127.7711 Y-109.0662 F120.00
G01 X127.7711 Y-109.1142 F120.00
G01 X126.8306 Y-109.1142 F120.00
G01 X126.8306 Y-109.1622 F120.00
G01 X127.7711 Y-109.1622 F120.00
G01 X127.7711 Y-109.2102 F120.00
G01 X126.8306 Y-109.2102 F120.00
G01 X126.8306 Y-109.2582 F120.00
G01 X127.7711 Y-109.2582 F120.00
G01 X127.7711 Y-109.3062 F120.00
G01 X126.8306 Y-109.3062 F120.00
G01 X126.8306 Y-109.3542 F120.00
G01 X127.7711 Y-109.3542 F120.00
G01 X127.7711 Y-109.4022 F120.00
G01 X126.8306 Y-109.4022 F120.00
G01 X126.8306 Y-109.4502 F120.00
G01 X127.7711 Y-109.4502 F120.00
G01 X127.7711 Y-109.4982 F120.00
G01 X126.8306 Y-109.4982 F120.00
G01 X126.8306 Y-109.5462 F120.00
G01 X127.7711 Y-109.5462 F120.00
G01 X127.7711 Y-109.5942 F120.00
G01 X126.8306 Y-109.5942 F120.00
G01 X126.8306 Y-109.6422 F120.00
G01 X127.7711 Y-109.6422 F120.00
G01 X127.7711 Y-109.6902 F120.00
G01 X126.8306 Y-109.6902 F120.00
G01 X126.8306 Y-109.7382 F120.00
G01 X127.7711 Y-109.7382 F120.00
G01 X127.7711 Y-109.7862 F120.00
G01 X126.8306 Y-109.7862 F120.00
G01 X126.8306 Y-109.8342 F120.00
G01 X127.7711 Y-109.8342 F120.00
G01 X127.7711 Y-109.8822 F120.00
G01 X126.8306 Y-109.8822 F120.00
G01 X126.8306 Y-109.9302 F120.00
G01 X127.7711 Y-109.9302 F120.00
G01 X127.7711 Y-109.9782 F120.00
G01 X126.8306 Y-109.9782 F120.00
G01 X126.8306 Y-110.0262 F120.00
G01 X127.7711 Y-110.0262 F120.00
G01 X127.7711 Y-110.0742 F120.00
G01 X126.8306 Y-110.0742 F120.00
G01 X126.8306 Y-110.1222 F120.00
G01 X127.7711 Y-110.1222 F120.00
G01 X127.7711 Y-110.1702 F120.00
G01 X126.8306 Y-110.1702 F120.00
G01 X126.8306 Y-110.2182 F120.00
G01 X127.7711 Y-110.2182 F120.00
G01 X127.7711 Y-110.2662 F120.00
G01 X126.8306 Y-110.2662 F120.00
G01 X126.8306 Y-110.3142 F120.00
G01 X127.7711 Y-110.3142 F120.00
G01 X127.7711 Y-110.3622 F120.00
G01 X126.8306 Y-110.3622 F120.00
G01 X126.8306 Y-110.4102 F120.00
G01 X127.7711 Y-110.4102 F120.00
G01 X127.7711 Y-110.4582 F120.00
G01 X126.8306 Y-110.4582 F120.00
G01 X126.8306 Y-110.5062 F120.00
G01 X127.7711 Y-110.5062 F120.00
G01 X127.7711 Y-110.5542 F120.00
G01 X126.8306 Y-110.5542 F120.00
G01 X126.8306 Y-110.6022 F120.00
G01 X127.7711 Y-110.6022 F120.00
G01 X127.7711 Y-110.6502 F120.00
G01 X126.8306 Y-110.6502 F120.00
G01 X126.8306 Y-110.6982 F120.00
G01 X127.7711 Y-110.6982 F120.00
G01 X127.7711 Y-110.7462 F120.00
G01 X126.8306 Y-110.7462 F120.00
G01 X126.8306 Y-110.7942 F120.00
G01 X127.7711 Y-110.7942 F120.00
G01 X127.7711 Y-110.8422 F120.00
G01 X126.8306 Y-110.8422 F120.00
G01 X126.8306 Y-110.8902 F120.00
G01 X127.7711 Y-110.8902 F120.00
G01 X127.7711 Y-110.9382 F120.00
G01 X126.8306 Y-110.9382 F120.00
G01 X126.8306 Y-110.9862 F120.00
G01 X127.7711 Y-110.9862 F120.00
G01 X127.7711 Y-111.0342 F120.00
G01 X126.8306 Y-111.0342 F120.00
G01 X126.8306 Y-111.0822 F120.00
G01 X127.7711 Y-111.0822 F120.00
G01 X127.7711 Y-111.1302 F120.00
G01 X126.8306 Y-111.1302 F120.00
G01 X126.8306 Y-111.1782 F120.00
G01 X127.7711 Y-111.1782 F120.00
G01 X127.7711 Y-111.2262 F120.00
G01 X126.8306 Y-111.2262 F120.00
G01 X126.8306 Y-111.2742 F120.00
G01 X127.7711 Y-111.2742 F120.00
G01 X127.7711 Y-111.3222 F120.00
G01 X126.8306 Y-111.3222 F120.00
G01 X126.8306 Y-111.3702 F120.00
G01 X127.7711 Y-111.3702 F120.00
G01 X127.7711 Y-111.4182 F120.00
G01 X126.8306 Y-111.4182 F120.00
G01 X126.8306 Y-111.4662 F120.00
G01 X127.7711 Y-111.4662 F120.00
G01 X127.7711 Y-111.5142 F120.00
G01 X126.8306 Y-111.5142 F120.00
G01 X126.8306 Y-111.5622 F120.00
G01 X127.7711 Y-111.5622 F120.00
G01 X127.7711 Y-111.6102 F120.00
G01 X126.8306 Y-111.6102 F120.00
G01 X126.8306 Y-111.6582 F120.00
G01 X127.7711 Y-111.6582 F120.00
G01 X127.7711 Y-111.7062 F120.00
G01 X126.8306 Y-111.7062 F120.00
G01 X126.8306 Y-111.7542 F120.00
G01 X127.7711 Y-111.7542 F120.00
G01 X127.7711 Y-111.8022 F120.00
G01 X126.8306 Y-111.8022 F120.00
G01 X126.8306 Y-111.8502 F120.00
G01 X127.7711 Y-111.8502 F120.00
G01 X127.7711 Y-111.8982 F120.00
G01 X126.8306 Y-111.8982 F120.00
G01 X126.8306 Y-111.9462 F120.00
G01 X127.7711 Y-111.9462 F120.00
G01 X127.7711 Y-111.9942 F120.00
G01 X126.8306 Y-111.9942 F120.00
G01 X126.8306 Y-112.0422 F120.00
G01 X127.7711 Y-112.0422 F120.00
G01 X127.7711 Y-112.0902 F120.00
G01 X126.8306 Y-112.0902 F120.00
G01 X126.8306 Y-112.1382 F120.00
G01 X127.7711 Y-112.1382 F120.00
G01 X127.7711 Y-112.1862 F120.00
G01 X126.8306 Y-112.1862 F120.00
G01 X126.8306 Y-112.2342 F120.00
G01 X127.7711 Y-112.2342 F120.00
G01 X127.7711 Y-112.2822 F120.00
G01 X126.8306 Y-112.2822 F120.00
G01 X126.8306 Y-112.3302 F120.00
G01 X127.7711 Y-112.3302 F120.00
G01 X127.7711 Y-112.3782 F120.00
G01 X126.8306 Y-112.3782 F120.00
G01 X126.8306 Y-112.4262 F120.00
G01 X127.7711 Y-112.4262 F120.00
G01 X127.7711 Y-112.4742 F120.00
G01 X126.8306 Y-112.4742 F120.00
G01 X126.8306 Y-112.5222 F120.00
G01 X127.7711 Y-112.5222 F120.00
G01 X127.7711 Y-112.5702 F120.00
G01 X126.8306 Y-112.5702 F120.00
G01 X126.8306 Y-112.6182 F120.00
G01 X127.7711 Y-112.6182 F120.00
G01 X127.7711 Y-112.6662 F120.00
G01 X126.8306 Y-112.6662 F120.00
G01 X126.8306 Y-112.7142 F120.00
G01 X127.7711 Y-112.7142 F120.00
G01 X127.7711 Y-112.7622 F120.00
G01 X126.8306 Y-112.7622 F120.00
G01 X126.8306 Y-112.8102 F120.00
G01 X127.7711 Y-112.8102 F120.00
G01 X127.7711 Y-112.8582 F120.00
G01 X126.8306 Y-112.8582 F120.00
G01 X126.8306 Y-112.9062 F120.00
G01 X127.7711 Y-112.9062 F120.00
G01 X127.7711 Y-112.9542 F120.00
G01 X126.8306 Y-112.9542 F120.00
G01 X126.8306 Y-113.0022 F120.00
G01 X127.7711 Y-113.0022 F120.00
G01 X127.7711 Y-113.0502 F120.00
G01 X126.8306 Y-113.0502 F120.00
G01 X126.8306 Y-113.0982 F120.00
G01 X127.7711 Y-113.0982 F120.00
G01 X127.7711 Y-113.1462 F120.00
G01 X126.8306 Y-113.1462 F120.00
G01 X126.8306 Y-113.1942 F120.00
G01 X127.7711 Y-113.1942 F120.00
G01 X127.7711 Y-113.2422 F120.00
G01 X126.8306 Y-113.2422 F120.00
G01 X126.8306 Y-113.2902 F120.00
G01 X127.7711 Y-113.2902 F120.00
G01 X127.7711 Y-113.3382 F120.00
G01 X126.8306 Y-113.3382 F120.00
G01 X126.8306 Y-113.3862 F120.00
G01 X127.7711 Y-113.3862 F120.00
G01 X127.7711 Y-113.4342 F120.00
G01 X126.8306 Y-113.4342 F120.00
G01 X126.8306 Y-113.4822 F120.00
G01 X127.7711 Y-113.4822 F120.00
G01 X127.7711 Y-113.5302 F120.00
G01 X126.8306 Y-113.5302 F120.00
G01 X126.8306 Y-113.5782 F120.00
G01 X127.7711 Y-113.5782 F120.00
G01 X127.7711 Y-113.6262 F120.00
G01 X126.8306 Y-113.6262 F120.00
G01 X126.8306 Y-113.6742 F120.00
G01 X127.7711 Y-113.6742 F120.00
G01 X127.7711 Y-113.7222 F120.00
G01 X126.8306 Y-113.7222 F120.00
G01 X126.8306 Y-113.7702 F120.00
G01 X127.7711 Y-113.7702 F120.00
G01 X127.7711 Y-113.8182 F120.00
G01 X126.8306 Y-113.8182 F120.00
G01 X126.8306 Y-113.8662 F120.00
G01 X127.7711 Y-113.8662 F120.00
G01 X127.7711 Y-113.9142 F120.00
G01 X126.8306 Y-113.9142 F120.00
G01 X126.8306 Y-113.9622 F120.00
G01 X127.7711 Y-113.9622 F120.00
G01 X127.7711 Y-114.0102 F120.00
G01 X126.8306 Y-114.0102 F120.00
G01 X126.8306 Y-114.0582 F120.00
G01 X127.7711 Y-114.0582 F120.00
G01 X127.7711 Y-114.1062 F120.00
G01 X126.8306 Y-114.1062 F120.00
G01 X126.8306 Y-114.1542 F120.00
G01 X127.7711 Y-114.1542 F120.00
G01 X127.7711 Y-114.2022 F120.00
G01 X126.8306 Y-114.2022 F120.00
G01 X126.8306 Y-114.2502 F120.00
G01 X127.7711 Y-114.2502 F120.00
G01 X127.7711 Y-114.2982 F120.00
G01 X126.8306 Y-114.2982 F120.00
G01 X126.8306 Y-114.3462 F120.00
G01 X127.7711 Y-114.3462 F120.00
G01 X127.7711 Y-114.3942 F120.00
G01 X126.8306 Y-114.3942 F120.00
G01 X126.8306 Y-114.4422 F120.00
G01 X127.7711 Y-114.4422 F120.00
G01 X127.7711 Y-114.4902 F120.00
G01 X126.8306 Y-114.4902 F120.00
G01 X126.8306 Y-114.5382 F120.00
G01 X127.7711 Y-114.5382 F120.00
G01 X127.7711 Y-114.5862 F120.00
G01 X126.8306 Y-114.5862 F120.00
G01 X126.8306 Y-114.6342 F120.00
G01 X127.7711 Y-114.6342 F120.00
G01 X127.7711 Y-114.6822 F120.00
G01 X126.8306 Y-114.6822 F120.00
G01 X126.8306 Y-114.7302 F120.00
G01 X127.7711 Y-114.7302 F120.00
G01 X127.7711 Y-114.7782 F120.00
G01 X126.8306 Y-114.7782 F120.00
G01 X126.8306 Y-114.8262 F120.00
G01 X127.7711 Y-114.8262 F120.00
G01 X127.7711 Y-114.8742 F120.00
G01 X126.8306 Y-114.8742 F120.00
G01 X126.8306 Y-114.9222 F120.00
G01 X127.7711 Y-114.9222 F120.00
G01 X127.7711 Y-114.9702 F120.00
G01 X126.8306 Y-114.9702 F120.00
G01 X126.8306 Y-115.0182 F120.00
G01 X127.7711 Y-115.0182 F120.00
G01 X127.7711 Y-115.0662 F120.00
G01 X126.8306 Y-115.0662 F120.00
G01 X126.8306 Y-115.1142 F120.00
G01 X127.7711 Y-115.1142 F120.00
G01 X127.7711 Y-115.1622 F120.00
G01 X126.8306 Y-115.1622 F120.00
G01 X126.8306 Y-115.2102 F120.00
G01 X127.7711 Y-115.2102 F120.00
G01 X127.7711 Y-115.2582 F120.00
G01 X126.8306 Y-115.2582 F120.00
G01 X126.8306 Y-115.3062 F120.00
G01 X127.7711 Y-115.3062 F120.00
G01 X127.7711 Y-115.3542 F120.00
G01 X126.8306 Y-115.3542 F120.00
G01 X126.8306 Y-115.4022 F120.00
G01 X127.7711 Y-115.4022 F120.00
G01 X127.7711 Y-115.4502 F120.00
G01 X126.8306 Y-115.4502 F120.00
G01 X126.8306 Y-115.4982 F120.00
G01 X127.7711 Y-115.4982 F120.00
G01 X127.7711 Y-115.5462 F120.00
G01 X126.8306 Y-115.5462 F120.00
G01 X126.8306 Y-115.5942 F120.00
G01 X127.7711 Y-115.5942 F120.00
G01 X127.7711 Y-115.6422 F120.00
G01 X126.8306 Y-115.6422 F120.00
G01 X126.8306 Y-115.6902 F120.00
G01 X127.7711 Y-115.6902 F120.00
G01 X127.7711 Y-115.7382 F120.00
G01 X126.8306 Y-115.7382 F120.00
G01 X126.8306 Y-115.7862 F120.00
G01 X127.7711 Y-115.7862 F120.00
G01 X127.7711 Y-115.8342 F120.00
G01 X126.8306 Y-115.8342 F120.00
G01 X126.8306 Y-115.8822 F120.00
G01 X127.7711 Y-115.8822 F120.00
G01 X127.7711 Y-115.9302 F120.00
G01 X126.8306 Y-115.9302 F120.00
G01 X126.8306 Y-115.9782 F120.00
G01 X127.7711 Y-115.9782 F120.00
G01 X127.7711 Y-116.0262 F120.00
G01 X126.8306 Y-116.0262 F120.00
G01 X126.8306 Y-116.0742 F120.00
G01 X127.7711 Y-116.0742 F120.00
G01 X127.7711 Y-116.1222 F120.00
G01 X126.8306 Y-116.1222 F120.00
G01 X126.8306 Y-116.1702 F120.00
G01 X127.7711 Y-116.1702 F120.00
G01 X127.7711 Y-116.2182 F120.00
G01 X126.8306 Y-116.2182 F120.00
G01 X126.8306 Y-116.2662 F120.00
G01 X127.7711 Y-116.2662 F120.00
G01 X127.7711 Y-116.3142 F120.00
G01 X126.8306 Y-116.3142 F120.00
G01 X126.8306 Y-116.3622 F120.00
G01 X127.7711 Y-116.3622 F120.00
G01 X127.7711 Y-116.4102 F120.00
G01 X126.8306 Y-116.4102 F120.00
G01 X126.8306 Y-116.4582 F120.00
G01 X127.7711 Y-116.4582 F120.00
G01 X127.7711 Y-116.5062 F120.00
G01 X126.8306 Y-116.5062 F120.00
G01 X126.8306 Y-116.5542 F120.00
G01 X127.7711 Y-116.5542 F120.00
G01 X127.7711 Y-116.6022 F120.00
G01 X126.8306 Y-116.6022 F120.00
G01 X126.8306 Y-116.6502 F120.00
G01 X127.7711 Y-116.6502 F120.00
G01 X127.7711 Y-116.6982 F120.00
G01 X126.8306 Y-116.6982 F120.00
G01 X126.8306 Y-116.7462 F120.00
G01 X127.7711 Y-116.7462 F120.00
G01 X127.7711 Y-116.7942 F120.00
G01 X126.8306 Y-116.7942 F120.00
G01 X126.8306 Y-116.8422 F120.00
G01 X127.7711 Y-116.8422 F120.00
G01 X127.7711 Y-116.8902 F120.00
G01 X126.8306 Y-116.8902 F120.00
G01 X126.8306 Y-116.9382 F120.00
G01 X127.7711 Y-116.9382 F120.00
G01 X127.7711 Y-116.9862 F120.00
G01 X126.8306 Y-116.9862 F120.00
G01 X126.8306 Y-117.0342 F120.00
G01 X127.7711 Y-117.0342 F120.00
G01 X127.7711 Y-117.0822 F120.00
G01 X126.8306 Y-117.0822 F120.00
G01 X126.8306 Y-117.1302 F120.00
G01 X127.7711 Y-117.1302 F120.00
G01 X127.7711 Y-117.1782 F120.00
G01 X126.8306 Y-117.1782 F120.00
G01 X126.8306 Y-117.2262 F120.00
G01 X127.7711 Y-117.2262 F120.00
G01 X127.7711 Y-117.2742 F120.00
G01 X126.8306 Y-117.2742 F120.00
G01 X126.8306 Y-117.3222 F120.00
G01 X127.7711 Y-117.3222 F120.00
G01 X127.7711 Y-117.3702 F120.00
G01 X126.8306 Y-117.3702 F120.00
G01 X126.8306 Y-117.4182 F120.00
G01 X127.7711 Y-117.4182 F120.00
G01 X127.7711 Y-117.4662 F120.00
G01 X126.8306 Y-117.4662 F120.00
G01 X126.8306 Y-117.5142 F120.00
G01 X127.7711 Y-117.5142 F120.00
G01 X127.7711 Y-117.5622 F120.00
G01 X126.8306 Y-117.5622 F120.00
G01 X126.8306 Y-117.6102 F120.00
G01 X127.7711 Y-117.6102 F120.00
G01 X127.7711 Y-117.6582 F120.00
G01 X126.8306 Y-117.6582 F120.00
G01 X126.8306 Y-117.7062 F120.00
G01 X127.7711 Y-117.7062 F120.00
G01 X127.7711 Y-117.7542 F120.00
G01 X126.8306 Y-117.7542 F120.00
G01 X126.8306 Y-117.8022 F120.00
G01 X127.7711 Y-117.8022 F120.00
G01 X127.7711 Y-117.8502 F120.00
G01 X126.8306 Y-117.8502 F120.00
G01 X126.8306 Y-117.8982 F120.00
G01 X127.7711 Y-117.8982 F120.00
G01 X127.7711 Y-117.9462 F120.00
G01 X126.8306 Y-117.9462 F120.00
G01 X126.8306 Y-117.9942 F120.00
G01 X127.7711 Y-117.9942 F120.00
G01 X127.7711 Y-118.0422 F120.00
G01 X126.8306 Y-118.0422 F120.00
G01 X126.8306 Y-118.0902 F120.00
G01 X127.7711 Y-118.0902 F120.00
G01 X127.7711 Y-118.1382 F120.00
G01 X126.8306 Y-118.1382 F120.00
G01 X126.8306 Y-118.1862 F120.00
G01 X127.7711 Y-118.1862 F120.00
G01 X127.7711 Y-118.2342 F120.00
G01 X126.8306 Y-118.2342 F120.00
G01 X126.8306 Y-118.2822 F120.00
G01 X127.7711 Y-118.2822 F120.00
G01 X127.7711 Y-118.3302 F120.00
G01 X126.8306 Y-118.3302 F120.00
G01 X126.8306 Y-118.3782 F120.00
G01 X127.7711 Y-118.3782 F120.00
G01 X127.7711 Y-118.4262 F120.00
G01 X126.8306 Y-118.4262 F120.00
G01 X126.8306 Y-118.4742 F120.00
G01 X127.7711 Y-118.4742 F120.00
G01 X127.7711 Y-118.5222 F120.00
G01 X126.8306 Y-118.5222 F120.00
G01 X126.8306 Y-118.5702 F120.00
G01 X127.7711 Y-118.5702 F120.00
G01 X127.7711 Y-118.6182 F120.00
G01 X126.8306 Y-118.6182 F120.00
G01 X126.8306 Y-118.6662 F120.00
G01 X127.7711 Y-118.6662 F120.00
G01 X127.7711 Y-118.7142 F120.00
G01 X126.8306 Y-118.7142 F120.00
G01 X126.8306 Y-118.7622 F120.00
G01 X127.7711 Y-118.7622 F120.00
G01 X127.7711 Y-118.8102 F120.00
G01 X126.8306 Y-118.8102 F120.00
G01 X126.8306 Y-118.8582 F120.00
G01 X127.7711 Y-118.8582 F120.00
G01 X127.7711 Y-118.9062 F120.00
G01 X126.8306 Y-118.9062 F120.00
G01 X126.8306 Y-118.9542 F120.00
G01 X127.7711 Y-118.9542 F120.00
G01 X127.7711 Y-119.0022 F120.00
G01 X126.8306 Y-119.0022 F120.00
G01 X126.8306 Y-119.0502 F120.00
G01 X127.7711 Y-119.0502 F120.00
G01 X127.7711 Y-119.0982 F120.00
G01 X126.8306 Y-119.0982 F120.00
G01 X126.8306 Y-119.1462 F120.00
G01 X127.7711 Y-119.1462 F120.00
G01 X127.7711 Y-119.1942 F120.00
G01 X126.8306 Y-119.1942 F120.00
M5
G00 X126.8305 Y-119.2117
G01 F60.00
M03 S1000.0
G01 F120.00
G01 X126.8306 Y-75.1298 F120.00
G01 X126.8243 Y-74.9839 F120.00
G01 X126.8246 Y-74.9377 F120.00
G01 X126.8327 Y-74.7832 F120.00
G01 X126.8373 Y-74.7372 F120.00
G01 X126.8600 Y-74.5842 F120.00
G01 X126.8690 Y-74.5389 F120.00
G01 X126.9061 Y-74.3886 F120.00
G01 X126.9194 Y-74.3444 F120.00
G01 X126.9707 Y-74.1984 F120.00
G01 X126.9880 Y-74.1556 F120.00
G01 X127.0529 Y-74.0151 F120.00
G01 X127.0743 Y-73.9742 F120.00
G01 X127.1523 Y-73.8405 F120.00
G01 X127.1774 Y-73.8018 F120.00
G01 X127.2678 Y-73.6761 F120.00
G01 X127.2965 Y-73.6399 F120.00
G01 X127.3983 Y-73.5234 F120.00
G01 X127.4303 Y-73.4901 F120.00
G01 X127.5428 Y-73.3838 F120.00
G01 X127.5778 Y-73.3538 F120.00
G01 X127.6999 Y-73.2586 F120.00
G01 X127.7376 Y-73.2320 F120.00
G01 X127.8682 Y-73.1489 F120.00
G01 X127.9083 Y-73.1260 F120.00
G01 X128.0461 Y-73.0556 F120.00
G01 X128.0882 Y-73.0366 F120.00
G01 X128.2322 Y-72.9797 F120.00
G01 X128.2758 Y-72.9648 F120.00
G01 X128.4245 Y-72.9218 F120.00
G01 X128.4694 Y-72.9111 F120.00
G01 X128.6215 Y-72.8825 F120.00
G01 X128.6679 Y-72.8761 F120.00
G01 X128.7102 Y-72.8742 F120.00
G01 X178.2910 Y-72.8947 F120.00
G01 X178.3378 Y-72.8970 F120.00
G01 X178.3793 Y-72.9029 F120.00
G01 X178.5314 Y-72.9316 F120.00
G01 X178.5763 Y-72.9423 F120.00
G01 X178.7250 Y-72.9853 F120.00
G01 X178.7687 Y-73.0002 F120.00
G01 X178.9126 Y-73.0571 F120.00
G01 X178.9547 Y-73.0761 F120.00
G01 X179.0925 Y-73.1464 F120.00
G01 X179.1326 Y-73.1693 F120.00
G01 X179.2632 Y-73.2525 F120.00
G01 X179.3009 Y-73.2791 F120.00
G01 X179.4230 Y-73.3742 F120.00
G01 X179.4580 Y-73.4043 F120.00
G01 X179.5705 Y-73.5106 F120.00
G01 X179.6025 Y-73.5439 F120.00
G01 X179.7044 Y-73.6604 F120.00
G01 X179.7331 Y-73.6965 F120.00
G01 X179.8234 Y-73.8222 F120.00
G01 X179.8485 Y-73.8609 F120.00
G01 X179.9265 Y-73.9946 F120.00
G01 X179.9479 Y-74.0355 F120.00
G01 X180.0128 Y-74.1760 F120.00
G01 X180.0302 Y-74.2188 F120.00
G01 X180.0815 Y-74.3648 F120.00
G01 X180.0947 Y-74.4091 F120.00
G01 X180.1319 Y-74.5593 F120.00
G01 X180.1408 Y-74.6046 F120.00
G01 X180.1636 Y-74.7577 F120.00
G01 X180.1682 Y-74.8036 F120.00
G01 X180.1763 Y-74.9582 F120.00
G01 X180.1765 Y-75.0043 F120.00
G01 X180.1702 Y-75.1511 F120.00
G01 X180.1702 Y-119.2302 F120.00
G01 X180.1765 Y-119.3761 F120.00
G01 X180.1762 Y-119.4223 F120.00
G01 X180.1681 Y-119.5769 F120.00
G01 X180.1635 Y-119.6228 F120.00
G01 X180.1408 Y-119.7759 F120.00
G01 X180.1318 Y-119.8212 F120.00
G01 X180.0946 Y-119.9714 F120.00
G01 X180.0814 Y-120.0156 F120.00
G01 X180.0301 Y-120.1617 F120.00
G01 X180.0128 Y-120.2044 F120.00
G01 X179.9478 Y-120.3449 F120.00
G01 X179.9265 Y-120.3859 F120.00
G01 X179.8485 Y-120.5195 F120.00
G01 X179.8234 Y-120.5583 F120.00
G01 X179.7330 Y-120.6839 F120.00
G01 X179.7043 Y-120.7201 F120.00
G01 X179.6025 Y-120.8366 F120.00
G01 X179.5705 Y-120.8699 F120.00
G01 X179.4580 Y-120.9762 F120.00
G01 X179.4230 Y-121.0063 F120.00
G01 X179.3009 Y-121.1014 F120.00
G01 X179.2632 Y-121.1280 F120.00
G01 X179.1326 Y-121.2111 F120.00
G01 X179.0925 Y-121.2340 F120.00
G01 X178.9546 Y-121.3044 F120.00
G01 X178.9126 Y-121.3234 F120.00
G01 X178.7686 Y-121.3803 F120.00
G01 X178.7250 Y-121.3952 F120.00
G01 X178.5763 Y-121.4382 F120.00
G01 X178.5314 Y-121.4489 F120.00
G01 X178.3793 Y-121.4775 F120.00
G01 X178.3374 Y-121.4835 F120.00
G01 X178.2906 Y-121.4858 F120.00
G01 X128.7099 Y-121.4654 F120.00
G01 X128.6630 Y-121.4630 F120.00
G01 X128.6215 Y-121.4571 F120.00
G01 X128.4694 Y-121.4284 F120.00
G01 X128.4245 Y-121.4177 F120.00
G01 X128.2758 Y-121.3748 F120.00
G01 X128.2322 Y-121.3598 F120.00
G01 X128.0882 Y-121.3029 F120.00
G01 X128.0462 Y-121.2839 F120.00
G01 X127.9083 Y-121.2136 F120.00
G01 X127.8682 Y-121.1907 F120.00
G01 X127.7376 Y-121.1076 F120.00
G01 X127.6999 Y-121.0810 F120.00
G01 X127.5778 Y-120.9858 F120.00
G01 X127.5428 Y-120.9557 F120.00
G01 X127.4303 Y-120.8494 F120.00
G01 X127.3983 Y-120.8162 F120.00
G01 X127.2965 Y-120.6996 F120.00
G01 X127.2678 Y-120.6635 F120.00
G01 X127.1774 Y-120.5378 F120.00
G01 X127.1523 Y-120.4991 F120.00
G01 X127.0743 Y-120.3654 F120.00
G01 X127.0530 Y-120.3245 F120.00
G01 X126.9880 Y-120.1840 F120.00
G01 X126.9707 Y-120.1412 F120.00
G01 X126.9194 Y-119.9952 F120.00
G01 X126.9062 Y-119.9510 F120.00
G01 X126.8690 Y-119.8007 F120.00
G01 X126.8600 Y-119.7554 F120.00
G01 X126.8373 Y-119.6023 F120.00
G01 X126.8327 Y-119.5564 F120.00
G01 X126.8246 Y-119.4018 F120.00
G01 X126.8244 Y-119.3557 F120.00
G01 X126.8305 Y-119.2117 F120.00
G01 X126.8292 Y-119.2422 F120.00
G01 X127.7706 Y-119.2422 F120.00
G01 X127.7685 Y-119.2902 F120.00
G01 X126.8272 Y-119.2902 F120.00
G01 X126.8251 Y-119.3382 F120.00
G01 X127.7665 Y-119.3382 F120.00
M5
G00 X127.7656 Y-119.3862
G01 F60.00
M03 S1000.0
G01 F120.00
G01 X126.8245 Y-119.3862 F120.00
G01 X126.8263 Y-119.4342 F120.00
G01 X127.7681 Y-119.4342 F120.00
G01 X127.7706 Y-119.4822 F120.00
G01 X126.8288 Y-119.4822 F120.00
G01 X126.8313 Y-119.5302 F120.00
G01 X127.7774 Y-119.5302 F120.00
G01 X127.7845 Y-119.5782 F120.00
G01 X126.8349 Y-119.5782 F120.00
G01 X126.8408 Y-119.6262 F120.00
G01 X127.7947 Y-119.6262 F120.00
G01 X127.8066 Y-119.6742 F120.00
G01 X126.8480 Y-119.6742 F120.00
G01 X126.8551 Y-119.7222 F120.00
G01 X127.8203 Y-119.7222 F120.00
G01 X127.8372 Y-119.7702 F120.00
G01 X126.8630 Y-119.7702 F120.00
G01 X126.8733 Y-119.8182 F120.00
G01 X127.8551 Y-119.8182 F120.00
G01 X127.8773 Y-119.8662 F120.00
G01 X126.8852 Y-119.8662 F120.00
G01 X126.8971 Y-119.9142 F120.00
G01 X127.8999 Y-119.9142 F120.00
G01 X127.9279 Y-119.9622 F120.00
G01 X126.9095 Y-119.9622 F120.00
G01 X126.9247 Y-120.0102 F120.00
G01 X127.9565 Y-120.0102 F120.00
G01 X127.9910 Y-120.0582 F120.00
G01 X126.9415 Y-120.0582 F120.00
G01 X126.9584 Y-120.1062 F120.00
G01 X128.0269 Y-120.1062 F120.00
G01 X128.0689 Y-120.1542 F120.00
G01 X126.9760 Y-120.1542 F120.00
G01 X126.9965 Y-120.2022 F120.00
G01 X128.1148 Y-120.2022 F120.00
G01 X128.1656 Y-120.2502 F120.00
G01 X127.0186 Y-120.2502 F120.00
G01 X127.0408 Y-120.2982 F120.00
G01 X128.2256 Y-120.2982 F120.00
M5
G00 X128.2930 Y-120.3462
G01 F60.00
M03 S1000.0
G01 F120.00
G01 X127.0643 Y-120.3462 F120.00
G01 X127.0911 Y-120.3942 F120.00
G01 X128.3718 Y-120.3942 F120.00
M5
G00 X128.4692 Y-120.4422
G01 F60.00
M03 S1000.0
G01 F120.00
G01 X127.1191 Y-120.4422 F120.00
G01 X127.1471 Y-120.4902 F120.00
G01 X128.6027 Y-120.4902 F120.00
M5
G00 X128.3709 Y-121.4022
G01 F60.00
M03 S1000.0
G01 F120.00
G01 X178.7006 Y-121.4022 F120.00
G01 X178.8345 Y-121.3542 F120.00
G01 X128.2180 Y-121.3542 F120.00
G01 X128.0966 Y-121.3062 F120.00
G01 X178.9505 Y-121.3062 F120.00
G01 X179.0451 Y-121.2582 F120.00
G01 X127.9958 Y-121.2582 F120.00
G01 X127.9024 Y-121.2102 F120.00
G01 X179.1340 Y-121.2102 F120.00
G01 X179.2094 Y-121.1622 F120.00
G01 X127.8235 Y-121.1622 F120.00
G01 X127.7481 Y-121.1142 F120.00
G01 X179.2827 Y-121.1142 F120.00
G01 X179.3460 Y-121.0662 F120.00
G01 X127.6810 Y-121.0662 F120.00
G01 X127.6194 Y-121.0182 F120.00
G01 X179.4076 Y-121.0182 F120.00
G01 X179.4643 Y-120.9702 F120.00
G01 X127.5597 Y-120.9702 F120.00
G01 X127.5074 Y-120.9222 F120.00
G01 X179.5151 Y-120.9222 F120.00
G01 X179.5658 Y-120.8742 F120.00
G01 X127.4566 Y-120.8742 F120.00
G01 X127.4080 Y-120.8262 F120.00
G01 X179.6115 Y-120.8262 F120.00
G01 X179.6535 Y-120.7782 F120.00
G01 X127.3652 Y-120.7782 F120.00
G01 X127.3232 Y-120.7302 F120.00
G01 X179.6955 Y-120.7302 F120.00
G01 X179.7343 Y-120.6822 F120.00
G01 X127.2826 Y-120.6822 F120.00
G01 X127.2467 Y-120.6342 F120.00
G01 X179.7688 Y-120.6342 F120.00
G01 X179.8033 Y-120.5862 F120.00
G01 X127.2122 Y-120.5862 F120.00
G01 X127.1777 Y-120.5382 F120.00
G01 X161.1159 Y-120.5382 F120.00
M5
G00 X161.3071 Y-120.5382
G01 F60.00
M03 S1000.0
G01 F120.00
G01 X161.4223 Y-120.5382 F120.00
M5
G00 X161.3950 Y-120.5084
G01 F60.00
M03 S1000.0
G01 F120.00
G01 X161.3956 Y-120.5142 F120.00
G01 X161.3973 Y-120.5198 F120.00
G01 X161.4001 Y-120.5250 F120.00
G01 X161.4038 Y-120.5296 F120.00
G01 X161.4084 Y-120.5333 F120.00
G01 X161.4135 Y-120.5361 F120.00
G01 X161.4192 Y-120.5378 F120.00
G01 X161.4250 Y-120.5384 F120.00
G01 X163.0850 Y-120.5390 F120.00
G01 X163.0894 Y-120.5387 F120.00
G01 X163.0944 Y-120.5375 F120.00
G01 X163.0985 Y-120.5358 F120.00
G01 X163.1022 Y-120.5336 F120.00
G01 X163.1062 Y-120.5303 F120.00
G01 X163.1091 Y-120.5269 F120.00
G01 X163.1118 Y-120.5225 F120.00
G01 X163.1135 Y-120.5185 F120.00
G01 X163.1145 Y-120.5142 F120.00
G01 X163.1150 Y-120.5090 F120.00
G01 X163.1150 Y-115.4350 F120.00
G01 X163.1144 Y-115.4292 F120.00
G01 X163.1127 Y-115.4236 F120.00
G01 X163.1099 Y-115.4184 F120.00
G01 X163.1062 Y-115.4138 F120.00
G01 X163.1016 Y-115.4101 F120.00
G01 X163.0965 Y-115.4073 F120.00
G01 X163.0908 Y-115.4056 F120.00
G01 X163.0850 Y-115.4050 F120.00
G01 X161.4250 Y-115.4050 F120.00
G01 X161.4206 Y-115.4054 F120.00
G01 X161.4156 Y-115.4065 F120.00
G01 X161.4115 Y-115.4082 F120.00
G01 X161.4078 Y-115.4105 F120.00
G01 X161.4038 Y-115.4138 F120.00
G01 X161.4009 Y-115.4172 F120.00
G01 X161.3982 Y-115.4215 F120.00
G01 X161.3965 Y-115.4256 F120.00
G01 X161.3955 Y-115.4299 F120.00
G01 X161.3950 Y-115.4350 F120.00
G01 X161.3950 Y-120.5084 F120.00
G01 X161.3950 Y-120.4902 F120.00
G01 X161.3350 Y-120.4902 F120.00
G01 X161.3350 Y-120.4422 F120.00
G01 X161.3950 Y-120.4422 F120.00
G01 X161.3950 Y-120.3942 F120.00
G01 X161.3350 Y-120.3942 F120.00
G01 X161.3350 Y-120.3462 F120.00
G01 X161.3950 Y-120.3462 F120.00
G01 X161.3950 Y-120.2982 F120.00
G01 X161.3350 Y-120.2982 F120.00
G01 X161.3350 Y-120.2502 F120.00
G01 X161.3950 Y-120.2502 F120.00
G01 X161.3950 Y-120.2022 F120.00
G01 X161.3350 Y-120.2022 F120.00
G01 X161.3350 Y-120.1542 F120.00
G01 X161.3950 Y-120.1542 F120.00
G01 X161.3950 Y-120.1062 F120.00
G01 X161.3350 Y-120.1062 F120.00
G01 X161.3350 Y-120.0582 F120.00
G01 X161.3950 Y-120.0582 F120.00
G01 X161.3950 Y-120.0102 F120.00
G01 X161.3350 Y-120.0102 F120.00
G01 X161.3350 Y-119.9622 F120.00
G01 X161.3950 Y-119.9622 F120.00
G01 X161.3950 Y-119.9142 F120.00
G01 X161.3350 Y-119.9142 F120.00
G01 X161.3350 Y-119.8662 F120.00
G01 X161.3950 Y-119.8662 F120.00
G01 X161.3950 Y-119.8182 F120.00
G01 X161.3350 Y-119.8182 F120.00
G01 X161.3350 Y-119.7702 F120.00
G01 X161.3950 Y-119.7702 F120.00
G01 X161.3950 Y-119.7222 F120.00
G01 X161.3350 Y-119.7222 F120.00
G01 X161.3350 Y-119.6742 F120.00
G01 X161.3950 Y-119.6742 F120.00
G01 X161.3950 Y-119.6262 F120.00
G01 X161.3350 Y-119.6262 F120.00
G01 X161.3350 Y-119.5782 F120.00
G01 X161.3950 Y-119.5782 F120.00
G01 X161.3950 Y-119.5302 F120.00
G01 X161.3350 Y-119.5302 F120.00
G01 X161.3350 Y-119.4822 F120.00
G01 X161.3950 Y-119.4822 F120.00
G01 X161.3950 Y-119.4342 F120.00
G01 X161.3350 Y-119.4342 F120.00
G01 X161.3350 Y-119.3862 F120.00
G01 X161.3950 Y-119.3862 F120.00
G01 X161.3950 Y-119.3382 F120.00
G01 X161.3350 Y-119.3382 F120.00
G01 X161.3350 Y-119.2902 F120.00
G01 X161.3950 Y-119.2902 F120.00
G01 X161.3950 Y-119.2422 F120.00
G01 X161.3350 Y-119.2422 F120.00
G01 X161.3350 Y-119.1942 F120.00
G01 X161.3950 Y-119.1942 F120.00
G01 X161.3950 Y-119.1462 F120.00
G01 X161.3350 Y-119.1462 F120.00
G01 X161.3350 Y-119.0982 F120.00
G01 X161.3950 Y-119.0982 F120.00
G01 X161.3950 Y-119.0502 F120.00
G01 X161.3350 Y-119.0502 F120.00
G01 X161.3350 Y-119.0022 F120.00
G01 X161.3950 Y-119.0022 F120.00
G01 X161.3950 Y-118.9542 F120.00
G01 X161.3350 Y-118.9542 F120.00
G01 X161.3350 Y-118.9062 F120.00
G01 X161.3950 Y-118.9062 F120.00
G01 X161.3950 Y-118.8582 F120.00
G01 X161.3350 Y-118.8582 F120.00
G01 X161.3350 Y-118.8102 F120.00
G01 X161.3950 Y-118.8102 F120.00
G01 X161.3950 Y-118.7622 F120.00
G01 X161.3350 Y-118.7622 F120.00
G01 X161.3350 Y-118.7142 F120.00
G01 X161.3950 Y-118.7142 F120.00
G01 X161.3950 Y-118.6662 F120.00
G01 X161.3350 Y-118.6662 F120.00
G01 X161.3350 Y-118.6182 F120.00
G01 X161.3950 Y-118.6182 F120.00
G01 X161.3950 Y-118.5702 F120.00
G01 X161.3350 Y-118.5702 F120.00
G01 X161.3350 Y-118.5222 F120.00
G01 X161.3950 Y-118.5222 F120.00
G01 X161.3950 Y-118.4742 F120.00
G01 X161.3350 Y-118.4742 F120.00
G01 X161.3350 Y-118.4262 F120.00
G01 X161.3950 Y-118.4262 F120.00
G01 X161.3950 Y-118.3782 F120.00
G01 X161.3350 Y-118.3782 F120.00
G01 X161.3350 Y-118.3302 F120.00
G01 X161.3950 Y-118.3302 F120.00
G01 X161.3950 Y-118.2822 F120.00
G01 X161.3350 Y-118.2822 F120.00
G01 X161.3350 Y-118.2342 F120.00
G01 X161.3950 Y-118.2342 F120.00
G01 X161.3950 Y-118.1862 F120.00
G01 X161.3350 Y-118.1862 F120.00
G01 X161.3350 Y-118.1382 F120.00
G01 X161.3950 Y-118.1382 F120.00
G01 X161.3950 Y-118.0902 F120.00
G01 X161.3350 Y-118.0902 F120.00
G01 X161.3350 Y-118.0422 F120.00
G01 X161.3950 Y-118.0422 F120.00
G01 X161.3950 Y-117.9942 F120.00
G01 X161.3350 Y-117.9942 F120.00
G01 X161.3350 Y-117.9462 F120.00
G01 X161.3950 Y-117.9462 F120.00
G01 X161.3950 Y-117.8982 F120.00
G01 X161.3350 Y-117.8982 F120.00
G01 X161.3350 Y-117.8502 F120.00
G01 X161.3950 Y-117.8502 F120.00
G01 X161.3950 Y-117.8022 F120.00
G01 X161.3350 Y-117.8022 F120.00
G01 X161.3350 Y-117.7542 F120.00
G01 X161.3950 Y-117.7542 F120.00
G01 X161.3950 Y-117.7062 F120.00
G01 X161.3350 Y-117.7062 F120.00
G01 X161.3350 Y-117.6582 F120.00
G01 X161.3950 Y-117.6582 F120.00
G01 X161.3950 Y-117.6102 F120.00
G01 X161.3350 Y-117.6102 F120.00
G01 X161.3350 Y-117.5622 F120.00
G01 X161.3950 Y-117.5622 F120.00
G01 X161.3950 Y-117.5142 F120.00
G01 X161.3350 Y-117.5142 F120.00
G01 X161.3350 Y-117.4662 F120.00
G01 X161.3950 Y-117.4662 F120.00
G01 X161.3950 Y-117.4182 F120.00
G01 X161.3350 Y-117.4182 F120.00
G01 X161.3350 Y-117.3702 F120.00
G01 X161.3950 Y-117.3702 F120.00
G01 X161.3950 Y-117.3222 F120.00
G01 X161.3350 Y-117.3222 F120.00
G01 X161.3350 Y-117.2742 F120.00
G01 X161.3950 Y-117.2742 F120.00
G01 X161.3950 Y-117.2262 F120.00
G01 X161.3350 Y-117.2262 F120.00
G01 X161.3350 Y-117.1782 F120.00
G01 X161.3950 Y-117.1782 F120.00
G01 X161.3950 Y-117.1302 F120.00
G01 X161.3350 Y-117.1302 F120.00
G01 X161.3350 Y-117.0822 F120.00
G01 X161.3950 Y-117.0822 F120.00
G01 X161.3950 Y-117.0342 F120.00
G01 X161.3350 Y-117.0342 F120.00
G01 X161.3350 Y-116.9862 F120.00
G01 X161.3950 Y-116.9862 F120.00
G01 X161.3950 Y-116.9382 F120.00
G01 X161.3350 Y-116.9382 F120.00
G01 X161.3350 Y-116.8902 F120.00
G01 X161.3950 Y-116.8902 F120.00
G01 X161.3950 Y-116.8422 F120.00
G01 X161.3350 Y-116.8422 F120.00
G01 X161.3350 Y-116.7942 F120.00
G01 X161.3950 Y-116.7942 F120.00
G01 X161.3950 Y-116.7462 F120.00
G01 X161.3350 Y-116.7462 F120.00
G01 X161.3350 Y-116.6982 F120.00
G01 X161.3950 Y-116.6982 F120.00
G01 X161.3950 Y-116.6502 F120.00
G01 X161.3350 Y-116.6502 F120.00
G01 X161.3350 Y-116.6022 F120.00
G01 X161.3950 Y-116.6022 F120.00
G01 X161.3950 Y-116.5542 F120.00
G01 X161.3350 Y-116.5542 F120.00
G01 X161.3350 Y-116.5062 F120.00
G01 X161.3950 Y-116.5062 F120.00
G01 X161.3950 Y-116.4582 F120.00
G01 X161.3350 Y-116.4582 F120.00
G01 X161.3350 Y-116.4102 F120.00
G01 X161.3950 Y-116.4102 F120.00
G01 X161.3950 Y-116.3622 F120.00
G01 X161.3350 Y-116.3622 F120.00
G01 X161.3350 Y-116.3142 F120.00
G01 X161.3950 Y-116.3142 F120.00
G01 X161.3950 Y-116.2662 F120.00
G01 X161.3350 Y-116.2662 F120.00
G01 X161.3350 Y-116.2182 F120.00
G01 X161.3950 Y-116.2182 F120.00
G01 X161.3950 Y-116.1702 F120.00
G01 X161.3350 Y-116.1702 F120.00
G01 X161.3350 Y-116.1222 F120.00
G01 X161.3950 Y-116.1222 F120.00
G01 X161.3950 Y-116.0742 F120.00
G01 X161.3350 Y-116.0742 F120.00
G01 X161.3350 Y-116.0262 F120.00
G01 X161.3950 Y-116.0262 F120.00
G01 X161.3950 Y-115.9782 F120.00
G01 X161.3350 Y-115.9782 F120.00
G01 X161.3350 Y-115.9302 F120.00
G01 X161.3950 Y-115.9302 F120.00
G01 X161.3950 Y-115.8822 F120.00
