(G-CODE GENERATED BY FLATCAM v8.994 - www.flatcam.org - Version Date: 2020/11/7)

(Name: hokushime-db9-to-rs232-F_Mask.gbr_sub_iso_combined_mt_paint_cnc)
(Type: G-code from Geometry)
(Units: MM)

(Created on Friday, 16 May 2025 at 14:46)

(This preprocessor is used with a motion controller loaded with GRBL firmware. )
(It is for the case when it is used together with a LASER connected on the SPINDLE connector.)

(Feedrate: 120.0 mm/min)
(Feedrate rapids: 1500.0 mm/min)

(Z Focus: 2.0 mm)
(Steps per circle: 64)
(Preprocessor Geometry: GRBL_laser)

(X range:  128.6900 ...  178.3700  mm)
(Y range: -118.4100 ...  -74.6900  mm)

(Laser Power - Spindle Speed: 5000.0)

G21
G90
G17
G94

G01 F120.00

M5
G01 F120.00
G00 X131.1150 Y-77.2052
G01 F60.00
M03 S5000.0
G01 F120.00
G01 X133.0850 Y-77.2052 F120.00
M5
G00 X133.0850 Y-77.2454
G01 F60.00
M03 S5000.0
G01 F120.00
G01 X131.1150 Y-77.2454 F120.00
M5
G00 X133.0850 Y-77.2856
G01 F60.00
M03 S5000.0
G01 F120.00
G01 X131.1150 Y-77.2856 F120.00
M5
G00 X133.0850 Y-77.3258
G01 F60.00
M03 S5000.0
G01 F120.00
G01 X131.1150 Y-77.3258 F120.00
M5
G00 X133.0850 Y-77.3660
G01 F60.00
M03 S5000.0
G01 F120.00
G01 X131.1150 Y-77.3660 F120.00
M5
G00 X133.0850 Y-77.4062
G01 F60.00
M03 S5000.0
G01 F120.00
G01 X131.1150 Y-77.4062 F120.00
M5
G00 X133.0850 Y-77.4464
G01 F60.00
M03 S5000.0
G01 F120.00
G01 X131.1150 Y-77.4464 F120.00
M5
G00 X133.0850 Y-77.4866
G01 F60.00
M03 S5000.0
G01 F120.00
G01 X131.1150 Y-77.4866 F120.00
M5
G00 X133.0850 Y-77.5268
G01 F60.00
M03 S5000.0
G01 F120.00
G01 X131.1150 Y-77.5268 F120.00
M5
G00 X133.0850 Y-77.5670
G01 F60.00
M03 S5000.0
G01 F120.00
G01 X131.1150 Y-77.5670 F120.00
M5
G00 X133.0850 Y-77.6072
G01 F60.00
M03 S5000.0
G01 F120.00
G01 X131.1150 Y-77.6072 F120.00
M5
G00 X133.0850 Y-77.6474
G01 F60.00
M03 S5000.0
G01 F120.00
G01 X131.1150 Y-77.6474 F120.00
M5
G00 X133.0850 Y-77.6876
G01 F60.00
M03 S5000.0
G01 F120.00
G01 X131.1150 Y-77.6876 F120.00
M5
G00 X133.0850 Y-77.7278
G01 F60.00
M03 S5000.0
G01 F120.00
G01 X131.1150 Y-77.7278 F120.00
M5
G00 X133.0850 Y-77.7680
G01 F60.00
M03 S5000.0
G01 F120.00
G01 X131.1150 Y-77.7680 F120.00
M5
G00 X133.0850 Y-77.8082
G01 F60.00
M03 S5000.0
G01 F120.00
G01 X131.1150 Y-77.8082 F120.00
M5
G00 X133.0850 Y-77.8484
G01 F60.00
M03 S5000.0
G01 F120.00
G01 X131.1150 Y-77.8484 F120.00
M5
G00 X133.0850 Y-77.8886
G01 F60.00
M03 S5000.0
G01 F120.00
G01 X131.1150 Y-77.8886 F120.00
M5
G00 X133.0850 Y-77.9288
G01 F60.00
M03 S5000.0
G01 F120.00
G01 X131.1150 Y-77.9288 F120.00
M5
G00 X133.0850 Y-77.9690
G01 F60.00
M03 S5000.0
G01 F120.00
G01 X131.1150 Y-77.9690 F120.00
M5
G00 X133.0850 Y-78.0092
G01 F60.00
M03 S5000.0
G01 F120.00
G01 X131.1150 Y-78.0092 F120.00
M5
G00 X133.0850 Y-78.0494
G01 F60.00
M03 S5000.0
G01 F120.00
G01 X131.1150 Y-78.0494 F120.00
M5
G00 X133.0850 Y-78.0896
G01 F60.00
M03 S5000.0
G01 F120.00
G01 X131.1150 Y-78.0896 F120.00
M5
G00 X133.0850 Y-78.1298
G01 F60.00
M03 S5000.0
G01 F120.00
G01 X131.1150 Y-78.1298 F120.00
M5
G00 X133.0850 Y-78.1700
G01 F60.00
M03 S5000.0
G01 F120.00
G01 X131.1150 Y-78.1700 F120.00
M5
G00 X133.0850 Y-78.2102
G01 F60.00
M03 S5000.0
G01 F120.00
G01 X131.1150 Y-78.2102 F120.00
M5
G00 X133.0850 Y-78.2504
G01 F60.00
M03 S5000.0
G01 F120.00
G01 X131.1150 Y-78.2504 F120.00
M5
G00 X133.0850 Y-78.2906
G01 F60.00
M03 S5000.0
G01 F120.00
G01 X131.1150 Y-78.2906 F120.00
M5
G00 X133.0850 Y-78.3308
G01 F60.00
M03 S5000.0
G01 F120.00
G01 X131.1150 Y-78.3308 F120.00
M5
G00 X133.0850 Y-78.3710
G01 F60.00
M03 S5000.0
G01 F120.00
G01 X131.1150 Y-78.3710 F120.00
M5
G00 X133.0850 Y-78.4112
G01 F60.00
M03 S5000.0
G01 F120.00
G01 X131.1150 Y-78.4112 F120.00
M5
G00 X133.0850 Y-78.4514
G01 F60.00
M03 S5000.0
G01 F120.00
G01 X131.1150 Y-78.4514 F120.00
M5
G00 X133.0850 Y-78.4916
G01 F60.00
M03 S5000.0
G01 F120.00
G01 X131.1150 Y-78.4916 F120.00
M5
G00 X133.0850 Y-78.5318
G01 F60.00
M03 S5000.0
G01 F120.00
G01 X131.1150 Y-78.5318 F120.00
M5
G00 X133.0850 Y-78.5720
G01 F60.00
M03 S5000.0
G01 F120.00
G01 X131.1150 Y-78.5720 F120.00
M5
G00 X134.0650 Y-78.5720
G01 F60.00
M03 S5000.0
G01 F120.00
G01 X136.0350 Y-78.5720 F120.00
M5
G00 X136.0350 Y-78.5318
G01 F60.00
M03 S5000.0
G01 F120.00
G01 X134.0650 Y-78.5318 F120.00
M5
G00 X136.0350 Y-78.4916
G01 F60.00
M03 S5000.0
G01 F120.00
G01 X134.0650 Y-78.4916 F120.00
M5
G00 X136.0350 Y-78.4514
G01 F60.00
M03 S5000.0
G01 F120.00
G01 X134.0650 Y-78.4514 F120.00
M5
G00 X136.0350 Y-78.4112
G01 F60.00
M03 S5000.0
G01 F120.00
G01 X134.0650 Y-78.4112 F120.00
M5
G00 X136.0350 Y-78.3710
G01 F60.00
M03 S5000.0
G01 F120.00
G01 X134.0650 Y-78.3710 F120.00
M5
G00 X136.0350 Y-78.3308
G01 F60.00
M03 S5000.0
G01 F120.00
G01 X134.0650 Y-78.3308 F120.00
M5
G00 X136.0350 Y-78.2906
G01 F60.00
M03 S5000.0
G01 F120.00
G01 X134.0650 Y-78.2906 F120.00
M5
G00 X136.0350 Y-78.2504
G01 F60.00
M03 S5000.0
G01 F120.00
G01 X134.0650 Y-78.2504 F120.00
M5
G00 X136.0350 Y-78.2102
G01 F60.00
M03 S5000.0
G01 F120.00
G01 X134.0650 Y-78.2102 F120.00
M5
G00 X136.0350 Y-78.1700
G01 F60.00
M03 S5000.0
G01 F120.00
G01 X134.0650 Y-78.1700 F120.00
M5
G00 X136.0350 Y-78.1298
G01 F60.00
M03 S5000.0
G01 F120.00
G01 X134.0650 Y-78.1298 F120.00
M5
G00 X136.0350 Y-78.0896
G01 F60.00
M03 S5000.0
G01 F120.00
G01 X134.0650 Y-78.0896 F120.00
M5
G00 X136.0350 Y-78.0494
G01 F60.00
M03 S5000.0
G01 F120.00
G01 X134.0650 Y-78.0494 F120.00
M5
G00 X136.0350 Y-78.0092
G01 F60.00
M03 S5000.0
G01 F120.00
G01 X134.0650 Y-78.0092 F120.00
M5
G00 X136.0350 Y-77.9690
G01 F60.00
M03 S5000.0
G01 F120.00
G01 X134.0650 Y-77.9690 F120.00
M5
G00 X136.0350 Y-77.9288
G01 F60.00
M03 S5000.0
G01 F120.00
G01 X134.0650 Y-77.9288 F120.00
M5
G00 X136.0350 Y-77.8886
G01 F60.00
M03 S5000.0
G01 F120.00
G01 X134.0650 Y-77.8886 F120.00
M5
G00 X136.0350 Y-77.8484
G01 F60.00
M03 S5000.0
G01 F120.00
G01 X134.0650 Y-77.8484 F120.00
M5
G00 X136.0350 Y-77.8082
G01 F60.00
M03 S5000.0
G01 F120.00
G01 X134.0650 Y-77.8082 F120.00
M5
G00 X136.0350 Y-77.7680
G01 F60.00
M03 S5000.0
G01 F120.00
G01 X134.0650 Y-77.7680 F120.00
M5
G00 X136.0350 Y-77.7278
G01 F60.00
M03 S5000.0
G01 F120.00
G01 X134.0650 Y-77.7278 F120.00
M5
G00 X136.0350 Y-77.6876
G01 F60.00
M03 S5000.0
G01 F120.00
G01 X134.0650 Y-77.6876 F120.00
M5
G00 X136.0350 Y-77.6474
G01 F60.00
M03 S5000.0
G01 F120.00
G01 X134.0650 Y-77.6474 F120.00
M5
G00 X136.0350 Y-77.6072
G01 F60.00
M03 S5000.0
G01 F120.00
G01 X134.0650 Y-77.6072 F120.00
M5
G00 X136.0350 Y-77.5670
G01 F60.00
M03 S5000.0
G01 F120.00
G01 X134.0650 Y-77.5670 F120.00
M5
G00 X136.0350 Y-77.5268
G01 F60.00
M03 S5000.0
G01 F120.00
G01 X134.0650 Y-77.5268 F120.00
M5
G00 X136.0350 Y-77.4866
G01 F60.00
M03 S5000.0
G01 F120.00
G01 X134.0650 Y-77.4866 F120.00
M5
G00 X136.0350 Y-77.4464
G01 F60.00
M03 S5000.0
G01 F120.00
G01 X134.0650 Y-77.4464 F120.00
M5
G00 X136.0350 Y-77.4062
G01 F60.00
M03 S5000.0
G01 F120.00
G01 X134.0650 Y-77.4062 F120.00
M5
G00 X136.0350 Y-77.3660
G01 F60.00
M03 S5000.0
G01 F120.00
G01 X134.0650 Y-77.3660 F120.00
M5
G00 X136.0350 Y-77.3258
G01 F60.00
M03 S5000.0
G01 F120.00
G01 X134.0650 Y-77.3258 F120.00
M5
G00 X136.0350 Y-77.2856
G01 F60.00
M03 S5000.0
G01 F120.00
G01 X134.0650 Y-77.2856 F120.00
M5
G00 X136.0350 Y-77.2454
G01 F60.00
M03 S5000.0
G01 F120.00
G01 X134.0650 Y-77.2454 F120.00
M5
G00 X136.0350 Y-77.2052
G01 F60.00
M03 S5000.0
G01 F120.00
G01 X134.0650 Y-77.2052 F120.00
M5
G00 X134.0650 Y-78.5850
G01 F60.00
M03 S5000.0
G01 F120.00
G01 X134.0650 Y-77.1650 F120.00
G01 X136.0350 Y-77.1650 F120.00
G01 X136.0350 Y-78.5850 F120.00
G01 X134.0650 Y-78.5850 F120.00
M5
G00 X134.4260 Y-79.8150
G01 F60.00
M03 S5000.0
G01 F120.00
G01 X135.3240 Y-79.8150 F120.00
M5
G00 X135.3240 Y-79.8150
G01 F60.00
M03 S5000.0
G01 F120.00
G01 X135.3456 Y-79.8160 F120.00
G01 X135.3660 Y-79.8190 F120.00
G01 X135.3860 Y-79.8240 F120.00
G01 X135.4054 Y-79.8310 F120.00
G01 X135.4240 Y-79.8398 F120.00
G01 X135.4417 Y-79.8504 F120.00
G01 X135.4582 Y-79.8627 F120.00
G01 X135.4735 Y-79.8765 F120.00
G01 X135.4873 Y-79.8918 F120.00
G01 X135.4996 Y-79.9083 F120.00
G01 X135.5102 Y-79.9260 F120.00
G01 X135.5190 Y-79.9446 F120.00
G01 X135.5260 Y-79.9640 F120.00
G01 X135.5310 Y-79.9840 F120.00
G01 X135.5340 Y-80.0044 F120.00
G01 X135.5350 Y-80.0260 F120.00
G01 X135.5350 Y-80.7240 F120.00
G01 X135.5340 Y-80.7456 F120.00
G01 X135.5310 Y-80.7660 F120.00
G01 X135.5260 Y-80.7860 F120.00
G01 X135.5190 Y-80.8054 F120.00
G01 X135.5102 Y-80.8240 F120.00
G01 X135.4996 Y-80.8417 F120.00
G01 X135.4873 Y-80.8582 F120.00
G01 X135.4735 Y-80.8735 F120.00
G01 X135.4582 Y-80.8873 F120.00
G01 X135.4417 Y-80.8996 F120.00
G01 X135.4240 Y-80.9102 F120.00
G01 X135.4054 Y-80.9190 F120.00
G01 X135.3860 Y-80.9260 F120.00
G01 X135.3660 Y-80.9310 F120.00
G01 X135.3456 Y-80.9340 F120.00
G01 X135.3240 Y-80.9350 F120.00
G01 X134.4260 Y-80.9350 F120.00
G01 X134.4044 Y-80.9340 F120.00
G01 X134.3840 Y-80.9310 F120.00
G01 X134.3640 Y-80.9260 F120.00
G01 X134.3446 Y-80.9190 F120.00
G01 X134.3260 Y-80.9102 F120.00
G01 X134.3083 Y-80.8996 F120.00
G01 X134.2918 Y-80.8873 F120.00
G01 X134.2765 Y-80.8735 F120.00
G01 X134.2627 Y-80.8582 F120.00
G01 X134.2504 Y-80.8417 F120.00
G01 X134.2398 Y-80.8240 F120.00
G01 X134.2310 Y-80.8054 F120.00
G01 X134.2240 Y-80.7860 F120.00
G01 X134.2190 Y-80.7660 F120.00
G01 X134.2160 Y-80.7456 F120.00
G01 X134.2150 Y-80.7240 F120.00
G01 X134.2150 Y-80.0260 F120.00
G01 X134.2160 Y-80.0044 F120.00
G01 X134.2190 Y-79.9840 F120.00
G01 X134.2240 Y-79.9640 F120.00
G01 X134.2310 Y-79.9446 F120.00
G01 X134.2398 Y-79.9260 F120.00
G01 X134.2504 Y-79.9083 F120.00
G01 X134.2627 Y-79.8918 F120.00
G01 X134.2765 Y-79.8765 F120.00
G01 X134.2918 Y-79.8627 F120.00
G01 X134.3083 Y-79.8504 F120.00
G01 X134.3260 Y-79.8398 F120.00
G01 X134.3446 Y-79.8310 F120.00
G01 X134.3640 Y-79.8240 F120.00
G01 X134.3840 Y-79.8190 F120.00
G01 X134.4044 Y-79.8160 F120.00
G01 X134.4260 Y-79.8150 F120.00
G01 X135.3240 Y-79.8150 F120.00
M5
G00 X135.4481 Y-79.8552
G01 F60.00
M03 S5000.0
G01 F120.00
G01 X134.3019 Y-79.8552 F120.00
M5
G00 X135.4900 Y-79.8954
G01 F60.00
M03 S5000.0
G01 F120.00
G01 X134.2600 Y-79.8954 F120.00
M5
G00 X135.5147 Y-79.9356
G01 F60.00
M03 S5000.0
G01 F120.00
G01 X134.2353 Y-79.9356 F120.00
M5
G00 X135.5289 Y-79.9758
G01 F60.00
M03 S5000.0
G01 F120.00
G01 X134.2211 Y-79.9758 F120.00
M5
G00 X135.5346 Y-80.0160
G01 F60.00
M03 S5000.0
G01 F120.00
G01 X134.2154 Y-80.0160 F120.00
M5
G00 X135.5350 Y-80.0562
G01 F60.00
M03 S5000.0
G01 F120.00
G01 X134.2150 Y-80.0562 F120.00
M5
G00 X135.5350 Y-80.0964
G01 F60.00
M03 S5000.0
G01 F120.00
G01 X134.2150 Y-80.0964 F120.00
M5
G00 X135.5350 Y-80.1366
G01 F60.00
M03 S5000.0
G01 F120.00
G01 X134.2150 Y-80.1366 F120.00
M5
G00 X135.5350 Y-80.1768
G01 F60.00
M03 S5000.0
G01 F120.00
G01 X134.2150 Y-80.1768 F120.00
M5
G00 X135.5350 Y-80.2170
G01 F60.00
M03 S5000.0
G01 F120.00
G01 X134.2150 Y-80.2170 F120.00
M5
G00 X135.5350 Y-80.2572
G01 F60.00
M03 S5000.0
G01 F120.00
G01 X134.2150 Y-80.2572 F120.00
M5
G00 X135.5350 Y-80.2974
G01 F60.00
M03 S5000.0
G01 F120.00
G01 X134.2150 Y-80.2974 F120.00
M5
G00 X135.5350 Y-80.3376
G01 F60.00
M03 S5000.0
G01 F120.00
G01 X134.2150 Y-80.3376 F120.00
M5
G00 X135.5350 Y-80.3778
G01 F60.00
M03 S5000.0
G01 F120.00
G01 X134.2150 Y-80.3778 F120.00
M5
G00 X135.5350 Y-80.4180
G01 F60.00
M03 S5000.0
G01 F120.00
G01 X134.2150 Y-80.4180 F120.00
M5
G00 X135.5350 Y-80.4582
G01 F60.00
M03 S5000.0
G01 F120.00
G01 X134.2150 Y-80.4582 F120.00
M5
G00 X135.5350 Y-80.4984
G01 F60.00
M03 S5000.0
G01 F120.00
G01 X134.2150 Y-80.4984 F120.00
M5
G00 X135.5350 Y-80.5386
G01 F60.00
M03 S5000.0
G01 F120.00
G01 X134.2150 Y-80.5386 F120.00
M5
G00 X135.5350 Y-80.5788
G01 F60.00
M03 S5000.0
G01 F120.00
G01 X134.2150 Y-80.5788 F120.00
M5
G00 X135.5350 Y-80.6190
G01 F60.00
M03 S5000.0
G01 F120.00
G01 X134.2150 Y-80.6190 F120.00
M5
G00 X135.5350 Y-80.6592
G01 F60.00
M03 S5000.0
G01 F120.00
G01 X134.2150 Y-80.6592 F120.00
M5
G00 X135.5350 Y-80.6994
G01 F60.00
M03 S5000.0
G01 F120.00
G01 X134.2150 Y-80.6994 F120.00
M5
G00 X135.5343 Y-80.7396
G01 F60.00
M03 S5000.0
G01 F120.00
G01 X134.2157 Y-80.7396 F120.00
M5
G00 X135.5275 Y-80.7798
G01 F60.00
M03 S5000.0
G01 F120.00
G01 X134.2225 Y-80.7798 F120.00
M5
G00 X135.5121 Y-80.8200
G01 F60.00
M03 S5000.0
G01 F120.00
G01 X134.2379 Y-80.8200 F120.00
M5
G00 X135.4856 Y-80.8602
G01 F60.00
M03 S5000.0
G01 F120.00
G01 X134.2644 Y-80.8602 F120.00
M5
G00 X135.4404 Y-80.9004
G01 F60.00
M03 S5000.0
G01 F120.00
G01 X134.3096 Y-80.9004 F120.00
M5
G00 X135.3240 Y-81.8150
G01 F60.00
M03 S5000.0
G01 F120.00
G01 X135.3456 Y-81.8160 F120.00
G01 X135.3660 Y-81.8190 F120.00
G01 X135.3860 Y-81.8240 F120.00
G01 X135.4054 Y-81.8310 F120.00
G01 X135.4240 Y-81.8398 F120.00
G01 X135.4417 Y-81.8504 F120.00
G01 X135.4582 Y-81.8627 F120.00
G01 X135.4735 Y-81.8765 F120.00
G01 X135.4873 Y-81.8918 F120.00
G01 X135.4996 Y-81.9083 F120.00
G01 X135.5102 Y-81.9260 F120.00
G01 X135.5190 Y-81.9446 F120.00
G01 X135.5260 Y-81.9640 F120.00
G01 X135.5310 Y-81.9840 F120.00
G01 X135.5340 Y-82.0044 F120.00
G01 X135.5350 Y-82.0260 F120.00
G01 X135.5350 Y-82.7240 F120.00
G01 X135.5340 Y-82.7456 F120.00
G01 X135.5310 Y-82.7660 F120.00
G01 X135.5260 Y-82.7860 F120.00
G01 X135.5190 Y-82.8054 F120.00
G01 X135.5102 Y-82.8240 F120.00
G01 X135.4996 Y-82.8417 F120.00
G01 X135.4873 Y-82.8582 F120.00
G01 X135.4735 Y-82.8735 F120.00
G01 X135.4582 Y-82.8873 F120.00
G01 X135.4417 Y-82.8996 F120.00
G01 X135.4240 Y-82.9102 F120.00
G01 X135.4054 Y-82.9190 F120.00
G01 X135.3860 Y-82.9260 F120.00
G01 X135.3660 Y-82.9310 F120.00
G01 X135.3456 Y-82.9340 F120.00
G01 X135.3240 Y-82.9350 F120.00
G01 X134.4260 Y-82.9350 F120.00
G01 X134.4044 Y-82.9340 F120.00
G01 X134.3840 Y-82.9310 F120.00
G01 X134.3640 Y-82.9260 F120.00
G01 X134.3446 Y-82.9190 F120.00
G01 X134.3260 Y-82.9102 F120.00
G01 X134.3083 Y-82.8996 F120.00
G01 X134.2918 Y-82.8873 F120.00
G01 X134.2765 Y-82.8735 F120.00
G01 X134.2627 Y-82.8582 F120.00
G01 X134.2504 Y-82.8417 F120.00
G01 X134.2398 Y-82.8240 F120.00
G01 X134.2310 Y-82.8054 F120.00
G01 X134.2240 Y-82.7860 F120.00
G01 X134.2190 Y-82.7660 F120.00
G01 X134.2160 Y-82.7456 F120.00
G01 X134.2150 Y-82.7240 F120.00
G01 X134.2150 Y-82.0260 F120.00
G01 X134.2160 Y-82.0044 F120.00
G01 X134.2190 Y-81.9840 F120.00
G01 X134.2240 Y-81.9640 F120.00
G01 X134.2310 Y-81.9446 F120.00
G01 X134.2398 Y-81.9260 F120.00
G01 X134.2504 Y-81.9083 F120.00
G01 X134.2627 Y-81.8918 F120.00
G01 X134.2765 Y-81.8765 F120.00
G01 X134.2918 Y-81.8627 F120.00
G01 X134.3083 Y-81.8504 F120.00
G01 X134.3260 Y-81.8398 F120.00
G01 X134.3446 Y-81.8310 F120.00
G01 X134.3640 Y-81.8240 F120.00
G01 X134.3840 Y-81.8190 F120.00
G01 X134.4044 Y-81.8160 F120.00
G01 X134.4260 Y-81.8150 F120.00
G01 X135.3240 Y-81.8150 F120.00
M5
G00 X135.3240 Y-81.8150
G01 F60.00
M03 S5000.0
G01 F120.00
G01 X134.4260 Y-81.8150 F120.00
M5
G00 X135.4481 Y-81.8552
G01 F60.00
M03 S5000.0
G01 F120.00
G01 X134.3019 Y-81.8552 F120.00
M5
G00 X135.4900 Y-81.8954
G01 F60.00
M03 S5000.0
G01 F120.00
G01 X134.2600 Y-81.8954 F120.00
M5
G00 X135.5147 Y-81.9356
G01 F60.00
M03 S5000.0
G01 F120.00
G01 X134.2353 Y-81.9356 F120.00
M5
G00 X135.5289 Y-81.9758
G01 F60.00
M03 S5000.0
G01 F120.00
G01 X134.2211 Y-81.9758 F120.00
M5
G00 X135.5346 Y-82.0160
G01 F60.00
M03 S5000.0
G01 F120.00
G01 X134.2154 Y-82.0160 F120.00
M5
G00 X135.5350 Y-82.0562
G01 F60.00
M03 S5000.0
G01 F120.00
G01 X134.2150 Y-82.0562 F120.00
M5
G00 X135.5350 Y-82.0964
G01 F60.00
M03 S5000.0
G01 F120.00
G01 X134.2150 Y-82.0964 F120.00
M5
G00 X135.5350 Y-82.1366
G01 F60.00
M03 S5000.0
G01 F120.00
G01 X134.2150 Y-82.1366 F120.00
M5
G00 X135.5350 Y-82.1768
G01 F60.00
M03 S5000.0
G01 F120.00
G01 X134.2150 Y-82.1768 F120.00
M5
G00 X135.5350 Y-82.2170
G01 F60.00
M03 S5000.0
G01 F120.00
G01 X134.2150 Y-82.2170 F120.00
M5
G00 X135.5350 Y-82.2572
G01 F60.00
M03 S5000.0
G01 F120.00
G01 X134.2150 Y-82.2572 F120.00
M5
G00 X135.5350 Y-82.2974
G01 F60.00
M03 S5000.0
G01 F120.00
G01 X134.2150 Y-82.2974 F120.00
M5
G00 X135.5350 Y-82.3376
G01 F60.00
M03 S5000.0
G01 F120.00
G01 X134.2150 Y-82.3376 F120.00
M5
G00 X135.5350 Y-82.3778
G01 F60.00
M03 S5000.0
G01 F120.00
G01 X134.2150 Y-82.3778 F120.00
M5
G00 X135.5350 Y-82.4180
G01 F60.00
M03 S5000.0
G01 F120.00
G01 X134.2150 Y-82.4180 F120.00
M5
G00 X135.5350 Y-82.4582
G01 F60.00
M03 S5000.0
G01 F120.00
G01 X134.2150 Y-82.4582 F120.00
M5
G00 X135.5350 Y-82.4984
G01 F60.00
M03 S5000.0
G01 F120.00
G01 X134.2150 Y-82.4984 F120.00
M5
G00 X135.5350 Y-82.5386
G01 F60.00
M03 S5000.0
G01 F120.00
G01 X134.2150 Y-82.5386 F120.00
M5
G00 X135.5350 Y-82.5788
G01 F60.00
M03 S5000.0
G01 F120.00
G01 X134.2150 Y-82.5788 F120.00
M5
G00 X135.5350 Y-82.6190
G01 F60.00
M03 S5000.0
G01 F120.00
G01 X134.2150 Y-82.6190 F120.00
M5
G00 X135.5350 Y-82.6592
G01 F60.00
M03 S5000.0
G01 F120.00
G01 X134.2150 Y-82.6592 F120.00
M5
G00 X135.5350 Y-82.6994
G01 F60.00
M03 S5000.0
G01 F120.00
G01 X134.2150 Y-82.6994 F120.00
M5
G00 X135.5343 Y-82.7396
G01 F60.00
M03 S5000.0
G01 F120.00
G01 X134.2157 Y-82.7396 F120.00
M5
G00 X135.5275 Y-82.7798
G01 F60.00
M03 S5000.0
G01 F120.00
G01 X134.2225 Y-82.7798 F120.00
M5
G00 X135.5121 Y-82.8200
G01 F60.00
M03 S5000.0
G01 F120.00
G01 X134.2379 Y-82.8200 F120.00
M5
G00 X135.4856 Y-82.8602
G01 F60.00
M03 S5000.0
G01 F120.00
G01 X134.2644 Y-82.8602 F120.00
M5
G00 X135.4404 Y-82.9004
G01 F60.00
M03 S5000.0
G01 F120.00
G01 X134.3096 Y-82.9004 F120.00
M5
G00 X134.7200 Y-84.6879
G01 F60.00
M03 S5000.0
G01 F120.00
G01 X134.7200 Y-85.9621 F120.00
M5
G00 X134.6798 Y-85.9775
G01 F60.00
M03 S5000.0
G01 F120.00
G01 X134.6798 Y-84.6725 F120.00
M5
G00 X134.6396 Y-85.9843
G01 F60.00
M03 S5000.0
G01 F120.00
G01 X134.6396 Y-84.6657 F120.00
M5
G00 X134.5994 Y-85.9850
G01 F60.00
M03 S5000.0
G01 F120.00
G01 X134.5994 Y-84.6650 F120.00
M5
G00 X134.5592 Y-85.9850
G01 F60.00
M03 S5000.0
G01 F120.00
G01 X134.5592 Y-84.6650 F120.00
M5
G00 X134.5190 Y-85.9850
G01 F60.00
M03 S5000.0
G01 F120.00
G01 X134.5190 Y-84.6650 F120.00
M5
G00 X134.4788 Y-85.9850
G01 F60.00
M03 S5000.0
G01 F120.00
G01 X134.4788 Y-84.6650 F120.00
M5
G00 X134.4386 Y-85.9850
G01 F60.00
M03 S5000.0
G01 F120.00
G01 X134.4386 Y-84.6650 F120.00
M5
G00 X134.3984 Y-85.9850
G01 F60.00
M03 S5000.0
G01 F120.00
G01 X134.3984 Y-84.6650 F120.00
M5
G00 X134.3582 Y-85.9850
G01 F60.00
M03 S5000.0
G01 F120.00
G01 X134.3582 Y-84.6650 F120.00
M5
G00 X134.3180 Y-85.9850
G01 F60.00
M03 S5000.0
G01 F120.00
G01 X134.3180 Y-84.6650 F120.00
M5
G00 X134.2778 Y-85.9850
G01 F60.00
M03 S5000.0
G01 F120.00
G01 X134.2778 Y-84.6650 F120.00
M5
G00 X134.2376 Y-85.9850
G01 F60.00
M03 S5000.0
G01 F120.00
G01 X134.2376 Y-84.6650 F120.00
M5
G00 X134.1974 Y-85.9850
G01 F60.00
M03 S5000.0
G01 F120.00
G01 X134.1974 Y-84.6650 F120.00
M5
G00 X134.1572 Y-85.9850
G01 F60.00
M03 S5000.0
G01 F120.00
G01 X134.1572 Y-84.6650 F120.00
M5
G00 X134.1170 Y-85.9850
G01 F60.00
M03 S5000.0
G01 F120.00
G01 X134.1170 Y-84.6650 F120.00
M5
G00 X134.0768 Y-85.9850
G01 F60.00
M03 S5000.0
G01 F120.00
G01 X134.0768 Y-84.6650 F120.00
M5
G00 X134.0366 Y-85.9850
G01 F60.00
M03 S5000.0
G01 F120.00
G01 X134.0366 Y-84.6650 F120.00
M5
G00 X133.9964 Y-85.9850
G01 F60.00
M03 S5000.0
G01 F120.00
G01 X133.9964 Y-84.6650 F120.00
M5
G00 X133.9562 Y-85.9850
G01 F60.00
M03 S5000.0
G01 F120.00
G01 X133.9562 Y-84.6650 F120.00
M5
G00 X133.9160 Y-85.9846
G01 F60.00
M03 S5000.0
G01 F120.00
G01 X133.9160 Y-84.6654 F120.00
M5
G00 X133.8758 Y-85.9789
G01 F60.00
M03 S5000.0
G01 F120.00
G01 X133.8758 Y-84.6711 F120.00
M5
G00 X133.8356 Y-85.9647
G01 F60.00
M03 S5000.0
G01 F120.00
G01 X133.8356 Y-84.6853 F120.00
M5
G00 X133.7954 Y-85.9400
G01 F60.00
M03 S5000.0
G01 F120.00
G01 X133.7954 Y-84.7100 F120.00
M5
G00 X133.7552 Y-85.8981
G01 F60.00
M03 S5000.0
G01 F120.00
G01 X133.7552 Y-84.7519 F120.00
M5
G00 X133.7150 Y-85.7740
G01 F60.00
M03 S5000.0
G01 F120.00
G01 X133.7150 Y-84.8760 F120.00
M5
G00 X133.7150 Y-84.8760
G01 F60.00
M03 S5000.0
G01 F120.00
G01 X133.7160 Y-84.8544 F120.00
G01 X133.7190 Y-84.8340 F120.00
G01 X133.7240 Y-84.8140 F120.00
G01 X133.7310 Y-84.7946 F120.00
G01 X133.7398 Y-84.7760 F120.00
G01 X133.7504 Y-84.7583 F120.00
G01 X133.7627 Y-84.7418 F120.00
G01 X133.7765 Y-84.7265 F120.00
G01 X133.7918 Y-84.7127 F120.00
G01 X133.8083 Y-84.7004 F120.00
G01 X133.8260 Y-84.6898 F120.00
G01 X133.8446 Y-84.6810 F120.00
G01 X133.8640 Y-84.6740 F120.00
G01 X133.8840 Y-84.6690 F120.00
G01 X133.9044 Y-84.6660 F120.00
G01 X133.9260 Y-84.6650 F120.00
G01 X134.6240 Y-84.6650 F120.00
G01 X134.6456 Y-84.6660 F120.00
G01 X134.6660 Y-84.6690 F120.00
G01 X134.6860 Y-84.6740 F120.00
G01 X134.7054 Y-84.6810 F120.00
G01 X134.7240 Y-84.6898 F120.00
G01 X134.7417 Y-84.7004 F120.00
G01 X134.7582 Y-84.7127 F120.00
G01 X134.7735 Y-84.7265 F120.00
G01 X134.7873 Y-84.7418 F120.00
G01 X134.7996 Y-84.7583 F120.00
G01 X134.8102 Y-84.7760 F120.00
G01 X134.8190 Y-84.7946 F120.00
G01 X134.8260 Y-84.8140 F120.00
G01 X134.8310 Y-84.8340 F120.00
G01 X134.8340 Y-84.8544 F120.00
G01 X134.8350 Y-84.8760 F120.00
G01 X134.8350 Y-85.7740 F120.00
G01 X134.8340 Y-85.7956 F120.00
G01 X134.8310 Y-85.8160 F120.00
G01 X134.8260 Y-85.8360 F120.00
G01 X134.8190 Y-85.8554 F120.00
G01 X134.8102 Y-85.8740 F120.00
G01 X134.7996 Y-85.8917 F120.00
G01 X134.7873 Y-85.9082 F120.00
G01 X134.7735 Y-85.9235 F120.00
G01 X134.7582 Y-85.9373 F120.00
G01 X134.7417 Y-85.9496 F120.00
G01 X134.7240 Y-85.9602 F120.00
G01 X134.7054 Y-85.9690 F120.00
G01 X134.6860 Y-85.9760 F120.00
G01 X134.6660 Y-85.9810 F120.00
G01 X134.6456 Y-85.9840 F120.00
G01 X134.6240 Y-85.9850 F120.00
G01 X133.9260 Y-85.9850 F120.00
G01 X133.9044 Y-85.9840 F120.00
G01 X133.8840 Y-85.9810 F120.00
G01 X133.8640 Y-85.9760 F120.00
G01 X133.8446 Y-85.9690 F120.00
G01 X133.8260 Y-85.9602 F120.00
G01 X133.8083 Y-85.9496 F120.00
G01 X133.7918 Y-85.9373 F120.00
G01 X133.7765 Y-85.9235 F120.00
G01 X133.7627 Y-85.9082 F120.00
G01 X133.7504 Y-85.8917 F120.00
G01 X133.7398 Y-85.8740 F120.00
G01 X133.7310 Y-85.8554 F120.00
G01 X133.7240 Y-85.8360 F120.00
G01 X133.7190 Y-85.8160 F120.00
G01 X133.7160 Y-85.7956 F120.00
G01 X133.7150 Y-85.7740 F120.00
G01 X133.7150 Y-84.8760 F120.00
M5
G00 X132.8004 Y-84.7596
G01 F60.00
M03 S5000.0
G01 F120.00
G01 X132.8004 Y-85.8904 F120.00
M5
G00 X132.7602 Y-85.9356
G01 F60.00
M03 S5000.0
G01 F120.00
G01 X132.7602 Y-84.7144 F120.00
M5
G00 X132.7200 Y-85.9621
G01 F60.00
M03 S5000.0
G01 F120.00
G01 X132.7200 Y-84.6879 F120.00
M5
G00 X132.6798 Y-85.9775
G01 F60.00
M03 S5000.0
G01 F120.00
G01 X132.6798 Y-84.6725 F120.00
M5
G00 X132.6396 Y-85.9843
G01 F60.00
M03 S5000.0
G01 F120.00
G01 X132.6396 Y-84.6657 F120.00
M5
G00 X132.5994 Y-85.9850
G01 F60.00
M03 S5000.0
G01 F120.00
G01 X132.5994 Y-84.6650 F120.00
M5
G00 X132.5592 Y-85.9850
G01 F60.00
M03 S5000.0
G01 F120.00
G01 X132.5592 Y-84.6650 F120.00
M5
G00 X132.5190 Y-85.9850
G01 F60.00
M03 S5000.0
G01 F120.00
G01 X132.5190 Y-84.6650 F120.00
M5
G00 X132.4788 Y-85.9850
G01 F60.00
M03 S5000.0
G01 F120.00
G01 X132.4788 Y-84.6650 F120.00
M5
G00 X132.4386 Y-85.9850
G01 F60.00
M03 S5000.0
G01 F120.00
G01 X132.4386 Y-84.6650 F120.00
M5
G00 X132.3984 Y-85.9850
G01 F60.00
M03 S5000.0
G01 F120.00
G01 X132.3984 Y-84.6650 F120.00
M5
G00 X132.3582 Y-85.9850
G01 F60.00
M03 S5000.0
G01 F120.00
G01 X132.3582 Y-84.6650 F120.00
M5
G00 X132.3180 Y-85.9850
G01 F60.00
M03 S5000.0
G01 F120.00
G01 X132.3180 Y-84.6650 F120.00
M5
G00 X132.2778 Y-85.9850
G01 F60.00
M03 S5000.0
G01 F120.00
G01 X132.2778 Y-84.6650 F120.00
M5
G00 X132.2376 Y-85.9850
G01 F60.00
M03 S5000.0
G01 F120.00
G01 X132.2376 Y-84.6650 F120.00
M5
G00 X132.1974 Y-85.9850
G01 F60.00
M03 S5000.0
G01 F120.00
G01 X132.1974 Y-84.6650 F120.00
M5
G00 X132.1572 Y-85.9850
G01 F60.00
M03 S5000.0
G01 F120.00
G01 X132.1572 Y-84.6650 F120.00
M5
G00 X132.1170 Y-85.9850
G01 F60.00
M03 S5000.0
G01 F120.00
G01 X132.1170 Y-84.6650 F120.00
M5
G00 X132.0768 Y-85.9850
G01 F60.00
M03 S5000.0
G01 F120.00
G01 X132.0768 Y-84.6650 F120.00
M5
G00 X132.0366 Y-85.9850
G01 F60.00
M03 S5000.0
G01 F120.00
G01 X132.0366 Y-84.6650 F120.00
M5
G00 X131.9964 Y-85.9850
G01 F60.00
M03 S5000.0
G01 F120.00
G01 X131.9964 Y-84.6650 F120.00
M5
G00 X131.9562 Y-85.9850
G01 F60.00
M03 S5000.0
G01 F120.00
G01 X131.9562 Y-84.6650 F120.00
M5
G00 X131.9160 Y-85.9846
G01 F60.00
M03 S5000.0
G01 F120.00
G01 X131.9160 Y-84.6654 F120.00
M5
G00 X131.8758 Y-85.9789
G01 F60.00
M03 S5000.0
G01 F120.00
G01 X131.8758 Y-84.6711 F120.00
M5
G00 X131.8356 Y-85.9647
G01 F60.00
M03 S5000.0
G01 F120.00
G01 X131.8356 Y-84.6853 F120.00
M5
G00 X131.7954 Y-85.9400
G01 F60.00
M03 S5000.0
G01 F120.00
G01 X131.7954 Y-84.7100 F120.00
M5
G00 X131.7552 Y-85.8981
G01 F60.00
M03 S5000.0
G01 F120.00
G01 X131.7552 Y-84.7519 F120.00
M5
G00 X131.7150 Y-85.7740
G01 F60.00
M03 S5000.0
G01 F120.00
G01 X131.7150 Y-84.8760 F120.00
M5
G00 X131.7150 Y-84.8760
G01 F60.00
M03 S5000.0
G01 F120.00
G01 X131.7160 Y-84.8544 F120.00
G01 X131.7190 Y-84.8340 F120.00
G01 X131.7240 Y-84.8140 F120.00
G01 X131.7310 Y-84.7946 F120.00
G01 X131.7398 Y-84.7760 F120.00
G01 X131.7504 Y-84.7583 F120.00
G01 X131.7627 Y-84.7418 F120.00
G01 X131.7765 Y-84.7265 F120.00
G01 X131.7918 Y-84.7127 F120.00
G01 X131.8083 Y-84.7004 F120.00
G01 X131.8260 Y-84.6898 F120.00
G01 X131.8446 Y-84.6810 F120.00
G01 X131.8640 Y-84.6740 F120.00
G01 X131.8840 Y-84.6690 F120.00
G01 X131.9044 Y-84.6660 F120.00
G01 X131.9260 Y-84.6650 F120.00
G01 X132.6240 Y-84.6650 F120.00
G01 X132.6456 Y-84.6660 F120.00
G01 X132.6660 Y-84.6690 F120.00
G01 X132.6860 Y-84.6740 F120.00
G01 X132.7054 Y-84.6810 F120.00
G01 X132.7240 Y-84.6898 F120.00
G01 X132.7417 Y-84.7004 F120.00
G01 X132.7582 Y-84.7127 F120.00
G01 X132.7735 Y-84.7265 F120.00
G01 X132.7873 Y-84.7418 F120.00
G01 X132.7996 Y-84.7583 F120.00
G01 X132.8102 Y-84.7760 F120.00
G01 X132.8190 Y-84.7946 F120.00
G01 X132.8260 Y-84.8140 F120.00
G01 X132.8310 Y-84.8340 F120.00
G01 X132.8340 Y-84.8544 F120.00
G01 X132.8350 Y-84.8760 F120.00
G01 X132.8350 Y-85.7740 F120.00
G01 X132.8340 Y-85.7956 F120.00
G01 X132.8310 Y-85.8160 F120.00
G01 X132.8260 Y-85.8360 F120.00
G01 X132.8190 Y-85.8554 F120.00
G01 X132.8102 Y-85.8740 F120.00
G01 X132.7996 Y-85.8917 F120.00
G01 X132.7873 Y-85.9082 F120.00
G01 X132.7735 Y-85.9235 F120.00
G01 X132.7582 Y-85.9373 F120.00
G01 X132.7417 Y-85.9496 F120.00
G01 X132.7240 Y-85.9602 F120.00
G01 X132.7054 Y-85.9690 F120.00
G01 X132.6860 Y-85.9760 F120.00
G01 X132.6660 Y-85.9810 F120.00
G01 X132.6456 Y-85.9840 F120.00
G01 X132.6240 Y-85.9850 F120.00
G01 X131.9260 Y-85.9850 F120.00
G01 X131.9044 Y-85.9840 F120.00
G01 X131.8840 Y-85.9810 F120.00
G01 X131.8640 Y-85.9760 F120.00
G01 X131.8446 Y-85.9690 F120.00
G01 X131.8260 Y-85.9602 F120.00
G01 X131.8083 Y-85.9496 F120.00
G01 X131.7918 Y-85.9373 F120.00
G01 X131.7765 Y-85.9235 F120.00
G01 X131.7627 Y-85.9082 F120.00
G01 X131.7504 Y-85.8917 F120.00
G01 X131.7398 Y-85.8740 F120.00
G01 X131.7310 Y-85.8554 F120.00
G01 X131.7240 Y-85.8360 F120.00
G01 X131.7190 Y-85.8160 F120.00
G01 X131.7160 Y-85.7956 F120.00
G01 X131.7150 Y-85.7740 F120.00
G01 X131.7150 Y-84.8760 F120.00
M5
G00 X131.9160 Y-86.6654
G01 F60.00
M03 S5000.0
G01 F120.00
G01 X131.9160 Y-87.9846 F120.00
M5
G00 X131.9562 Y-87.9850
G01 F60.00
M03 S5000.0
G01 F120.00
G01 X131.9562 Y-86.6650 F120.00
M5
G00 X131.9964 Y-87.9850
G01 F60.00
M03 S5000.0
G01 F120.00
G01 X131.9964 Y-86.6650 F120.00
M5
G00 X132.0366 Y-87.9850
G01 F60.00
M03 S5000.0
G01 F120.00
G01 X132.0366 Y-86.6650 F120.00
M5
G00 X132.0768 Y-87.9850
G01 F60.00
M03 S5000.0
G01 F120.00
G01 X132.0768 Y-86.6650 F120.00
M5
G00 X132.1170 Y-87.9850
G01 F60.00
M03 S5000.0
G01 F120.00
G01 X132.1170 Y-86.6650 F120.00
M5
G00 X132.1572 Y-87.9850
G01 F60.00
M03 S5000.0
G01 F120.00
G01 X132.1572 Y-86.6650 F120.00
M5
G00 X132.1974 Y-87.9850
G01 F60.00
M03 S5000.0
G01 F120.00
G01 X132.1974 Y-86.6650 F120.00
M5
G00 X132.2376 Y-87.9850
G01 F60.00
M03 S5000.0
G01 F120.00
G01 X132.2376 Y-86.6650 F120.00
M5
G00 X132.2778 Y-87.9850
G01 F60.00
M03 S5000.0
G01 F120.00
G01 X132.2778 Y-86.6650 F120.00
M5
G00 X132.3180 Y-87.9850
G01 F60.00
M03 S5000.0
G01 F120.00
G01 X132.3180 Y-86.6650 F120.00
M5
G00 X132.3582 Y-87.9850
G01 F60.00
M03 S5000.0
G01 F120.00
G01 X132.3582 Y-86.6650 F120.00
M5
G00 X132.3984 Y-87.9850
G01 F60.00
M03 S5000.0
G01 F120.00
G01 X132.3984 Y-86.6650 F120.00
M5
G00 X132.4386 Y-87.9850
G01 F60.00
M03 S5000.0
G01 F120.00
G01 X132.4386 Y-86.6650 F120.00
M5
G00 X132.4788 Y-87.9850
G01 F60.00
M03 S5000.0
G01 F120.00
G01 X132.4788 Y-86.6650 F120.00
M5
G00 X132.5190 Y-87.9850
G01 F60.00
M03 S5000.0
G01 F120.00
G01 X132.5190 Y-86.6650 F120.00
M5
G00 X132.5592 Y-87.9850
G01 F60.00
M03 S5000.0
G01 F120.00
G01 X132.5592 Y-86.6650 F120.00
M5
G00 X132.5994 Y-87.9850
G01 F60.00
M03 S5000.0
G01 F120.00
G01 X132.5994 Y-86.6650 F120.00
M5
G00 X132.6396 Y-87.9843
G01 F60.00
M03 S5000.0
G01 F120.00
G01 X132.6396 Y-86.6657 F120.00
M5
G00 X132.6798 Y-87.9775
G01 F60.00
M03 S5000.0
G01 F120.00
G01 X132.6798 Y-86.6725 F120.00
M5
G00 X132.7200 Y-87.9621
G01 F60.00
M03 S5000.0
G01 F120.00
G01 X132.7200 Y-86.6879 F120.00
M5
G00 X132.7602 Y-87.9356
G01 F60.00
M03 S5000.0
G01 F120.00
G01 X132.7602 Y-86.7144 F120.00
M5
G00 X132.8004 Y-87.8904
G01 F60.00
M03 S5000.0
G01 F120.00
G01 X132.8004 Y-86.7596 F120.00
M5
G00 X133.7150 Y-87.7740
G01 F60.00
M03 S5000.0
G01 F120.00
G01 X133.7150 Y-86.8760 F120.00
M5
G00 X133.7552 Y-87.8981
G01 F60.00
M03 S5000.0
G01 F120.00
G01 X133.7552 Y-86.7519 F120.00
M5
G00 X133.7954 Y-87.9400
G01 F60.00
M03 S5000.0
G01 F120.00
G01 X133.7954 Y-86.7100 F120.00
M5
G00 X133.8356 Y-87.9647
G01 F60.00
M03 S5000.0
G01 F120.00
G01 X133.8356 Y-86.6853 F120.00
M5
G00 X133.8758 Y-87.9789
G01 F60.00
M03 S5000.0
G01 F120.00
G01 X133.8758 Y-86.6711 F120.00
M5
G00 X133.9160 Y-87.9846
G01 F60.00
M03 S5000.0
G01 F120.00
G01 X133.9160 Y-86.6654 F120.00
M5
G00 X133.9562 Y-87.9850
G01 F60.00
M03 S5000.0
G01 F120.00
G01 X133.9562 Y-86.6650 F120.00
M5
G00 X133.9964 Y-87.9850
G01 F60.00
M03 S5000.0
G01 F120.00
G01 X133.9964 Y-86.6650 F120.00
M5
G00 X134.0366 Y-87.9850
G01 F60.00
M03 S5000.0
G01 F120.00
G01 X134.0366 Y-86.6650 F120.00
M5
G00 X134.0768 Y-87.9850
G01 F60.00
M03 S5000.0
G01 F120.00
G01 X134.0768 Y-86.6650 F120.00
M5
G00 X134.1170 Y-87.9850
G01 F60.00
M03 S5000.0
G01 F120.00
G01 X134.1170 Y-86.6650 F120.00
M5
G00 X134.1572 Y-87.9850
G01 F60.00
M03 S5000.0
G01 F120.00
G01 X134.1572 Y-86.6650 F120.00
M5
G00 X134.1974 Y-87.9850
G01 F60.00
M03 S5000.0
G01 F120.00
G01 X134.1974 Y-86.6650 F120.00
M5
G00 X134.2376 Y-87.9850
G01 F60.00
M03 S5000.0
G01 F120.00
G01 X134.2376 Y-86.6650 F120.00
M5
G00 X134.2778 Y-87.9850
G01 F60.00
M03 S5000.0
G01 F120.00
G01 X134.2778 Y-86.6650 F120.00
M5
G00 X134.3180 Y-87.9850
G01 F60.00
M03 S5000.0
G01 F120.00
G01 X134.3180 Y-86.6650 F120.00
M5
G00 X134.3582 Y-87.9850
G01 F60.00
M03 S5000.0
G01 F120.00
G01 X134.3582 Y-86.6650 F120.00
M5
G00 X134.3984 Y-87.9850
G01 F60.00
M03 S5000.0
G01 F120.00
G01 X134.3984 Y-86.6650 F120.00
M5
G00 X134.4386 Y-87.9850
G01 F60.00
M03 S5000.0
G01 F120.00
G01 X134.4386 Y-86.6650 F120.00
M5
G00 X134.4788 Y-87.9850
G01 F60.00
M03 S5000.0
G01 F120.00
G01 X134.4788 Y-86.6650 F120.00
M5
G00 X134.5190 Y-87.9850
G01 F60.00
M03 S5000.0
G01 F120.00
G01 X134.5190 Y-86.6650 F120.00
M5
G00 X134.5592 Y-87.9850
G01 F60.00
M03 S5000.0
G01 F120.00
G01 X134.5592 Y-86.6650 F120.00
M5
G00 X134.5994 Y-87.9850
G01 F60.00
M03 S5000.0
G01 F120.00
G01 X134.5994 Y-86.6650 F120.00
M5
G00 X134.6396 Y-87.9843
G01 F60.00
M03 S5000.0
G01 F120.00
G01 X134.6396 Y-86.6657 F120.00
M5
G00 X134.6798 Y-87.9775
G01 F60.00
M03 S5000.0
G01 F120.00
G01 X134.6798 Y-86.6725 F120.00
M5
G00 X134.7200 Y-87.9621
G01 F60.00
M03 S5000.0
G01 F120.00
G01 X134.7200 Y-86.6879 F120.00
M5
G00 X134.7602 Y-87.9356
G01 F60.00
M03 S5000.0
G01 F120.00
G01 X134.7602 Y-86.7144 F120.00
M5
G00 X134.8004 Y-87.8904
G01 F60.00
M03 S5000.0
G01 F120.00
G01 X134.8004 Y-86.7596 F120.00
M5
G00 X133.7150 Y-86.8760
G01 F60.00
M03 S5000.0
G01 F120.00
G01 X133.7160 Y-86.8544 F120.00
G01 X133.7190 Y-86.8340 F120.00
G01 X133.7240 Y-86.8140 F120.00
G01 X133.7310 Y-86.7946 F120.00
G01 X133.7398 Y-86.7760 F120.00
G01 X133.7504 Y-86.7583 F120.00
G01 X133.7627 Y-86.7418 F120.00
G01 X133.7765 Y-86.7265 F120.00
G01 X133.7918 Y-86.7127 F120.00
G01 X133.8083 Y-86.7004 F120.00
G01 X133.8260 Y-86.6898 F120.00
G01 X133.8446 Y-86.6810 F120.00
G01 X133.8640 Y-86.6740 F120.00
G01 X133.8840 Y-86.6690 F120.00
G01 X133.9044 Y-86.6660 F120.00
G01 X133.9260 Y-86.6650 F120.00
G01 X134.6240 Y-86.6650 F120.00
G01 X134.6456 Y-86.6660 F120.00
G01 X134.6660 Y-86.6690 F120.00
G01 X134.6860 Y-86.6740 F120.00
G01 X134.7054 Y-86.6810 F120.00
G01 X134.7240 Y-86.6898 F120.00
G01 X134.7417 Y-86.7004 F120.00
G01 X134.7582 Y-86.7127 F120.00
G01 X134.7735 Y-86.7265 F120.00
G01 X134.7873 Y-86.7418 F120.00
G01 X134.7996 Y-86.7583 F120.00
G01 X134.8102 Y-86.7760 F120.00
G01 X134.8190 Y-86.7946 F120.00
G01 X134.8260 Y-86.8140 F120.00
G01 X134.8310 Y-86.8340 F120.00
G01 X134.8340 Y-86.8544 F120.00
G01 X134.8350 Y-86.8760 F120.00
G01 X134.8350 Y-87.7740 F120.00
G01 X134.8340 Y-87.7956 F120.00
G01 X134.8310 Y-87.8160 F120.00
G01 X134.8260 Y-87.8360 F120.00
G01 X134.8190 Y-87.8554 F120.00
G01 X134.8102 Y-87.8740 F120.00
G01 X134.7996 Y-87.8917 F120.00
G01 X134.7873 Y-87.9082 F120.00
G01 X134.7735 Y-87.9235 F120.00
G01 X134.7582 Y-87.9373 F120.00
G01 X134.7417 Y-87.9496 F120.00
G01 X134.7240 Y-87.9602 F120.00
G01 X134.7054 Y-87.9690 F120.00
G01 X134.6860 Y-87.9760 F120.00
G01 X134.6660 Y-87.9810 F120.00
G01 X134.6456 Y-87.9840 F120.00
G01 X134.6240 Y-87.9850 F120.00
G01 X133.9260 Y-87.9850 F120.00
G01 X133.9044 Y-87.9840 F120.00
G01 X133.8840 Y-87.9810 F120.00
G01 X133.8640 Y-87.9760 F120.00
G01 X133.8446 Y-87.9690 F120.00
G01 X133.8260 Y-87.9602 F120.00
G01 X133.8083 Y-87.9496 F120.00
G01 X133.7918 Y-87.9373 F120.00
G01 X133.7765 Y-87.9235 F120.00
G01 X133.7627 Y-87.9082 F120.00
G01 X133.7504 Y-87.8917 F120.00
G01 X133.7398 Y-87.8740 F120.00
G01 X133.7310 Y-87.8554 F120.00
G01 X133.7240 Y-87.8360 F120.00
G01 X133.7190 Y-87.8160 F120.00
G01 X133.7160 Y-87.7956 F120.00
G01 X133.7150 Y-87.7740 F120.00
G01 X133.7150 Y-86.8760 F120.00
M5
G00 X134.7602 Y-85.9356
G01 F60.00
M03 S5000.0
G01 F120.00
G01 X134.7602 Y-84.7144 F120.00
M5
G00 X134.8004 Y-85.8904
G01 F60.00
M03 S5000.0
G01 F120.00
G01 X134.8004 Y-84.7596 F120.00
M5
G00 X131.8758 Y-86.6711
G01 F60.00
M03 S5000.0
G01 F120.00
G01 X131.8758 Y-87.9789 F120.00
M5
G00 X131.8356 Y-87.9647
G01 F60.00
M03 S5000.0
G01 F120.00
G01 X131.8356 Y-86.6853 F120.00
M5
G00 X131.7954 Y-87.9400
G01 F60.00
M03 S5000.0
G01 F120.00
G01 X131.7954 Y-86.7100 F120.00
M5
G00 X131.7552 Y-87.8981
G01 F60.00
M03 S5000.0
G01 F120.00
G01 X131.7552 Y-86.7519 F120.00
M5
G00 X131.7150 Y-87.7740
G01 F60.00
M03 S5000.0
G01 F120.00
G01 X131.7150 Y-86.8760 F120.00
M5
G00 X131.7150 Y-86.8760
G01 F60.00
M03 S5000.0
G01 F120.00
G01 X131.7160 Y-86.8544 F120.00
G01 X131.7190 Y-86.8340 F120.00
G01 X131.7240 Y-86.8140 F120.00
G01 X131.7310 Y-86.7946 F120.00
G01 X131.7398 Y-86.7760 F120.00
G01 X131.7504 Y-86.7583 F120.00
G01 X131.7627 Y-86.7418 F120.00
G01 X131.7765 Y-86.7265 F120.00
G01 X131.7918 Y-86.7127 F120.00
G01 X131.8083 Y-86.7004 F120.00
G01 X131.8260 Y-86.6898 F120.00
G01 X131.8446 Y-86.6810 F120.00
G01 X131.8640 Y-86.6740 F120.00
G01 X131.8840 Y-86.6690 F120.00
G01 X131.9044 Y-86.6660 F120.00
G01 X131.9260 Y-86.6650 F120.00
G01 X132.6240 Y-86.6650 F120.00
G01 X132.6456 Y-86.6660 F120.00
G01 X132.6660 Y-86.6690 F120.00
G01 X132.6860 Y-86.6740 F120.00
G01 X132.7054 Y-86.6810 F120.00
G01 X132.7240 Y-86.6898 F120.00
G01 X132.7417 Y-86.7004 F120.00
G01 X132.7582 Y-86.7127 F120.00
G01 X132.7735 Y-86.7265 F120.00
G01 X132.7873 Y-86.7418 F120.00
G01 X132.7996 Y-86.7583 F120.00
G01 X132.8102 Y-86.7760 F120.00
G01 X132.8190 Y-86.7946 F120.00
G01 X132.8260 Y-86.8140 F120.00
G01 X132.8310 Y-86.8340 F120.00
G01 X132.8340 Y-86.8544 F120.00
G01 X132.8350 Y-86.8760 F120.00
G01 X132.8350 Y-87.7740 F120.00
G01 X132.8340 Y-87.7956 F120.00
G01 X132.8310 Y-87.8160 F120.00
G01 X132.8260 Y-87.8360 F120.00
G01 X132.8190 Y-87.8554 F120.00
G01 X132.8102 Y-87.8740 F120.00
G01 X132.7996 Y-87.8917 F120.00
G01 X132.7873 Y-87.9082 F120.00
G01 X132.7735 Y-87.9235 F120.00
G01 X132.7582 Y-87.9373 F120.00
G01 X132.7417 Y-87.9496 F120.00
G01 X132.7240 Y-87.9602 F120.00
G01 X132.7054 Y-87.9690 F120.00
G01 X132.6860 Y-87.9760 F120.00
G01 X132.6660 Y-87.9810 F120.00
G01 X132.6456 Y-87.9840 F120.00
G01 X132.6240 Y-87.9850 F120.00
G01 X131.9260 Y-87.9850 F120.00
G01 X131.9044 Y-87.9840 F120.00
G01 X131.8840 Y-87.9810 F120.00
G01 X131.8640 Y-87.9760 F120.00
G01 X131.8446 Y-87.9690 F120.00
G01 X131.8260 Y-87.9602 F120.00
G01 X131.8083 Y-87.9496 F120.00
G01 X131.7918 Y-87.9373 F120.00
G01 X131.7765 Y-87.9235 F120.00
G01 X131.7627 Y-87.9082 F120.00
G01 X131.7504 Y-87.8917 F120.00
G01 X131.7398 Y-87.8740 F120.00
G01 X131.7310 Y-87.8554 F120.00
G01 X131.7240 Y-87.8360 F120.00
G01 X131.7190 Y-87.8160 F120.00
G01 X131.7160 Y-87.7956 F120.00
G01 X131.7150 Y-87.7740 F120.00
G01 X131.7150 Y-86.8760 F120.00
M5
G00 X131.8400 Y-89.3501
G01 F60.00
M03 S5000.0
G01 F120.00
G01 X133.6600 Y-89.3501 F120.00
M5
G00 X133.6808 Y-89.3903
G01 F60.00
M03 S5000.0
G01 F120.00
G01 X131.8192 Y-89.3903 F120.00
M5
G00 X133.6851 Y-89.4305
G01 F60.00
M03 S5000.0
G01 F120.00
G01 X131.8150 Y-89.4305 F120.00
M5
G00 X133.6851 Y-89.4707
G01 F60.00
M03 S5000.0
G01 F120.00
G01 X131.8150 Y-89.4707 F120.00
M5
G00 X133.6851 Y-89.5109
G01 F60.00
M03 S5000.0
G01 F120.00
G01 X131.8150 Y-89.5109 F120.00
M5
G00 X133.6851 Y-89.5511
G01 F60.00
M03 S5000.0
G01 F120.00
G01 X131.8150 Y-89.5511 F120.00
M5
G00 X133.6851 Y-89.5913
G01 F60.00
M03 S5000.0
G01 F120.00
G01 X131.8150 Y-89.5913 F120.00
M5
G00 X133.6851 Y-89.6315
G01 F60.00
M03 S5000.0
G01 F120.00
G01 X131.8150 Y-89.6315 F120.00
M5
G00 X133.6851 Y-89.6717
G01 F60.00
M03 S5000.0
G01 F120.00
G01 X131.8150 Y-89.6717 F120.00
M5
G00 X133.6851 Y-89.7119
G01 F60.00
M03 S5000.0
G01 F120.00
G01 X131.8150 Y-89.7119 F120.00
M5
G00 X133.6851 Y-89.7190
G01 F60.00
M03 S5000.0
G01 F120.00
G01 X133.6845 Y-89.7308 F120.00
G01 X133.6829 Y-89.7415 F120.00
G01 X133.6803 Y-89.7519 F120.00
G01 X133.6766 Y-89.7621 F120.00
G01 X133.6720 Y-89.7719 F120.00
G01 X133.6665 Y-89.7811 F120.00
G01 X133.6600 Y-89.7898 F120.00
G01 X133.6528 Y-89.7978 F120.00
G01 X133.6448 Y-89.8050 F120.00
G01 X133.6361 Y-89.8115 F120.00
G01 X133.6269 Y-89.8170 F120.00
G01 X133.6171 Y-89.8216 F120.00
G01 X133.6069 Y-89.8253 F120.00
G01 X133.5965 Y-89.8279 F120.00
G01 X133.5858 Y-89.8295 F120.00
G01 X133.5740 Y-89.8300 F120.00
G01 X131.9260 Y-89.8300 F120.00
G01 X131.9142 Y-89.8295 F120.00
G01 X131.9035 Y-89.8279 F120.00
G01 X131.8931 Y-89.8253 F120.00
G01 X131.8829 Y-89.8216 F120.00
G01 X131.8731 Y-89.8170 F120.00
G01 X131.8639 Y-89.8115 F120.00
G01 X131.8552 Y-89.8050 F120.00
G01 X131.8472 Y-89.7978 F120.00
G01 X131.8400 Y-89.7898 F120.00
G01 X131.8335 Y-89.7811 F120.00
G01 X131.8280 Y-89.7719 F120.00
G01 X131.8234 Y-89.7621 F120.00
G01 X131.8197 Y-89.7519 F120.00
G01 X131.8171 Y-89.7415 F120.00
G01 X131.8155 Y-89.7308 F120.00
G01 X131.8150 Y-89.7190 F120.00
G01 X131.8150 Y-89.4210 F120.00
G01 X131.8155 Y-89.4092 F120.00
G01 X131.8171 Y-89.3985 F120.00
G01 X131.8197 Y-89.3881 F120.00
G01 X131.8234 Y-89.3779 F120.00
G01 X131.8280 Y-89.3681 F120.00
G01 X131.8335 Y-89.3589 F120.00
G01 X131.8400 Y-89.3502 F120.00
G01 X131.8472 Y-89.3422 F120.00
G01 X131.8552 Y-89.3350 F120.00
G01 X131.8639 Y-89.3285 F120.00
G01 X131.8731 Y-89.3230 F120.00
G01 X131.8829 Y-89.3184 F120.00
G01 X131.8931 Y-89.3147 F120.00
G01 X131.9035 Y-89.3121 F120.00
G01 X131.9142 Y-89.3105 F120.00
G01 X131.9260 Y-89.3099 F120.00
G01 X133.5740 Y-89.3099 F120.00
G01 X133.5858 Y-89.3105 F120.00
G01 X133.5965 Y-89.3121 F120.00
G01 X133.6069 Y-89.3147 F120.00
G01 X133.6171 Y-89.3184 F120.00
G01 X133.6269 Y-89.3230 F120.00
G01 X133.6361 Y-89.3285 F120.00
G01 X133.6448 Y-89.3350 F120.00
G01 X133.6528 Y-89.3422 F120.00
G01 X133.6600 Y-89.3502 F120.00
G01 X133.6665 Y-89.3589 F120.00
G01 X133.6720 Y-89.3681 F120.00
G01 X133.6766 Y-89.3779 F120.00
G01 X133.6803 Y-89.3881 F120.00
G01 X133.6829 Y-89.3985 F120.00
G01 X133.6845 Y-89.4092 F120.00
G01 X133.6851 Y-89.4210 F120.00
G01 X133.6851 Y-89.7190 F120.00
M5
G00 X133.6802 Y-89.7521
G01 F60.00
M03 S5000.0
G01 F120.00
G01 X131.8198 Y-89.7521 F120.00
M5
G00 X133.6577 Y-89.7923
G01 F60.00
M03 S5000.0
G01 F120.00
G01 X131.8423 Y-89.7923 F120.00
M5
G00 X133.6600 Y-90.6202
G01 F60.00
M03 S5000.0
G01 F120.00
G01 X131.8400 Y-90.6202 F120.00
M5
G00 X133.6808 Y-90.6604
G01 F60.00
M03 S5000.0
G01 F120.00
G01 X131.8192 Y-90.6604 F120.00
M5
G00 X133.6850 Y-90.7006
G01 F60.00
M03 S5000.0
G01 F120.00
G01 X131.8150 Y-90.7006 F120.00
M5
G00 X133.6850 Y-90.7408
G01 F60.00
M03 S5000.0
G01 F120.00
G01 X131.8150 Y-90.7408 F120.00
M5
G00 X133.6850 Y-90.7810
G01 F60.00
M03 S5000.0
G01 F120.00
G01 X131.8150 Y-90.7810 F120.00
M5
G00 X133.6850 Y-90.8212
G01 F60.00
M03 S5000.0
G01 F120.00
G01 X131.8150 Y-90.8212 F120.00
M5
G00 X133.6850 Y-90.8614
G01 F60.00
M03 S5000.0
G01 F120.00
G01 X131.8150 Y-90.8614 F120.00
M5
G00 X133.6850 Y-90.9016
G01 F60.00
M03 S5000.0
G01 F120.00
G01 X131.8150 Y-90.9016 F120.00
M5
G00 X133.6850 Y-90.9418
G01 F60.00
M03 S5000.0
G01 F120.00
G01 X131.8150 Y-90.9418 F120.00
M5
G00 X133.6850 Y-90.9820
G01 F60.00
M03 S5000.0
G01 F120.00
G01 X131.8150 Y-90.9820 F120.00
M5
G00 X133.6850 Y-90.9890
G01 F60.00
M03 S5000.0
G01 F120.00
G01 X133.6845 Y-91.0008 F120.00
G01 X133.6829 Y-91.0115 F120.00
G01 X133.6803 Y-91.0219 F120.00
G01 X133.6766 Y-91.0321 F120.00
G01 X133.6720 Y-91.0419 F120.00
G01 X133.6665 Y-91.0511 F120.00
G01 X133.6600 Y-91.0598 F120.00
G01 X133.6528 Y-91.0678 F120.00
G01 X133.6448 Y-91.0750 F120.00
G01 X133.6361 Y-91.0815 F120.00
G01 X133.6269 Y-91.0870 F120.00
G01 X133.6171 Y-91.0916 F120.00
G01 X133.6069 Y-91.0953 F120.00
G01 X133.5965 Y-91.0979 F120.00
G01 X133.5858 Y-91.0995 F120.00
G01 X133.5740 Y-91.1000 F120.00
G01 X131.9260 Y-91.1000 F120.00
G01 X131.9142 Y-91.0995 F120.00
G01 X131.9035 Y-91.0979 F120.00
G01 X131.8931 Y-91.0953 F120.00
G01 X131.8829 Y-91.0916 F120.00
G01 X131.8731 Y-91.0870 F120.00
G01 X131.8639 Y-91.0815 F120.00
G01 X131.8552 Y-91.0750 F120.00
G01 X131.8472 Y-91.0678 F120.00
G01 X131.8400 Y-91.0598 F120.00
G01 X131.8335 Y-91.0511 F120.00
G01 X131.8280 Y-91.0419 F120.00
G01 X131.8234 Y-91.0321 F120.00
G01 X131.8197 Y-91.0219 F120.00
G01 X131.8171 Y-91.0115 F120.00
G01 X131.8155 Y-91.0008 F120.00
G01 X131.8150 Y-90.9890 F120.00
G01 X131.8150 Y-90.6910 F120.00
G01 X131.8155 Y-90.6792 F120.00
G01 X131.8171 Y-90.6685 F120.00
G01 X131.8197 Y-90.6581 F120.00
G01 X131.8234 Y-90.6479 F120.00
G01 X131.8280 Y-90.6381 F120.00
G01 X131.8335 Y-90.6289 F120.00
G01 X131.8400 Y-90.6202 F120.00
G01 X131.8472 Y-90.6122 F120.00
G01 X131.8552 Y-90.6050 F120.00
G01 X131.8639 Y-90.5985 F120.00
G01 X131.8731 Y-90.5930 F120.00
G01 X131.8829 Y-90.5884 F120.00
G01 X131.8931 Y-90.5847 F120.00
G01 X131.9035 Y-90.5821 F120.00
G01 X131.9142 Y-90.5805 F120.00
G01 X131.9260 Y-90.5800 F120.00
G01 X133.5740 Y-90.5800 F120.00
G01 X133.5858 Y-90.5805 F120.00
G01 X133.5965 Y-90.5821 F120.00
G01 X133.6069 Y-90.5847 F120.00
G01 X133.6171 Y-90.5884 F120.00
G01 X133.6269 Y-90.5930 F120.00
G01 X133.6361 Y-90.5985 F120.00
G01 X133.6448 Y-90.6050 F120.00
G01 X133.6528 Y-90.6122 F120.00
G01 X133.6600 Y-90.6202 F120.00
G01 X133.6665 Y-90.6289 F120.00
G01 X133.6720 Y-90.6381 F120.00
G01 X133.6766 Y-90.6479 F120.00
G01 X133.6803 Y-90.6581 F120.00
G01 X133.6829 Y-90.6685 F120.00
G01 X133.6845 Y-90.6792 F120.00
G01 X133.6850 Y-90.6910 F120.00
G01 X133.6850 Y-90.9890 F120.00
M5
G00 X133.6802 Y-91.0222
G01 F60.00
M03 S5000.0
G01 F120.00
G01 X131.8198 Y-91.0222 F120.00
M5
G00 X133.6577 Y-91.0624
G01 F60.00
M03 S5000.0
G01 F120.00
G01 X131.8423 Y-91.0624 F120.00
M5
G00 X133.6600 Y-91.8902
G01 F60.00
M03 S5000.0
G01 F120.00
G01 X131.8400 Y-91.8902 F120.00
M5
G00 X133.6808 Y-91.9304
G01 F60.00
M03 S5000.0
G01 F120.00
G01 X131.8192 Y-91.9304 F120.00
M5
G00 X133.6850 Y-91.9706
G01 F60.00
M03 S5000.0
G01 F120.00
G01 X131.8150 Y-91.9706 F120.00
M5
G00 X133.6850 Y-92.0108
G01 F60.00
M03 S5000.0
G01 F120.00
G01 X131.8150 Y-92.0108 F120.00
M5
G00 X133.6850 Y-92.0510
G01 F60.00
M03 S5000.0
G01 F120.00
G01 X131.8150 Y-92.0510 F120.00
M5
G00 X133.6850 Y-92.0912
G01 F60.00
M03 S5000.0
G01 F120.00
G01 X131.8150 Y-92.0912 F120.00
M5
G00 X133.6850 Y-92.1314
G01 F60.00
M03 S5000.0
G01 F120.00
G01 X131.8150 Y-92.1314 F120.00
M5
G00 X133.6850 Y-92.1716
G01 F60.00
M03 S5000.0
G01 F120.00
G01 X131.8150 Y-92.1716 F120.00
M5
G00 X133.6850 Y-92.2118
G01 F60.00
M03 S5000.0
G01 F120.00
G01 X131.8150 Y-92.2118 F120.00
M5
G00 X133.6850 Y-92.2520
G01 F60.00
M03 S5000.0
G01 F120.00
G01 X131.8150 Y-92.2520 F120.00
M5
G00 X133.6850 Y-92.2590
G01 F60.00
M03 S5000.0
G01 F120.00
G01 X133.6845 Y-92.2708 F120.00
G01 X133.6829 Y-92.2815 F120.00
G01 X133.6803 Y-92.2919 F120.00
G01 X133.6766 Y-92.3021 F120.00
G01 X133.6720 Y-92.3119 F120.00
G01 X133.6665 Y-92.3211 F120.00
G01 X133.6600 Y-92.3298 F120.00
G01 X133.6528 Y-92.3378 F120.00
G01 X133.6448 Y-92.3450 F120.00
G01 X133.6361 Y-92.3515 F120.00
G01 X133.6269 Y-92.3570 F120.00
G01 X133.6171 Y-92.3616 F120.00
G01 X133.6069 Y-92.3653 F120.00
G01 X133.5965 Y-92.3679 F120.00
G01 X133.5858 Y-92.3695 F120.00
G01 X133.5740 Y-92.3700 F120.00
G01 X131.9260 Y-92.3700 F120.00
G01 X131.9142 Y-92.3695 F120.00
G01 X131.9035 Y-92.3679 F120.00
G01 X131.8931 Y-92.3653 F120.00
G01 X131.8829 Y-92.3616 F120.00
G01 X131.8731 Y-92.3570 F120.00
G01 X131.8639 Y-92.3515 F120.00
G01 X131.8552 Y-92.3450 F120.00
G01 X131.8472 Y-92.3378 F120.00
G01 X131.8400 Y-92.3298 F120.00
G01 X131.8335 Y-92.3211 F120.00
G01 X131.8280 Y-92.3119 F120.00
G01 X131.8234 Y-92.3021 F120.00
G01 X131.8197 Y-92.2919 F120.00
G01 X131.8171 Y-92.2815 F120.00
G01 X131.8155 Y-92.2708 F120.00
G01 X131.8150 Y-92.2590 F120.00
G01 X131.8150 Y-91.9610 F120.00
G01 X131.8155 Y-91.9492 F120.00
G01 X131.8171 Y-91.9385 F120.00
G01 X131.8197 Y-91.9281 F120.00
G01 X131.8234 Y-91.9179 F120.00
G01 X131.8280 Y-91.9081 F120.00
G01 X131.8335 Y-91.8989 F120.00
G01 X131.8400 Y-91.8902 F120.00
G01 X131.8472 Y-91.8822 F120.00
G01 X131.8552 Y-91.8750 F120.00
G01 X131.8639 Y-91.8685 F120.00
G01 X131.8731 Y-91.8630 F120.00
G01 X131.8829 Y-91.8584 F120.00
G01 X131.8931 Y-91.8547 F120.00
G01 X131.9035 Y-91.8521 F120.00
G01 X131.9142 Y-91.8505 F120.00
G01 X131.9260 Y-91.8500 F120.00
G01 X133.5740 Y-91.8500 F120.00
G01 X133.5858 Y-91.8505 F120.00
G01 X133.5965 Y-91.8521 F120.00
G01 X133.6069 Y-91.8547 F120.00
G01 X133.6171 Y-91.8584 F120.00
G01 X133.6269 Y-91.8630 F120.00
G01 X133.6361 Y-91.8685 F120.00
G01 X133.6448 Y-91.8750 F120.00
G01 X133.6528 Y-91.8822 F120.00
G01 X133.6600 Y-91.8902 F120.00
G01 X133.6665 Y-91.8989 F120.00
G01 X133.6720 Y-91.9081 F120.00
G01 X133.6766 Y-91.9179 F120.00
G01 X133.6803 Y-91.9281 F120.00
G01 X133.6829 Y-91.9385 F120.00
G01 X133.6845 Y-91.9492 F120.00
G01 X133.6850 Y-91.9610 F120.00
G01 X133.6850 Y-92.2590 F120.00
M5
G00 X133.6802 Y-92.2922
G01 F60.00
M03 S5000.0
G01 F120.00
G01 X131.8198 Y-92.2922 F120.00
M5
G00 X133.6577 Y-92.3324
G01 F60.00
M03 S5000.0
G01 F120.00
G01 X131.8423 Y-92.3324 F120.00
M5
G00 X133.6600 Y-93.1602
G01 F60.00
M03 S5000.0
G01 F120.00
G01 X131.8400 Y-93.1602 F120.00
M5
G00 X133.6808 Y-93.2004
G01 F60.00
M03 S5000.0
G01 F120.00
G01 X131.8192 Y-93.2004 F120.00
M5
G00 X133.6850 Y-93.2406
G01 F60.00
M03 S5000.0
G01 F120.00
G01 X131.8150 Y-93.2406 F120.00
M5
G00 X133.6850 Y-93.2808
G01 F60.00
M03 S5000.0
G01 F120.00
G01 X131.8150 Y-93.2808 F120.00
M5
G00 X133.6850 Y-93.3210
G01 F60.00
M03 S5000.0
G01 F120.00
G01 X131.8150 Y-93.3210 F120.00
M5
G00 X133.6850 Y-93.3612
G01 F60.00
M03 S5000.0
G01 F120.00
G01 X131.8150 Y-93.3612 F120.00
M5
G00 X133.6850 Y-93.4014
G01 F60.00
M03 S5000.0
G01 F120.00
G01 X131.8150 Y-93.4014 F120.00
M5
G00 X133.6850 Y-93.4416
G01 F60.00
M03 S5000.0
G01 F120.00
G01 X131.8150 Y-93.4416 F120.00
M5
G00 X133.6850 Y-93.4818
G01 F60.00
M03 S5000.0
G01 F120.00
G01 X131.8150 Y-93.4818 F120.00
M5
G00 X133.6850 Y-93.5220
G01 F60.00
M03 S5000.0
G01 F120.00
G01 X131.8150 Y-93.5220 F120.00
M5
G00 X133.6850 Y-93.5290
G01 F60.00
M03 S5000.0
G01 F120.00
G01 X133.6845 Y-93.5408 F120.00
G01 X133.6829 Y-93.5515 F120.00
G01 X133.6803 Y-93.5619 F120.00
G01 X133.6766 Y-93.5721 F120.00
G01 X133.6720 Y-93.5819 F120.00
G01 X133.6665 Y-93.5911 F120.00
G01 X133.6600 Y-93.5998 F120.00
G01 X133.6528 Y-93.6078 F120.00
G01 X133.6448 Y-93.6150 F120.00
G01 X133.6361 Y-93.6215 F120.00
G01 X133.6269 Y-93.6270 F120.00
G01 X133.6171 Y-93.6316 F120.00
G01 X133.6069 Y-93.6353 F120.00
G01 X133.5965 Y-93.6379 F120.00
G01 X133.5858 Y-93.6395 F120.00
G01 X133.5740 Y-93.6401 F120.00
G01 X131.9260 Y-93.6401 F120.00
G01 X131.9142 Y-93.6395 F120.00
G01 X131.9035 Y-93.6379 F120.00
G01 X131.8931 Y-93.6353 F120.00
G01 X131.8829 Y-93.6316 F120.00
G01 X131.8731 Y-93.6270 F120.00
G01 X131.8639 Y-93.6215 F120.00
G01 X131.8552 Y-93.6150 F120.00
G01 X131.8472 Y-93.6078 F120.00
G01 X131.8400 Y-93.5998 F120.00
G01 X131.8335 Y-93.5911 F120.00
G01 X131.8280 Y-93.5819 F120.00
G01 X131.8234 Y-93.5721 F120.00
G01 X131.8197 Y-93.5619 F120.00
G01 X131.8171 Y-93.5515 F120.00
G01 X131.8155 Y-93.5408 F120.00
G01 X131.8150 Y-93.5290 F120.00
G01 X131.8150 Y-93.2310 F120.00
G01 X131.8155 Y-93.2192 F120.00
G01 X131.8171 Y-93.2085 F120.00
G01 X131.8197 Y-93.1981 F120.00
G01 X131.8234 Y-93.1879 F120.00
G01 X131.8280 Y-93.1781 F120.00
G01 X131.8335 Y-93.1689 F120.00
G01 X131.8400 Y-93.1602 F120.00
G01 X131.8472 Y-93.1522 F120.00
G01 X131.8552 Y-93.1450 F120.00
G01 X131.8639 Y-93.1385 F120.00
G01 X131.8731 Y-93.1330 F120.00
G01 X131.8829 Y-93.1284 F120.00
G01 X131.8931 Y-93.1247 F120.00
G01 X131.9035 Y-93.1221 F120.00
G01 X131.9142 Y-93.1205 F120.00
G01 X131.9260 Y-93.1200 F120.00
G01 X133.5740 Y-93.1200 F120.00
G01 X133.5858 Y-93.1205 F120.00
G01 X133.5965 Y-93.1221 F120.00
G01 X133.6069 Y-93.1247 F120.00
G01 X133.6171 Y-93.1284 F120.00
G01 X133.6269 Y-93.1330 F120.00
G01 X133.6361 Y-93.1385 F120.00
G01 X133.6448 Y-93.1450 F120.00
G01 X133.6528 Y-93.1522 F120.00
G01 X133.6600 Y-93.1602 F120.00
G01 X133.6665 Y-93.1689 F120.00
G01 X133.6720 Y-93.1781 F120.00
G01 X133.6766 Y-93.1879 F120.00
G01 X133.6803 Y-93.1981 F120.00
G01 X133.6829 Y-93.2085 F120.00
G01 X133.6845 Y-93.2192 F120.00
G01 X133.6850 Y-93.2310 F120.00
G01 X133.6850 Y-93.5290 F120.00
M5
G00 X133.6802 Y-93.5622
G01 F60.00
M03 S5000.0
G01 F120.00
G01 X131.8198 Y-93.5622 F120.00
M5
G00 X133.6577 Y-93.6024
G01 F60.00
M03 S5000.0
G01 F120.00
G01 X131.8423 Y-93.6024 F120.00
M5
G00 X136.7649 Y-93.5220
G01 F60.00
M03 S5000.0
G01 F120.00
G01 X138.6350 Y-93.5220 F120.00
M5
G00 X138.6350 Y-93.5290
G01 F60.00
M03 S5000.0
G01 F120.00
G01 X138.6345 Y-93.5408 F120.00
G01 X138.6329 Y-93.5515 F120.00
G01 X138.6303 Y-93.5619 F120.00
G01 X138.6266 Y-93.5721 F120.00
G01 X138.6220 Y-93.5819 F120.00
G01 X138.6165 Y-93.5911 F120.00
G01 X138.6100 Y-93.5998 F120.00
G01 X138.6028 Y-93.6078 F120.00
G01 X138.5948 Y-93.6150 F120.00
G01 X138.5861 Y-93.6215 F120.00
G01 X138.5769 Y-93.6270 F120.00
G01 X138.5671 Y-93.6316 F120.00
G01 X138.5569 Y-93.6353 F120.00
G01 X138.5465 Y-93.6379 F120.00
G01 X138.5358 Y-93.6395 F120.00
G01 X138.5240 Y-93.6401 F120.00
G01 X136.8760 Y-93.6401 F120.00
G01 X136.8642 Y-93.6395 F120.00
G01 X136.8535 Y-93.6379 F120.00
G01 X136.8431 Y-93.6353 F120.00
G01 X136.8329 Y-93.6316 F120.00
G01 X136.8231 Y-93.6270 F120.00
G01 X136.8139 Y-93.6215 F120.00
G01 X136.8052 Y-93.6150 F120.00
G01 X136.7972 Y-93.6078 F120.00
G01 X136.7900 Y-93.5998 F120.00
G01 X136.7835 Y-93.5911 F120.00
G01 X136.7780 Y-93.5819 F120.00
G01 X136.7734 Y-93.5721 F120.00
G01 X136.7697 Y-93.5619 F120.00
G01 X136.7671 Y-93.5515 F120.00
G01 X136.7655 Y-93.5408 F120.00
G01 X136.7649 Y-93.5290 F120.00
G01 X136.7649 Y-93.2310 F120.00
G01 X136.7655 Y-93.2192 F120.00
G01 X136.7671 Y-93.2085 F120.00
G01 X136.7697 Y-93.1981 F120.00
G01 X136.7734 Y-93.1879 F120.00
G01 X136.7780 Y-93.1781 F120.00
G01 X136.7835 Y-93.1689 F120.00
G01 X136.7900 Y-93.1602 F120.00
G01 X136.7972 Y-93.1522 F120.00
G01 X136.8052 Y-93.1450 F120.00
G01 X136.8139 Y-93.1385 F120.00
G01 X136.8231 Y-93.1330 F120.00
G01 X136.8329 Y-93.1284 F120.00
G01 X136.8431 Y-93.1247 F120.00
G01 X136.8535 Y-93.1221 F120.00
G01 X136.8642 Y-93.1205 F120.00
G01 X136.8760 Y-93.1200 F120.00
G01 X138.5240 Y-93.1200 F120.00
G01 X138.5358 Y-93.1205 F120.00
G01 X138.5465 Y-93.1221 F120.00
G01 X138.5569 Y-93.1247 F120.00
G01 X138.5671 Y-93.1284 F120.00
G01 X138.5769 Y-93.1330 F120.00
G01 X138.5861 Y-93.1385 F120.00
G01 X138.5948 Y-93.1450 F120.00
G01 X138.6028 Y-93.1522 F120.00
G01 X138.6100 Y-93.1602 F120.00
G01 X138.6165 Y-93.1689 F120.00
G01 X138.6220 Y-93.1781 F120.00
G01 X138.6266 Y-93.1879 F120.00
G01 X138.6303 Y-93.1981 F120.00
G01 X138.6329 Y-93.2085 F120.00
G01 X138.6345 Y-93.2192 F120.00
G01 X138.6350 Y-93.2310 F120.00
G01 X138.6350 Y-93.5290 F120.00
M5
G00 X138.6302 Y-93.5622
G01 F60.00
M03 S5000.0
G01 F120.00
G01 X136.7698 Y-93.5622 F120.00
M5
G00 X138.6077 Y-93.6024
G01 F60.00
M03 S5000.0
G01 F120.00
G01 X136.7923 Y-93.6024 F120.00
M5
G00 X138.6350 Y-93.4818
G01 F60.00
M03 S5000.0
G01 F120.00
G01 X136.7649 Y-93.4818 F120.00
M5
G00 X138.6350 Y-93.4416
G01 F60.00
M03 S5000.0
G01 F120.00
G01 X136.7649 Y-93.4416 F120.00
M5
G00 X138.6350 Y-93.4014
G01 F60.00
M03 S5000.0
G01 F120.00
G01 X136.7649 Y-93.4014 F120.00
M5
G00 X138.6350 Y-93.3612
G01 F60.00
M03 S5000.0
G01 F120.00
G01 X136.7649 Y-93.3612 F120.00
M5
G00 X138.6350 Y-93.3210
G01 F60.00
M03 S5000.0
G01 F120.00
G01 X136.7649 Y-93.3210 F120.00
M5
G00 X138.6350 Y-93.2808
G01 F60.00
M03 S5000.0
G01 F120.00
G01 X136.7649 Y-93.2808 F120.00
M5
G00 X138.6350 Y-93.2406
G01 F60.00
M03 S5000.0
G01 F120.00
G01 X136.7649 Y-93.2406 F120.00
M5
G00 X138.6308 Y-93.2004
G01 F60.00
M03 S5000.0
G01 F120.00
G01 X136.7692 Y-93.2004 F120.00
M5
G00 X138.6100 Y-93.1602
G01 F60.00
M03 S5000.0
G01 F120.00
G01 X136.7900 Y-93.1602 F120.00
M5
G00 X138.6077 Y-92.3324
G01 F60.00
M03 S5000.0
G01 F120.00
G01 X136.7923 Y-92.3324 F120.00
M5
G00 X138.6302 Y-92.2922
G01 F60.00
M03 S5000.0
G01 F120.00
G01 X136.7698 Y-92.2922 F120.00
M5
G00 X138.6350 Y-92.2590
G01 F60.00
M03 S5000.0
G01 F120.00
G01 X138.6345 Y-92.2708 F120.00
G01 X138.6329 Y-92.2815 F120.00
G01 X138.6303 Y-92.2919 F120.00
G01 X138.6266 Y-92.3021 F120.00
G01 X138.6220 Y-92.3119 F120.00
G01 X138.6165 Y-92.3211 F120.00
G01 X138.6100 Y-92.3298 F120.00
G01 X138.6028 Y-92.3378 F120.00
G01 X138.5948 Y-92.3450 F120.00
G01 X138.5861 Y-92.3515 F120.00
G01 X138.5769 Y-92.3570 F120.00
G01 X138.5671 Y-92.3616 F120.00
G01 X138.5569 Y-92.3653 F120.00
G01 X138.5465 Y-92.3679 F120.00
G01 X138.5358 Y-92.3695 F120.00
G01 X138.5240 Y-92.3700 F120.00
G01 X136.8760 Y-92.3700 F120.00
G01 X136.8642 Y-92.3695 F120.00
G01 X136.8535 Y-92.3679 F120.00
G01 X136.8431 Y-92.3653 F120.00
G01 X136.8329 Y-92.3616 F120.00
G01 X136.8231 Y-92.3570 F120.00
G01 X136.8139 Y-92.3515 F120.00
G01 X136.8052 Y-92.3450 F120.00
G01 X136.7972 Y-92.3378 F120.00
G01 X136.7900 Y-92.3298 F120.00
G01 X136.7835 Y-92.3211 F120.00
G01 X136.7780 Y-92.3119 F120.00
G01 X136.7734 Y-92.3021 F120.00
G01 X136.7697 Y-92.2919 F120.00
G01 X136.7671 Y-92.2815 F120.00
G01 X136.7655 Y-92.2708 F120.00
G01 X136.7650 Y-92.2590 F120.00
G01 X136.7650 Y-91.9610 F120.00
G01 X136.7655 Y-91.9492 F120.00
G01 X136.7671 Y-91.9385 F120.00
G01 X136.7697 Y-91.9281 F120.00
G01 X136.7734 Y-91.9179 F120.00
G01 X136.7780 Y-91.9081 F120.00
G01 X136.7835 Y-91.8989 F120.00
G01 X136.7900 Y-91.8902 F120.00
G01 X136.7972 Y-91.8822 F120.00
G01 X136.8052 Y-91.8750 F120.00
G01 X136.8139 Y-91.8685 F120.00
G01 X136.8231 Y-91.8630 F120.00
G01 X136.8329 Y-91.8584 F120.00
G01 X136.8431 Y-91.8547 F120.00
G01 X136.8535 Y-91.8521 F120.00
G01 X136.8642 Y-91.8505 F120.00
G01 X136.8760 Y-91.8500 F120.00
G01 X138.5240 Y-91.8500 F120.00
G01 X138.5358 Y-91.8505 F120.00
G01 X138.5465 Y-91.8521 F120.00
G01 X138.5569 Y-91.8547 F120.00
G01 X138.5671 Y-91.8584 F120.00
G01 X138.5769 Y-91.8630 F120.00
G01 X138.5861 Y-91.8685 F120.00
G01 X138.5948 Y-91.8750 F120.00
G01 X138.6028 Y-91.8822 F120.00
G01 X138.6100 Y-91.8902 F120.00
G01 X138.6165 Y-91.8989 F120.00
G01 X138.6220 Y-91.9081 F120.00
G01 X138.6266 Y-91.9179 F120.00
G01 X138.6303 Y-91.9281 F120.00
G01 X138.6329 Y-91.9385 F120.00
G01 X138.6345 Y-91.9492 F120.00
G01 X138.6350 Y-91.9610 F120.00
G01 X138.6350 Y-92.2590 F120.00
M5
G00 X138.6350 Y-92.2520
G01 F60.00
M03 S5000.0
G01 F120.00
G01 X136.7650 Y-92.2520 F120.00
M5
G00 X138.6350 Y-92.2118
G01 F60.00
M03 S5000.0
G01 F120.00
G01 X136.7650 Y-92.2118 F120.00
M5
G00 X138.6350 Y-92.1716
G01 F60.00
M03 S5000.0
G01 F120.00
G01 X136.7650 Y-92.1716 F120.00
M5
G00 X138.6350 Y-92.1314
G01 F60.00
M03 S5000.0
G01 F120.00
G01 X136.7650 Y-92.1314 F120.00
M5
G00 X138.6350 Y-92.0912
G01 F60.00
M03 S5000.0
G01 F120.00
G01 X136.7650 Y-92.0912 F120.00
M5
G00 X138.6350 Y-92.0510
G01 F60.00
M03 S5000.0
G01 F120.00
G01 X136.7650 Y-92.0510 F120.00
M5
G00 X138.6350 Y-92.0108
G01 F60.00
M03 S5000.0
G01 F120.00
G01 X136.7650 Y-92.0108 F120.00
M5
G00 X138.6350 Y-91.9706
G01 F60.00
M03 S5000.0
G01 F120.00
G01 X136.7650 Y-91.9706 F120.00
M5
G00 X138.6308 Y-91.9304
G01 F60.00
M03 S5000.0
G01 F120.00
G01 X136.7692 Y-91.9304 F120.00
M5
G00 X138.6100 Y-91.8902
G01 F60.00
M03 S5000.0
G01 F120.00
G01 X136.7900 Y-91.8902 F120.00
M5
G00 X138.6077 Y-91.0624
G01 F60.00
M03 S5000.0
G01 F120.00
G01 X136.7923 Y-91.0624 F120.00
M5
G00 X138.6302 Y-91.0222
G01 F60.00
M03 S5000.0
G01 F120.00
G01 X136.7698 Y-91.0222 F120.00
M5
G00 X138.6350 Y-90.9890
G01 F60.00
M03 S5000.0
G01 F120.00
G01 X138.6345 Y-91.0008 F120.00
G01 X138.6329 Y-91.0115 F120.00
G01 X138.6303 Y-91.0219 F120.00
G01 X138.6266 Y-91.0321 F120.00
G01 X138.6220 Y-91.0419 F120.00
G01 X138.6165 Y-91.0511 F120.00
G01 X138.6100 Y-91.0598 F120.00
G01 X138.6028 Y-91.0678 F120.00
G01 X138.5948 Y-91.0750 F120.00
G01 X138.5861 Y-91.0815 F120.00
G01 X138.5769 Y-91.0870 F120.00
G01 X138.5671 Y-91.0916 F120.00
G01 X138.5569 Y-91.0953 F120.00
G01 X138.5465 Y-91.0979 F120.00
G01 X138.5358 Y-91.0995 F120.00
G01 X138.5240 Y-91.1000 F120.00
G01 X136.8760 Y-91.1000 F120.00
G01 X136.8642 Y-91.0995 F120.00
G01 X136.8535 Y-91.0979 F120.00
G01 X136.8431 Y-91.0953 F120.00
G01 X136.8329 Y-91.0916 F120.00
G01 X136.8231 Y-91.0870 F120.00
G01 X136.8139 Y-91.0815 F120.00
G01 X136.8052 Y-91.0750 F120.00
G01 X136.7972 Y-91.0678 F120.00
G01 X136.7900 Y-91.0598 F120.00
G01 X136.7835 Y-91.0511 F120.00
G01 X136.7780 Y-91.0419 F120.00
G01 X136.7734 Y-91.0321 F120.00
G01 X136.7697 Y-91.0219 F120.00
G01 X136.7671 Y-91.0115 F120.00
G01 X136.7655 Y-91.0008 F120.00
G01 X136.7650 Y-90.9890 F120.00
G01 X136.7650 Y-90.6910 F120.00
G01 X136.7655 Y-90.6792 F120.00
G01 X136.7671 Y-90.6685 F120.00
G01 X136.7697 Y-90.6581 F120.00
G01 X136.7734 Y-90.6479 F120.00
G01 X136.7780 Y-90.6381 F120.00
G01 X136.7835 Y-90.6289 F120.00
G01 X136.7900 Y-90.6202 F120.00
G01 X136.7972 Y-90.6122 F120.00
G01 X136.8052 Y-90.6050 F120.00
G01 X136.8139 Y-90.5985 F120.00
G01 X136.8231 Y-90.5930 F120.00
G01 X136.8329 Y-90.5884 F120.00
G01 X136.8431 Y-90.5847 F120.00
G01 X136.8535 Y-90.5821 F120.00
G01 X136.8642 Y-90.5805 F120.00
G01 X136.8760 Y-90.5800 F120.00
G01 X138.5240 Y-90.5800 F120.00
G01 X138.5358 Y-90.5805 F120.00
G01 X138.5465 Y-90.5821 F120.00
G01 X138.5569 Y-90.5847 F120.00
G01 X138.5671 Y-90.5884 F120.00
G01 X138.5769 Y-90.5930 F120.00
G01 X138.5861 Y-90.5985 F120.00
G01 X138.5948 Y-90.6050 F120.00
G01 X138.6028 Y-90.6122 F120.00
G01 X138.6100 Y-90.6202 F120.00
G01 X138.6165 Y-90.6289 F120.00
G01 X138.6220 Y-90.6381 F120.00
G01 X138.6266 Y-90.6479 F120.00
G01 X138.6303 Y-90.6581 F120.00
G01 X138.6329 Y-90.6685 F120.00
G01 X138.6345 Y-90.6792 F120.00
G01 X138.6350 Y-90.6910 F120.00
G01 X138.6350 Y-90.9890 F120.00
M5
G00 X138.6350 Y-90.9820
G01 F60.00
M03 S5000.0
G01 F120.00
G01 X136.7650 Y-90.9820 F120.00
M5
G00 X138.6350 Y-90.9418
G01 F60.00
M03 S5000.0
G01 F120.00
G01 X136.7650 Y-90.9418 F120.00
M5
G00 X138.6350 Y-90.9016
G01 F60.00
M03 S5000.0
G01 F120.00
G01 X136.7650 Y-90.9016 F120.00
M5
G00 X138.6350 Y-90.8614
G01 F60.00
M03 S5000.0
G01 F120.00
G01 X136.7650 Y-90.8614 F120.00
M5
G00 X138.6350 Y-90.8212
G01 F60.00
M03 S5000.0
G01 F120.00
G01 X136.7650 Y-90.8212 F120.00
M5
G00 X138.6350 Y-90.7810
G01 F60.00
M03 S5000.0
G01 F120.00
G01 X136.7650 Y-90.7810 F120.00
M5
G00 X138.6350 Y-90.7408
G01 F60.00
M03 S5000.0
G01 F120.00
G01 X136.7650 Y-90.7408 F120.00
M5
G00 X138.6350 Y-90.7006
G01 F60.00
M03 S5000.0
G01 F120.00
G01 X136.7650 Y-90.7006 F120.00
M5
G00 X138.6308 Y-90.6604
G01 F60.00
M03 S5000.0
G01 F120.00
G01 X136.7692 Y-90.6604 F120.00
M5
G00 X138.6100 Y-90.6202
G01 F60.00
M03 S5000.0
G01 F120.00
G01 X136.7900 Y-90.6202 F120.00
M5
G00 X138.6077 Y-89.7923
G01 F60.00
M03 S5000.0
G01 F120.00
G01 X136.7923 Y-89.7923 F120.00
M5
G00 X138.6302 Y-89.7521
G01 F60.00
M03 S5000.0
G01 F120.00
G01 X136.7698 Y-89.7521 F120.00
M5
G00 X138.6350 Y-89.7190
G01 F60.00
M03 S5000.0
G01 F120.00
G01 X138.6345 Y-89.7308 F120.00
G01 X138.6329 Y-89.7415 F120.00
G01 X138.6303 Y-89.7519 F120.00
G01 X138.6266 Y-89.7621 F120.00
G01 X138.6220 Y-89.7719 F120.00
G01 X138.6165 Y-89.7811 F120.00
G01 X138.6100 Y-89.7898 F120.00
G01 X138.6028 Y-89.7978 F120.00
G01 X138.5948 Y-89.8050 F120.00
G01 X138.5861 Y-89.8115 F120.00
G01 X138.5769 Y-89.8170 F120.00
G01 X138.5671 Y-89.8216 F120.00
G01 X138.5569 Y-89.8253 F120.00
G01 X138.5465 Y-89.8279 F120.00
G01 X138.5358 Y-89.8295 F120.00
G01 X138.5240 Y-89.8300 F120.00
G01 X136.8760 Y-89.8300 F120.00
G01 X136.8642 Y-89.8295 F120.00
G01 X136.8535 Y-89.8279 F120.00
G01 X136.8431 Y-89.8253 F120.00
G01 X136.8329 Y-89.8216 F120.00
G01 X136.8231 Y-89.8170 F120.00
G01 X136.8139 Y-89.8115 F120.00
G01 X136.8052 Y-89.8050 F120.00
G01 X136.7972 Y-89.7978 F120.00
G01 X136.7900 Y-89.7898 F120.00
G01 X136.7835 Y-89.7811 F120.00
G01 X136.7780 Y-89.7719 F120.00
G01 X136.7734 Y-89.7621 F120.00
G01 X136.7697 Y-89.7519 F120.00
G01 X136.7671 Y-89.7415 F120.00
G01 X136.7655 Y-89.7308 F120.00
G01 X136.7650 Y-89.7190 F120.00
G01 X136.7650 Y-89.4210 F120.00
G01 X136.7655 Y-89.4092 F120.00
G01 X136.7671 Y-89.3985 F120.00
G01 X136.7697 Y-89.3881 F120.00
G01 X136.7734 Y-89.3779 F120.00
G01 X136.7780 Y-89.3681 F120.00
G01 X136.7835 Y-89.3589 F120.00
G01 X136.7900 Y-89.3502 F120.00
G01 X136.7972 Y-89.3422 F120.00
G01 X136.8052 Y-89.3350 F120.00
G01 X136.8139 Y-89.3285 F120.00
G01 X136.8231 Y-89.3230 F120.00
G01 X136.8329 Y-89.3184 F120.00
G01 X136.8431 Y-89.3147 F120.00
G01 X136.8535 Y-89.3121 F120.00
G01 X136.8642 Y-89.3105 F120.00
G01 X136.8760 Y-89.3099 F120.00
G01 X138.5240 Y-89.3099 F120.00
G01 X138.5358 Y-89.3105 F120.00
G01 X138.5465 Y-89.3121 F120.00
G01 X138.5569 Y-89.3147 F120.00
G01 X138.5671 Y-89.3184 F120.00
G01 X138.5769 Y-89.3230 F120.00
G01 X138.5861 Y-89.3285 F120.00
G01 X138.5948 Y-89.3350 F120.00
G01 X138.6028 Y-89.3422 F120.00
G01 X138.6100 Y-89.3502 F120.00
G01 X138.6165 Y-89.3589 F120.00
G01 X138.6220 Y-89.3681 F120.00
G01 X138.6266 Y-89.3779 F120.00
G01 X138.6303 Y-89.3881 F120.00
G01 X138.6329 Y-89.3985 F120.00
G01 X138.6345 Y-89.4092 F120.00
G01 X138.6350 Y-89.4210 F120.00
G01 X138.6350 Y-89.7190 F120.00
M5
G00 X138.6350 Y-89.7119
G01 F60.00
M03 S5000.0
G01 F120.00
G01 X136.7650 Y-89.7119 F120.00
M5
G00 X138.6350 Y-89.6717
G01 F60.00
M03 S5000.0
G01 F120.00
G01 X136.7650 Y-89.6717 F120.00
M5
G00 X138.6350 Y-89.6315
G01 F60.00
M03 S5000.0
G01 F120.00
G01 X136.7650 Y-89.6315 F120.00
M5
G00 X138.6350 Y-89.5913
G01 F60.00
M03 S5000.0
G01 F120.00
G01 X136.7650 Y-89.5913 F120.00
M5
G00 X138.6350 Y-89.5511
G01 F60.00
M03 S5000.0
G01 F120.00
G01 X136.7650 Y-89.5511 F120.00
M5
G00 X138.6350 Y-89.5109
G01 F60.00
M03 S5000.0
G01 F120.00
G01 X136.7650 Y-89.5109 F120.00
M5
G00 X138.6350 Y-89.4707
G01 F60.00
M03 S5000.0
G01 F120.00
G01 X136.7650 Y-89.4707 F120.00
M5
G00 X138.6350 Y-89.4305
G01 F60.00
M03 S5000.0
G01 F120.00
G01 X136.7650 Y-89.4305 F120.00
M5
G00 X138.6308 Y-89.3903
G01 F60.00
M03 S5000.0
G01 F120.00
G01 X136.7692 Y-89.3903 F120.00
M5
G00 X138.6100 Y-89.3501
G01 F60.00
M03 S5000.0
G01 F120.00
G01 X136.7900 Y-89.3501 F120.00
M5
G00 X140.5314 Y-90.3821
G01 F60.00
M03 S5000.0
G01 F120.00
G01 X140.8345 Y-90.3821 F120.00
M5
G00 X140.7943 Y-90.4223
G01 F60.00
M03 S5000.0
G01 F120.00
G01 X140.5491 Y-90.4223 F120.00
M5
G00 X140.7541 Y-90.4625
G01 F60.00
M03 S5000.0
G01 F120.00
G01 X140.5893 Y-90.4625 F120.00
M5
G00 X140.7139 Y-90.5027
G01 F60.00
M03 S5000.0
G01 F120.00
G01 X140.6295 Y-90.5027 F120.00
M5
G00 X140.5634 Y-90.3419
G01 F60.00
M03 S5000.0
G01 F120.00
G01 X140.8747 Y-90.3419 F120.00
M5
G00 X140.9149 Y-90.3017
G01 F60.00
M03 S5000.0
G01 F120.00
G01 X140.6036 Y-90.3017 F120.00
M5
G00 X140.9551 Y-90.2615
G01 F60.00
M03 S5000.0
G01 F120.00
G01 X140.6438 Y-90.2615 F120.00
M5
G00 X140.9953 Y-90.2213
G01 F60.00
M03 S5000.0
G01 F120.00
G01 X140.6840 Y-90.2213 F120.00
M5
G00 X141.0355 Y-90.1811
G01 F60.00
M03 S5000.0
G01 F120.00
G01 X140.7242 Y-90.1811 F120.00
M5
G00 X141.0757 Y-90.1409
G01 F60.00
M03 S5000.0
G01 F120.00
G01 X140.7644 Y-90.1409 F120.00
M5
G00 X141.1159 Y-90.1007
G01 F60.00
M03 S5000.0
G01 F120.00
G01 X140.8046 Y-90.1007 F120.00
M5
G00 X141.1561 Y-90.0605
G01 F60.00
M03 S5000.0
G01 F120.00
G01 X140.8448 Y-90.0605 F120.00
M5
G00 X141.1963 Y-90.0203
G01 F60.00
M03 S5000.0
G01 F120.00
G01 X140.8850 Y-90.0203 F120.00
M5
G00 X141.2365 Y-89.9801
G01 F60.00
M03 S5000.0
G01 F120.00
G01 X140.9252 Y-89.9801 F120.00
M5
G00 X141.2767 Y-89.9399
G01 F60.00
M03 S5000.0
G01 F120.00
G01 X140.9654 Y-89.9399 F120.00
M5
G00 X141.3169 Y-89.8997
G01 F60.00
M03 S5000.0
G01 F120.00
G01 X141.0056 Y-89.8997 F120.00
M5
G00 X141.3571 Y-89.8595
G01 F60.00
M03 S5000.0
G01 F120.00
G01 X141.0458 Y-89.8595 F120.00
M5
G00 X141.3973 Y-89.8193
G01 F60.00
M03 S5000.0
G01 F120.00
G01 X141.0860 Y-89.8193 F120.00
M5
G00 X141.4375 Y-89.7791
G01 F60.00
M03 S5000.0
G01 F120.00
G01 X141.1262 Y-89.7791 F120.00
M5
G00 X141.4777 Y-89.7389
G01 F60.00
M03 S5000.0
G01 F120.00
G01 X141.1664 Y-89.7389 F120.00
M5
G00 X141.5179 Y-89.6987
G01 F60.00
M03 S5000.0
G01 F120.00
G01 X141.2066 Y-89.6987 F120.00
M5
G00 X141.5581 Y-89.6585
G01 F60.00
M03 S5000.0
G01 F120.00
G01 X141.2468 Y-89.6585 F120.00
M5
G00 X141.5983 Y-89.6183
G01 F60.00
M03 S5000.0
G01 F120.00
G01 X141.2870 Y-89.6183 F120.00
M5
G00 X141.6375 Y-89.5781
G01 F60.00
M03 S5000.0
G01 F120.00
G01 X141.3272 Y-89.5781 F120.00
M5
G00 X141.6369 Y-89.5379
G01 F60.00
M03 S5000.0
G01 F120.00
G01 X141.3674 Y-89.5379 F120.00
M5
G00 X141.5975 Y-89.4977
G01 F60.00
M03 S5000.0
G01 F120.00
G01 X141.4076 Y-89.4977 F120.00
M5
G00 X141.5573 Y-89.4575
G01 F60.00
M03 S5000.0
G01 F120.00
G01 X141.4478 Y-89.4575 F120.00
M5
G00 X141.4771 Y-89.4282
G01 F60.00
M03 S5000.0
G01 F120.00
G01 X141.4831 Y-89.4232 F120.00
G01 X141.4892 Y-89.4200 F120.00
G01 X141.4957 Y-89.4180 F120.00
G01 X141.5026 Y-89.4173 F120.00
G01 X141.5094 Y-89.4180 F120.00
G01 X141.5159 Y-89.4200 F120.00
G01 X141.5220 Y-89.4232 F120.00
G01 X141.5280 Y-89.4282 F120.00
G01 X141.6327 Y-89.5329 F120.00
G01 X141.6377 Y-89.5389 F120.00
G01 X141.6410 Y-89.5450 F120.00
G01 X141.6429 Y-89.5515 F120.00
G01 X141.6436 Y-89.5584 F120.00
G01 X141.6434 Y-89.5618 F120.00
G01 X141.6421 Y-89.5685 F120.00
G01 X141.6410 Y-89.5718 F120.00
G01 X141.6377 Y-89.5778 F120.00
G01 X141.6357 Y-89.5806 F120.00
G01 X140.6972 Y-90.5194 F120.00
G01 X140.6939 Y-90.5223 F120.00
G01 X140.6882 Y-90.5261 F120.00
G01 X140.6819 Y-90.5288 F120.00
G01 X140.6751 Y-90.5301 F120.00
G01 X140.6683 Y-90.5301 F120.00
G01 X140.6615 Y-90.5288 F120.00
G01 X140.6552 Y-90.5261 F120.00
G01 X140.6495 Y-90.5223 F120.00
G01 X140.5415 Y-90.4147 F120.00
G01 X140.5365 Y-90.4087 F120.00
G01 X140.5333 Y-90.4026 F120.00
G01 X140.5313 Y-90.3960 F120.00
G01 X140.5306 Y-90.3892 F120.00
G01 X140.5308 Y-90.3858 F120.00
G01 X140.5321 Y-90.3791 F120.00
G01 X140.5333 Y-90.3758 F120.00
G01 X140.5365 Y-90.3698 F120.00
G01 X140.5386 Y-90.3670 F120.00
G01 X141.4771 Y-89.4282 F120.00
M5
G00 X141.8306 Y-89.7818
G01 F60.00
M03 S5000.0
G01 F120.00
G01 X141.8367 Y-89.7767 F120.00
G01 X141.8427 Y-89.7735 F120.00
G01 X141.8493 Y-89.7715 F120.00
G01 X141.8561 Y-89.7709 F120.00
G01 X141.8629 Y-89.7715 F120.00
G01 X141.8695 Y-89.7735 F120.00
G01 X141.8756 Y-89.7767 F120.00
G01 X141.8816 Y-89.7818 F120.00
G01 X141.9863 Y-89.8864 F120.00
G01 X141.9913 Y-89.8925 F120.00
G01 X141.9945 Y-89.8985 F120.00
G01 X141.9965 Y-89.9051 F120.00
G01 X141.9972 Y-89.9119 F120.00
G01 X141.9970 Y-89.9153 F120.00
G01 X141.9957 Y-89.9221 F120.00
G01 X141.9945 Y-89.9253 F120.00
G01 X141.9913 Y-89.9314 F120.00
G01 X141.9892 Y-89.9341 F120.00
G01 X141.0507 Y-90.8729 F120.00
G01 X141.0475 Y-90.8759 F120.00
G01 X141.0418 Y-90.8797 F120.00
G01 X141.0354 Y-90.8823 F120.00
G01 X141.0287 Y-90.8837 F120.00
G01 X141.0218 Y-90.8837 F120.00
G01 X141.0151 Y-90.8823 F120.00
G01 X141.0088 Y-90.8797 F120.00
G01 X141.0030 Y-90.8759 F120.00
G01 X140.8951 Y-90.7682 F120.00
G01 X140.8901 Y-90.7622 F120.00
G01 X140.8869 Y-90.7562 F120.00
G01 X140.8849 Y-90.7496 F120.00
G01 X140.8842 Y-90.7428 F120.00
G01 X140.8844 Y-90.7393 F120.00
G01 X140.8857 Y-90.7326 F120.00
G01 X140.8869 Y-90.7294 F120.00
G01 X140.8901 Y-90.7233 F120.00
G01 X140.8921 Y-90.7206 F120.00
G01 X141.8306 Y-89.7818 F120.00
M5
G00 X141.8014 Y-89.8110
G01 F60.00
M03 S5000.0
G01 F120.00
G01 X141.9108 Y-89.8110 F120.00
M5
G00 X141.9510 Y-89.8512
G01 F60.00
M03 S5000.0
G01 F120.00
G01 X141.7612 Y-89.8512 F120.00
M5
G00 X141.9905 Y-89.8914
G01 F60.00
M03 S5000.0
G01 F120.00
G01 X141.7210 Y-89.8914 F120.00
M5
G00 X141.9911 Y-89.9316
G01 F60.00
M03 S5000.0
G01 F120.00
G01 X141.6808 Y-89.9316 F120.00
M5
G00 X141.9518 Y-89.9718
G01 F60.00
M03 S5000.0
G01 F120.00
G01 X141.6406 Y-89.9718 F120.00
M5
G00 X141.9116 Y-90.0120
G01 F60.00
M03 S5000.0
G01 F120.00
G01 X141.6004 Y-90.0120 F120.00
M5
G00 X141.8714 Y-90.0522
G01 F60.00
M03 S5000.0
G01 F120.00
G01 X141.5602 Y-90.0522 F120.00
M5
G00 X141.8312 Y-90.0924
G01 F60.00
M03 S5000.0
G01 F120.00
G01 X141.5200 Y-90.0924 F120.00
M5
G00 X141.7910 Y-90.1326
G01 F60.00
M03 S5000.0
G01 F120.00
G01 X141.4798 Y-90.1326 F120.00
M5
G00 X141.7508 Y-90.1728
G01 F60.00
M03 S5000.0
G01 F120.00
G01 X141.4396 Y-90.1728 F120.00
M5
G00 X141.7106 Y-90.2130
G01 F60.00
M03 S5000.0
G01 F120.00
G01 X141.3994 Y-90.2130 F120.00
M5
G00 X141.6704 Y-90.2532
G01 F60.00
M03 S5000.0
G01 F120.00
G01 X141.3592 Y-90.2532 F120.00
M5
G00 X141.6302 Y-90.2934
G01 F60.00
M03 S5000.0
G01 F120.00
G01 X141.3190 Y-90.2934 F120.00
M5
G00 X141.5900 Y-90.3336
G01 F60.00
M03 S5000.0
G01 F120.00
G01 X141.2788 Y-90.3336 F120.00
M5
G00 X141.5498 Y-90.3738
G01 F60.00
M03 S5000.0
G01 F120.00
G01 X141.2386 Y-90.3738 F120.00
M5
G00 X141.5096 Y-90.4140
G01 F60.00
M03 S5000.0
G01 F120.00
G01 X141.1984 Y-90.4140 F120.00
M5
G00 X141.4694 Y-90.4542
G01 F60.00
M03 S5000.0
G01 F120.00
G01 X141.1582 Y-90.4542 F120.00
M5
G00 X141.4292 Y-90.4944
G01 F60.00
M03 S5000.0
G01 F120.00
G01 X141.1180 Y-90.4944 F120.00
M5
G00 X141.3890 Y-90.5346
G01 F60.00
M03 S5000.0
G01 F120.00
G01 X141.0778 Y-90.5346 F120.00
M5
G00 X141.3488 Y-90.5748
G01 F60.00
M03 S5000.0
G01 F120.00
G01 X141.0376 Y-90.5748 F120.00
M5
G00 X141.3086 Y-90.6150
G01 F60.00
M03 S5000.0
G01 F120.00
G01 X140.9974 Y-90.6150 F120.00
M5
G00 X141.2684 Y-90.6552
G01 F60.00
M03 S5000.0
G01 F120.00
G01 X140.9572 Y-90.6552 F120.00
M5
G00 X141.2282 Y-90.6954
G01 F60.00
M03 S5000.0
G01 F120.00
G01 X140.9170 Y-90.6954 F120.00
M5
G00 X141.1880 Y-90.7356
G01 F60.00
M03 S5000.0
G01 F120.00
G01 X140.8849 Y-90.7356 F120.00
M5
G00 X141.1478 Y-90.7758
G01 F60.00
M03 S5000.0
G01 F120.00
G01 X140.9027 Y-90.7758 F120.00
M5
G00 X141.1076 Y-90.8160
G01 F60.00
M03 S5000.0
G01 F120.00
G01 X140.9429 Y-90.8160 F120.00
M5
G00 X141.0674 Y-90.8562
G01 F60.00
M03 S5000.0
G01 F120.00
G01 X140.9831 Y-90.8562 F120.00
M5
G00 X141.2705 Y-91.0490
G01 F60.00
M03 S5000.0
G01 F120.00
G01 X141.5818 Y-91.0490 F120.00
M5
G00 X141.5416 Y-91.0892
G01 F60.00
M03 S5000.0
G01 F120.00
G01 X141.2385 Y-91.0892 F120.00
M5
G00 X141.5014 Y-91.1294
G01 F60.00
M03 S5000.0
G01 F120.00
G01 X141.2562 Y-91.1294 F120.00
M5
G00 X141.4612 Y-91.1696
G01 F60.00
M03 S5000.0
G01 F120.00
G01 X141.2964 Y-91.1696 F120.00
M5
G00 X141.4210 Y-91.2098
G01 F60.00
M03 S5000.0
G01 F120.00
G01 X141.3366 Y-91.2098 F120.00
M5
G00 X141.3107 Y-91.0088
G01 F60.00
M03 S5000.0
G01 F120.00
G01 X141.6220 Y-91.0088 F120.00
M5
G00 X141.6622 Y-90.9686
G01 F60.00
M03 S5000.0
G01 F120.00
G01 X141.3509 Y-90.9686 F120.00
M5
G00 X141.7024 Y-90.9284
G01 F60.00
M03 S5000.0
G01 F120.00
G01 X141.3911 Y-90.9284 F120.00
M5
G00 X141.7426 Y-90.8882
G01 F60.00
M03 S5000.0
G01 F120.00
G01 X141.4313 Y-90.8882 F120.00
M5
G00 X141.7828 Y-90.8480
G01 F60.00
M03 S5000.0
G01 F120.00
G01 X141.4715 Y-90.8480 F120.00
M5
G00 X141.8230 Y-90.8078
G01 F60.00
M03 S5000.0
G01 F120.00
G01 X141.5117 Y-90.8078 F120.00
M5
G00 X141.8632 Y-90.7676
G01 F60.00
M03 S5000.0
G01 F120.00
G01 X141.5519 Y-90.7676 F120.00
M5
G00 X141.9034 Y-90.7274
G01 F60.00
M03 S5000.0
G01 F120.00
G01 X141.5921 Y-90.7274 F120.00
M5
G00 X141.9436 Y-90.6872
G01 F60.00
M03 S5000.0
G01 F120.00
G01 X141.6323 Y-90.6872 F120.00
M5
G00 X141.9838 Y-90.6470
G01 F60.00
M03 S5000.0
G01 F120.00
G01 X141.6725 Y-90.6470 F120.00
M5
G00 X142.0240 Y-90.6068
G01 F60.00
M03 S5000.0
G01 F120.00
G01 X141.7127 Y-90.6068 F120.00
M5
G00 X142.0642 Y-90.5666
G01 F60.00
M03 S5000.0
G01 F120.00
G01 X141.7529 Y-90.5666 F120.00
M5
G00 X142.1044 Y-90.5264
G01 F60.00
M03 S5000.0
G01 F120.00
G01 X141.7931 Y-90.5264 F120.00
M5
G00 X142.1446 Y-90.4862
G01 F60.00
M03 S5000.0
G01 F120.00
G01 X141.8333 Y-90.4862 F120.00
M5
G00 X142.1848 Y-90.4460
G01 F60.00
M03 S5000.0
G01 F120.00
G01 X141.8735 Y-90.4460 F120.00
M5
G00 X142.2250 Y-90.4058
G01 F60.00
M03 S5000.0
G01 F120.00
G01 X141.9137 Y-90.4058 F120.00
M5
G00 X142.2652 Y-90.3656
G01 F60.00
M03 S5000.0
G01 F120.00
G01 X141.9539 Y-90.3656 F120.00
M5
G00 X142.3054 Y-90.3254
G01 F60.00
M03 S5000.0
G01 F120.00
G01 X141.9941 Y-90.3254 F120.00
M5
G00 X142.3446 Y-90.2852
G01 F60.00
M03 S5000.0
G01 F120.00
G01 X142.0343 Y-90.2852 F120.00
M5
G00 X142.3440 Y-90.2450
G01 F60.00
M03 S5000.0
G01 F120.00
G01 X142.0745 Y-90.2450 F120.00
M5
G00 X142.3046 Y-90.2048
G01 F60.00
M03 S5000.0
G01 F120.00
G01 X142.1147 Y-90.2048 F120.00
M5
G00 X142.2644 Y-90.1646
G01 F60.00
M03 S5000.0
G01 F120.00
G01 X142.1549 Y-90.1646 F120.00
M5
G00 X142.1842 Y-90.1353
G01 F60.00
M03 S5000.0
G01 F120.00
G01 X142.1902 Y-90.1303 F120.00
G01 X142.1963 Y-90.1271 F120.00
G01 X142.2028 Y-90.1251 F120.00
G01 X142.2097 Y-90.1244 F120.00
G01 X142.2165 Y-90.1251 F120.00
G01 X142.2231 Y-90.1271 F120.00
G01 X142.2291 Y-90.1303 F120.00
G01 X142.2351 Y-90.1353 F120.00
G01 X142.3398 Y-90.2400 F120.00
G01 X142.3448 Y-90.2460 F120.00
G01 X142.3481 Y-90.2521 F120.00
G01 X142.3501 Y-90.2586 F120.00
G01 X142.3507 Y-90.2655 F120.00
G01 X142.3506 Y-90.2689 F120.00
G01 X142.3492 Y-90.2756 F120.00
G01 X142.3481 Y-90.2789 F120.00
G01 X142.3448 Y-90.2849 F120.00
G01 X142.3428 Y-90.2877 F120.00
G01 X141.4043 Y-91.2265 F120.00
G01 X141.4010 Y-91.2294 F120.00
G01 X141.3953 Y-91.2333 F120.00
G01 X141.3890 Y-91.2359 F120.00
G01 X141.3822 Y-91.2372 F120.00
G01 X141.3754 Y-91.2372 F120.00
G01 X141.3686 Y-91.2359 F120.00
G01 X141.3623 Y-91.2333 F120.00
G01 X141.3566 Y-91.2294 F120.00
G01 X141.2487 Y-91.1218 F120.00
G01 X141.2436 Y-91.1158 F120.00
G01 X141.2404 Y-91.1097 F120.00
G01 X141.2384 Y-91.1032 F120.00
G01 X141.2377 Y-91.0963 F120.00
G01 X141.2379 Y-91.0929 F120.00
G01 X141.2392 Y-91.0862 F120.00
G01 X141.2404 Y-91.0829 F120.00
G01 X141.2436 Y-91.0769 F120.00
G01 X141.2457 Y-91.0741 F120.00
G01 X142.1842 Y-90.1353 F120.00
M5
G00 X142.5377 Y-90.4889
G01 F60.00
M03 S5000.0
G01 F120.00
G01 X142.5438 Y-90.4839 F120.00
G01 X142.5498 Y-90.4806 F120.00
G01 X142.5564 Y-90.4786 F120.00
G01 X142.5632 Y-90.4780 F120.00
G01 X142.5700 Y-90.4786 F120.00
G01 X142.5766 Y-90.4806 F120.00
G01 X142.5827 Y-90.4839 F120.00
G01 X142.5887 Y-90.4889 F120.00
G01 X142.6934 Y-90.5935 F120.00
G01 X142.6984 Y-90.5996 F120.00
G01 X142.7016 Y-90.6056 F120.00
G01 X142.7036 Y-90.6122 F120.00
G01 X142.7043 Y-90.6190 F120.00
G01 X142.7041 Y-90.6225 F120.00
G01 X142.7028 Y-90.6292 F120.00
G01 X142.7016 Y-90.6324 F120.00
G01 X142.6984 Y-90.6385 F120.00
G01 X142.6963 Y-90.6412 F120.00
G01 X141.7578 Y-91.5800 F120.00
G01 X141.7546 Y-91.5830 F120.00
G01 X141.7489 Y-91.5868 F120.00
G01 X141.7425 Y-91.5894 F120.00
G01 X141.7358 Y-91.5908 F120.00
G01 X141.7289 Y-91.5908 F120.00
G01 X141.7222 Y-91.5894 F120.00
G01 X141.7159 Y-91.5868 F120.00
G01 X141.7102 Y-91.5830 F120.00
G01 X141.6022 Y-91.4753 F120.00
G01 X141.5972 Y-91.4693 F120.00
G01 X141.5940 Y-91.4633 F120.00
G01 X141.5920 Y-91.4567 F120.00
G01 X141.5913 Y-91.4499 F120.00
G01 X141.5915 Y-91.4464 F120.00
G01 X141.5928 Y-91.4397 F120.00
G01 X141.5940 Y-91.4365 F120.00
G01 X141.5972 Y-91.4304 F120.00
G01 X141.5992 Y-91.4277 F120.00
G01 X142.5377 Y-90.4889 F120.00
M5
G00 X142.5085 Y-90.5181
G01 F60.00
M03 S5000.0
G01 F120.00
G01 X142.6179 Y-90.5181 F120.00
M5
G00 X142.6581 Y-90.5583
G01 F60.00
M03 S5000.0
G01 F120.00
G01 X142.4683 Y-90.5583 F120.00
M5
G00 X142.6976 Y-90.5985
G01 F60.00
M03 S5000.0
G01 F120.00
G01 X142.4281 Y-90.5985 F120.00
M5
G00 X142.6982 Y-90.6387
G01 F60.00
M03 S5000.0
G01 F120.00
G01 X142.3879 Y-90.6387 F120.00
M5
G00 X142.6589 Y-90.6789
G01 F60.00
M03 S5000.0
G01 F120.00
G01 X142.3477 Y-90.6789 F120.00
M5
G00 X142.6187 Y-90.7191
G01 F60.00
M03 S5000.0
G01 F120.00
G01 X142.3075 Y-90.7191 F120.00
M5
G00 X142.5785 Y-90.7593
G01 F60.00
M03 S5000.0
G01 F120.00
G01 X142.2673 Y-90.7593 F120.00
M5
G00 X142.5383 Y-90.7995
G01 F60.00
M03 S5000.0
G01 F120.00
G01 X142.2271 Y-90.7995 F120.00
M5
G00 X142.4981 Y-90.8397
G01 F60.00
M03 S5000.0
G01 F120.00
G01 X142.1869 Y-90.8397 F120.00
M5
G00 X142.4579 Y-90.8799
G01 F60.00
M03 S5000.0
G01 F120.00
G01 X142.1467 Y-90.8799 F120.00
M5
G00 X142.4177 Y-90.9201
G01 F60.00
M03 S5000.0
G01 F120.00
G01 X142.1065 Y-90.9201 F120.00
M5
G00 X142.3775 Y-90.9603
G01 F60.00
M03 S5000.0
G01 F120.00
G01 X142.0663 Y-90.9603 F120.00
M5
G00 X142.3373 Y-91.0005
G01 F60.00
M03 S5000.0
G01 F120.00
G01 X142.0261 Y-91.0005 F120.00
M5
G00 X142.2971 Y-91.0407
G01 F60.00
M03 S5000.0
G01 F120.00
G01 X141.9859 Y-91.0407 F120.00
M5
G00 X142.2569 Y-91.0809
G01 F60.00
M03 S5000.0
G01 F120.00
G01 X141.9457 Y-91.0809 F120.00
M5
G00 X142.2167 Y-91.1211
G01 F60.00
M03 S5000.0
G01 F120.00
G01 X141.9055 Y-91.1211 F120.00
M5
G00 X142.1765 Y-91.1613
G01 F60.00
M03 S5000.0
G01 F120.00
G01 X141.8653 Y-91.1613 F120.00
M5
G00 X142.1363 Y-91.2015
G01 F60.00
M03 S5000.0
G01 F120.00
G01 X141.8251 Y-91.2015 F120.00
M5
G00 X142.0961 Y-91.2417
G01 F60.00
M03 S5000.0
G01 F120.00
G01 X141.7849 Y-91.2417 F120.00
M5
G00 X142.0559 Y-91.2819
G01 F60.00
M03 S5000.0
G01 F120.00
G01 X141.7447 Y-91.2819 F120.00
M5
G00 X142.0157 Y-91.3221
G01 F60.00
M03 S5000.0
G01 F120.00
G01 X141.7045 Y-91.3221 F120.00
M5
G00 X141.9755 Y-91.3623
G01 F60.00
M03 S5000.0
G01 F120.00
G01 X141.6643 Y-91.3623 F120.00
M5
G00 X141.9353 Y-91.4025
G01 F60.00
M03 S5000.0
G01 F120.00
G01 X141.6241 Y-91.4025 F120.00
M5
G00 X141.8951 Y-91.4427
G01 F60.00
M03 S5000.0
G01 F120.00
G01 X141.5920 Y-91.4427 F120.00
M5
G00 X141.8549 Y-91.4829
G01 F60.00
M03 S5000.0
G01 F120.00
G01 X141.6098 Y-91.4829 F120.00
M5
G00 X141.8147 Y-91.5231
G01 F60.00
M03 S5000.0
G01 F120.00
G01 X141.6500 Y-91.5231 F120.00
M5
G00 X141.7745 Y-91.5633
G01 F60.00
M03 S5000.0
G01 F120.00
G01 X141.6902 Y-91.5633 F120.00
M5
G00 X141.9776 Y-91.7561
G01 F60.00
M03 S5000.0
G01 F120.00
G01 X142.2889 Y-91.7561 F120.00
M5
G00 X142.3291 Y-91.7159
G01 F60.00
M03 S5000.0
G01 F120.00
G01 X142.0178 Y-91.7159 F120.00
M5
G00 X142.3693 Y-91.6757
G01 F60.00
M03 S5000.0
G01 F120.00
G01 X142.0580 Y-91.6757 F120.00
M5
G00 X142.4095 Y-91.6355
G01 F60.00
M03 S5000.0
G01 F120.00
G01 X142.0982 Y-91.6355 F120.00
M5
G00 X142.4497 Y-91.5953
G01 F60.00
M03 S5000.0
G01 F120.00
G01 X142.1384 Y-91.5953 F120.00
M5
G00 X142.4899 Y-91.5551
G01 F60.00
M03 S5000.0
G01 F120.00
G01 X142.1786 Y-91.5551 F120.00
M5
G00 X142.5301 Y-91.5149
G01 F60.00
M03 S5000.0
G01 F120.00
G01 X142.2188 Y-91.5149 F120.00
M5
G00 X142.5703 Y-91.4747
G01 F60.00
M03 S5000.0
G01 F120.00
G01 X142.2590 Y-91.4747 F120.00
M5
G00 X142.6105 Y-91.4345
G01 F60.00
M03 S5000.0
G01 F120.00
G01 X142.2992 Y-91.4345 F120.00
M5
G00 X142.6507 Y-91.3943
G01 F60.00
M03 S5000.0
G01 F120.00
G01 X142.3394 Y-91.3943 F120.00
M5
G00 X142.6909 Y-91.3541
G01 F60.00
M03 S5000.0
G01 F120.00
G01 X142.3796 Y-91.3541 F120.00
M5
G00 X142.7311 Y-91.3139
G01 F60.00
M03 S5000.0
G01 F120.00
G01 X142.4198 Y-91.3139 F120.00
M5
G00 X142.7713 Y-91.2737
G01 F60.00
M03 S5000.0
G01 F120.00
G01 X142.4600 Y-91.2737 F120.00
M5
G00 X142.8115 Y-91.2335
G01 F60.00
M03 S5000.0
G01 F120.00
G01 X142.5002 Y-91.2335 F120.00
M5
G00 X142.8517 Y-91.1933
G01 F60.00
M03 S5000.0
G01 F120.00
G01 X142.5404 Y-91.1933 F120.00
M5
G00 X142.8919 Y-91.1531
G01 F60.00
M03 S5000.0
G01 F120.00
G01 X142.5806 Y-91.1531 F120.00
M5
G00 X142.9321 Y-91.1129
G01 F60.00
M03 S5000.0
G01 F120.00
G01 X142.6208 Y-91.1129 F120.00
M5
G00 X142.9723 Y-91.0727
G01 F60.00
M03 S5000.0
G01 F120.00
G01 X142.6610 Y-91.0727 F120.00
M5
G00 X143.0125 Y-91.0325
G01 F60.00
M03 S5000.0
G01 F120.00
G01 X142.7012 Y-91.0325 F120.00
M5
G00 X143.0517 Y-90.9923
G01 F60.00
M03 S5000.0
G01 F120.00
G01 X142.7414 Y-90.9923 F120.00
M5
G00 X143.0511 Y-90.9521
G01 F60.00
M03 S5000.0
G01 F120.00
G01 X142.7816 Y-90.9521 F120.00
M5
G00 X143.0117 Y-90.9119
G01 F60.00
M03 S5000.0
G01 F120.00
G01 X142.8218 Y-90.9119 F120.00
M5
G00 X142.9715 Y-90.8717
G01 F60.00
M03 S5000.0
G01 F120.00
G01 X142.8620 Y-90.8717 F120.00
M5
G00 X142.8913 Y-90.8424
G01 F60.00
M03 S5000.0
G01 F120.00
G01 X142.8973 Y-90.8374 F120.00
G01 X142.9034 Y-90.8342 F120.00
G01 X142.9099 Y-90.8322 F120.00
G01 X142.9168 Y-90.8315 F120.00
G01 X142.9236 Y-90.8322 F120.00
G01 X142.9302 Y-90.8342 F120.00
G01 X142.9362 Y-90.8374 F120.00
G01 X142.9422 Y-90.8424 F120.00
G01 X143.0469 Y-90.9471 F120.00
G01 X143.0519 Y-90.9531 F120.00
G01 X143.0552 Y-90.9592 F120.00
G01 X143.0572 Y-90.9657 F120.00
G01 X143.0578 Y-90.9726 F120.00
G01 X143.0577 Y-90.9760 F120.00
G01 X143.0563 Y-90.9827 F120.00
G01 X143.0552 Y-90.9860 F120.00
G01 X143.0519 Y-90.9920 F120.00
G01 X143.0499 Y-90.9948 F120.00
G01 X142.1114 Y-91.9336 F120.00
G01 X142.1081 Y-91.9366 F120.00
G01 X142.1024 Y-91.9404 F120.00
G01 X142.0961 Y-91.9430 F120.00
G01 X142.0893 Y-91.9443 F120.00
G01 X142.0825 Y-91.9443 F120.00
G01 X142.0758 Y-91.9430 F120.00
G01 X142.0694 Y-91.9404 F120.00
G01 X142.0637 Y-91.9365 F120.00
G01 X141.9558 Y-91.8289 F120.00
G01 X141.9507 Y-91.8229 F120.00
G01 X141.9475 Y-91.8168 F120.00
G01 X141.9455 Y-91.8103 F120.00
G01 X141.9448 Y-91.8034 F120.00
G01 X141.9450 Y-91.8000 F120.00
G01 X141.9464 Y-91.7933 F120.00
G01 X141.9475 Y-91.7900 F120.00
G01 X141.9507 Y-91.7840 F120.00
G01 X141.9528 Y-91.7812 F120.00
G01 X142.8913 Y-90.8424 F120.00
M5
G00 X143.2448 Y-91.1960
G01 F60.00
M03 S5000.0
G01 F120.00
G01 X143.2509 Y-91.1910 F120.00
G01 X143.2569 Y-91.1877 F120.00
G01 X143.2635 Y-91.1857 F120.00
G01 X143.2703 Y-91.1851 F120.00
G01 X143.2771 Y-91.1857 F120.00
G01 X143.2837 Y-91.1877 F120.00
G01 X143.2898 Y-91.1910 F120.00
G01 X143.2958 Y-91.1960 F120.00
G01 X143.4005 Y-91.3007 F120.00
G01 X143.4055 Y-91.3067 F120.00
G01 X143.4087 Y-91.3127 F120.00
G01 X143.4107 Y-91.3193 F120.00
G01 X143.4114 Y-91.3261 F120.00
G01 X143.4112 Y-91.3296 F120.00
G01 X143.4099 Y-91.3363 F120.00
G01 X143.4087 Y-91.3395 F120.00
G01 X143.4055 Y-91.3456 F120.00
G01 X143.4034 Y-91.3483 F120.00
G01 X142.4649 Y-92.2871 F120.00
G01 X142.4617 Y-92.2901 F120.00
G01 X142.4560 Y-92.2939 F120.00
G01 X142.4496 Y-92.2965 F120.00
G01 X142.4429 Y-92.2979 F120.00
G01 X142.4360 Y-92.2979 F120.00
G01 X142.4293 Y-92.2965 F120.00
G01 X142.4230 Y-92.2939 F120.00
G01 X142.4173 Y-92.2901 F120.00
G01 X142.3093 Y-92.1825 F120.00
G01 X142.3043 Y-92.1764 F120.00
G01 X142.3011 Y-92.1704 F120.00
G01 X142.2991 Y-92.1638 F120.00
G01 X142.2984 Y-92.1570 F120.00
G01 X142.2986 Y-92.1536 F120.00
G01 X142.2999 Y-92.1468 F120.00
G01 X142.3011 Y-92.1436 F120.00
G01 X142.3043 Y-92.1375 F120.00
G01 X142.3063 Y-92.1348 F120.00
G01 X143.2448 Y-91.1960 F120.00
M5
G00 X143.2156 Y-91.2252
G01 F60.00
M03 S5000.0
G01 F120.00
G01 X143.3250 Y-91.2252 F120.00
M5
G00 X143.3652 Y-91.2654
G01 F60.00
M03 S5000.0
G01 F120.00
G01 X143.1754 Y-91.2654 F120.00
M5
G00 X143.4047 Y-91.3056
G01 F60.00
M03 S5000.0
G01 F120.00
G01 X143.1352 Y-91.3056 F120.00
M5
G00 X143.4053 Y-91.3458
G01 F60.00
M03 S5000.0
G01 F120.00
G01 X143.0950 Y-91.3458 F120.00
M5
G00 X143.3661 Y-91.3860
G01 F60.00
M03 S5000.0
G01 F120.00
G01 X143.0548 Y-91.3860 F120.00
M5
G00 X143.3259 Y-91.4262
G01 F60.00
M03 S5000.0
G01 F120.00
G01 X143.0146 Y-91.4262 F120.00
M5
G00 X143.2857 Y-91.4664
G01 F60.00
M03 S5000.0
G01 F120.00
G01 X142.9744 Y-91.4664 F120.00
M5
G00 X143.2455 Y-91.5066
G01 F60.00
M03 S5000.0
G01 F120.00
G01 X142.9342 Y-91.5066 F120.00
M5
G00 X143.2053 Y-91.5468
G01 F60.00
M03 S5000.0
G01 F120.00
G01 X142.8940 Y-91.5468 F120.00
M5
G00 X143.1651 Y-91.5870
G01 F60.00
M03 S5000.0
G01 F120.00
G01 X142.8538 Y-91.5870 F120.00
M5
G00 X143.1249 Y-91.6272
G01 F60.00
M03 S5000.0
G01 F120.00
G01 X142.8136 Y-91.6272 F120.00
M5
G00 X143.0847 Y-91.6674
G01 F60.00
M03 S5000.0
G01 F120.00
G01 X142.7734 Y-91.6674 F120.00
M5
G00 X143.0445 Y-91.7076
G01 F60.00
M03 S5000.0
G01 F120.00
G01 X142.7332 Y-91.7076 F120.00
M5
G00 X143.0043 Y-91.7478
G01 F60.00
M03 S5000.0
G01 F120.00
G01 X142.6930 Y-91.7478 F120.00
M5
G00 X142.9641 Y-91.7880
G01 F60.00
M03 S5000.0
G01 F120.00
G01 X142.6528 Y-91.7880 F120.00
M5
G00 X142.9239 Y-91.8282
G01 F60.00
M03 S5000.0
G01 F120.00
G01 X142.6126 Y-91.8282 F120.00
M5
G00 X142.8837 Y-91.8684
G01 F60.00
M03 S5000.0
G01 F120.00
G01 X142.5724 Y-91.8684 F120.00
M5
G00 X142.8435 Y-91.9086
G01 F60.00
M03 S5000.0
G01 F120.00
G01 X142.5322 Y-91.9086 F120.00
M5
G00 X142.8033 Y-91.9488
G01 F60.00
M03 S5000.0
G01 F120.00
G01 X142.4920 Y-91.9488 F120.00
M5
G00 X142.7631 Y-91.9890
G01 F60.00
M03 S5000.0
G01 F120.00
G01 X142.4518 Y-91.9890 F120.00
M5
G00 X142.7229 Y-92.0292
G01 F60.00
M03 S5000.0
G01 F120.00
G01 X142.4116 Y-92.0292 F120.00
M5
G00 X142.6827 Y-92.0694
G01 F60.00
M03 S5000.0
G01 F120.00
G01 X142.3714 Y-92.0694 F120.00
M5
G00 X142.6425 Y-92.1096
G01 F60.00
M03 S5000.0
G01 F120.00
G01 X142.3312 Y-92.1096 F120.00
M5
G00 X142.6023 Y-92.1498
G01 F60.00
M03 S5000.0
G01 F120.00
G01 X142.2992 Y-92.1498 F120.00
M5
G00 X142.5621 Y-92.1900
G01 F60.00
M03 S5000.0
G01 F120.00
G01 X142.3169 Y-92.1900 F120.00
M5
G00 X142.5219 Y-92.2302
G01 F60.00
M03 S5000.0
G01 F120.00
G01 X142.3571 Y-92.2302 F120.00
M5
G00 X142.4817 Y-92.2704
G01 F60.00
M03 S5000.0
G01 F120.00
G01 X142.3973 Y-92.2704 F120.00
M5
G00 X142.6847 Y-92.4632
G01 F60.00
M03 S5000.0
G01 F120.00
G01 X142.9960 Y-92.4632 F120.00
M5
G00 X142.9558 Y-92.5034
G01 F60.00
M03 S5000.0
G01 F120.00
G01 X142.6527 Y-92.5034 F120.00
M5
G00 X142.9156 Y-92.5436
G01 F60.00
M03 S5000.0
G01 F120.00
G01 X142.6704 Y-92.5436 F120.00
M5
G00 X142.8754 Y-92.5838
G01 F60.00
M03 S5000.0
G01 F120.00
G01 X142.7106 Y-92.5838 F120.00
M5
G00 X142.8352 Y-92.6240
G01 F60.00
M03 S5000.0
G01 F120.00
G01 X142.7508 Y-92.6240 F120.00
M5
G00 X142.7249 Y-92.4230
G01 F60.00
M03 S5000.0
G01 F120.00
G01 X143.0362 Y-92.4230 F120.00
M5
G00 X143.0764 Y-92.3828
G01 F60.00
M03 S5000.0
G01 F120.00
G01 X142.7651 Y-92.3828 F120.00
M5
G00 X143.1166 Y-92.3426
G01 F60.00
M03 S5000.0
G01 F120.00
G01 X142.8053 Y-92.3426 F120.00
M5
G00 X143.1568 Y-92.3024
G01 F60.00
M03 S5000.0
G01 F120.00
G01 X142.8455 Y-92.3024 F120.00
M5
G00 X143.1970 Y-92.2622
G01 F60.00
M03 S5000.0
G01 F120.00
G01 X142.8857 Y-92.2622 F120.00
M5
G00 X143.2372 Y-92.2220
G01 F60.00
M03 S5000.0
G01 F120.00
G01 X142.9259 Y-92.2220 F120.00
M5
G00 X143.2774 Y-92.1818
G01 F60.00
M03 S5000.0
G01 F120.00
G01 X142.9661 Y-92.1818 F120.00
M5
G00 X143.3176 Y-92.1416
G01 F60.00
M03 S5000.0
G01 F120.00
G01 X143.0063 Y-92.1416 F120.00
M5
G00 X143.3578 Y-92.1014
G01 F60.00
M03 S5000.0
G01 F120.00
G01 X143.0465 Y-92.1014 F120.00
M5
G00 X143.3980 Y-92.0612
G01 F60.00
M03 S5000.0
G01 F120.00
G01 X143.0867 Y-92.0612 F120.00
M5
G00 X143.4382 Y-92.0210
G01 F60.00
M03 S5000.0
G01 F120.00
G01 X143.1269 Y-92.0210 F120.00
M5
G00 X143.4784 Y-91.9808
G01 F60.00
M03 S5000.0
G01 F120.00
G01 X143.1671 Y-91.9808 F120.00
M5
G00 X143.5186 Y-91.9406
G01 F60.00
M03 S5000.0
G01 F120.00
G01 X143.2073 Y-91.9406 F120.00
M5
G00 X143.5588 Y-91.9004
G01 F60.00
M03 S5000.0
G01 F120.00
G01 X143.2475 Y-91.9004 F120.00
M5
G00 X143.5990 Y-91.8602
G01 F60.00
M03 S5000.0
G01 F120.00
G01 X143.2877 Y-91.8602 F120.00
M5
G00 X143.6392 Y-91.8200
G01 F60.00
M03 S5000.0
G01 F120.00
G01 X143.3279 Y-91.8200 F120.00
M5
G00 X143.6794 Y-91.7798
G01 F60.00
M03 S5000.0
G01 F120.00
G01 X143.3681 Y-91.7798 F120.00
M5
G00 X143.7196 Y-91.7396
G01 F60.00
M03 S5000.0
G01 F120.00
G01 X143.4083 Y-91.7396 F120.00
M5
G00 X143.7589 Y-91.6994
G01 F60.00
M03 S5000.0
G01 F120.00
G01 X143.4485 Y-91.6994 F120.00
M5
G00 X143.7583 Y-91.6592
G01 F60.00
M03 S5000.0
G01 F120.00
G01 X143.4887 Y-91.6592 F120.00
M5
G00 X143.7188 Y-91.6190
G01 F60.00
M03 S5000.0
G01 F120.00
G01 X143.5289 Y-91.6190 F120.00
M5
G00 X143.6786 Y-91.5788
G01 F60.00
M03 S5000.0
G01 F120.00
G01 X143.5691 Y-91.5788 F120.00
M5
G00 X143.5984 Y-91.5495
G01 F60.00
M03 S5000.0
G01 F120.00
G01 X143.6044 Y-91.5445 F120.00
G01 X143.6105 Y-91.5413 F120.00
G01 X143.6170 Y-91.5393 F120.00
G01 X143.6239 Y-91.5386 F120.00
G01 X143.6307 Y-91.5393 F120.00
G01 X143.6373 Y-91.5413 F120.00
G01 X143.6433 Y-91.5445 F120.00
G01 X143.6493 Y-91.5495 F120.00
G01 X143.7540 Y-91.6542 F120.00
G01 X143.7590 Y-91.6602 F120.00
G01 X143.7623 Y-91.6663 F120.00
G01 X143.7643 Y-91.6729 F120.00
G01 X143.7649 Y-91.6797 F120.00
G01 X143.7648 Y-91.6831 F120.00
G01 X143.7634 Y-91.6898 F120.00
G01 X143.7623 Y-91.6931 F120.00
G01 X143.7590 Y-91.6991 F120.00
G01 X143.7570 Y-91.7019 F120.00
G01 X142.8185 Y-92.6407 F120.00
G01 X142.8152 Y-92.6437 F120.00
G01 X142.8095 Y-92.6475 F120.00
G01 X142.8032 Y-92.6501 F120.00
G01 X142.7964 Y-92.6514 F120.00
G01 X142.7896 Y-92.6514 F120.00
G01 X142.7829 Y-92.6501 F120.00
G01 X142.7765 Y-92.6475 F120.00
G01 X142.7708 Y-92.6437 F120.00
G01 X142.6629 Y-92.5360 F120.00
G01 X142.6578 Y-92.5300 F120.00
G01 X142.6546 Y-92.5239 F120.00
G01 X142.6526 Y-92.5174 F120.00
G01 X142.6520 Y-92.5105 F120.00
G01 X142.6521 Y-92.5071 F120.00
G01 X142.6535 Y-92.5004 F120.00
G01 X142.6546 Y-92.4971 F120.00
G01 X142.6578 Y-92.4911 F120.00
G01 X142.6599 Y-92.4883 F120.00
G01 X143.5984 Y-91.5495 F120.00
M5
G00 X143.9519 Y-91.9031
G01 F60.00
M03 S5000.0
G01 F120.00
G01 X143.9580 Y-91.8981 F120.00
G01 X143.9640 Y-91.8948 F120.00
G01 X143.9706 Y-91.8928 F120.00
G01 X143.9774 Y-91.8922 F120.00
G01 X143.9843 Y-91.8928 F120.00
G01 X143.9908 Y-91.8948 F120.00
G01 X143.9969 Y-91.8981 F120.00
G01 X144.0029 Y-91.9031 F120.00
G01 X144.1076 Y-92.0078 F120.00
G01 X144.1126 Y-92.0138 F120.00
G01 X144.1158 Y-92.0198 F120.00
G01 X144.1178 Y-92.0264 F120.00
G01 X144.1185 Y-92.0332 F120.00
G01 X144.1183 Y-92.0367 F120.00
G01 X144.1170 Y-92.0434 F120.00
G01 X144.1158 Y-92.0466 F120.00
G01 X144.1126 Y-92.0527 F120.00
G01 X144.1105 Y-92.0554 F120.00
G01 X143.1721 Y-92.9942 F120.00
G01 X143.1688 Y-92.9972 F120.00
G01 X143.1631 Y-93.0010 F120.00
G01 X143.1567 Y-93.0036 F120.00
G01 X143.1500 Y-93.0050 F120.00
G01 X143.1431 Y-93.0050 F120.00
G01 X143.1364 Y-93.0036 F120.00
G01 X143.1301 Y-93.0010 F120.00
G01 X143.1244 Y-92.9972 F120.00
G01 X143.0164 Y-92.8896 F120.00
G01 X143.0114 Y-92.8835 F120.00
G01 X143.0082 Y-92.8775 F120.00
G01 X143.0062 Y-92.8709 F120.00
G01 X143.0055 Y-92.8641 F120.00
G01 X143.0057 Y-92.8607 F120.00
G01 X143.0070 Y-92.8539 F120.00
G01 X143.0082 Y-92.8507 F120.00
G01 X143.0114 Y-92.8446 F120.00
G01 X143.0135 Y-92.8419 F120.00
G01 X143.9519 Y-91.9031 F120.00
M5
G00 X143.9227 Y-91.9323
G01 F60.00
M03 S5000.0
G01 F120.00
G01 X144.0322 Y-91.9323 F120.00
M5
G00 X144.0724 Y-91.9725
G01 F60.00
M03 S5000.0
G01 F120.00
G01 X143.8825 Y-91.9725 F120.00
M5
G00 X144.1118 Y-92.0127
G01 F60.00
M03 S5000.0
G01 F120.00
G01 X143.8423 Y-92.0127 F120.00
M5
G00 X144.1124 Y-92.0529
G01 F60.00
M03 S5000.0
G01 F120.00
G01 X143.8021 Y-92.0529 F120.00
M5
G00 X144.0732 Y-92.0931
G01 F60.00
M03 S5000.0
G01 F120.00
G01 X143.7619 Y-92.0931 F120.00
M5
G00 X144.0330 Y-92.1333
G01 F60.00
M03 S5000.0
G01 F120.00
G01 X143.7217 Y-92.1333 F120.00
M5
G00 X143.9928 Y-92.1735
G01 F60.00
M03 S5000.0
G01 F120.00
G01 X143.6815 Y-92.1735 F120.00
M5
G00 X143.9526 Y-92.2137
G01 F60.00
M03 S5000.0
G01 F120.00
G01 X143.6413 Y-92.2137 F120.00
M5
G00 X143.9124 Y-92.2539
G01 F60.00
M03 S5000.0
G01 F120.00
G01 X143.6011 Y-92.2539 F120.00
M5
G00 X143.8722 Y-92.2941
G01 F60.00
M03 S5000.0
G01 F120.00
G01 X143.5609 Y-92.2941 F120.00
M5
G00 X143.8320 Y-92.3343
G01 F60.00
M03 S5000.0
G01 F120.00
G01 X143.5207 Y-92.3343 F120.00
M5
G00 X143.7918 Y-92.3745
G01 F60.00
M03 S5000.0
G01 F120.00
G01 X143.4805 Y-92.3745 F120.00
M5
G00 X143.7516 Y-92.4147
G01 F60.00
M03 S5000.0
G01 F120.00
G01 X143.4403 Y-92.4147 F120.00
M5
G00 X143.7114 Y-92.4549
G01 F60.00
M03 S5000.0
G01 F120.00
G01 X143.4001 Y-92.4549 F120.00
M5
G00 X143.6712 Y-92.4951
G01 F60.00
M03 S5000.0
G01 F120.00
G01 X143.3599 Y-92.4951 F120.00
M5
G00 X143.6310 Y-92.5353
G01 F60.00
M03 S5000.0
G01 F120.00
G01 X143.3197 Y-92.5353 F120.00
M5
G00 X143.5908 Y-92.5755
G01 F60.00
M03 S5000.0
G01 F120.00
G01 X143.2795 Y-92.5755 F120.00
M5
G00 X143.5506 Y-92.6157
G01 F60.00
M03 S5000.0
G01 F120.00
G01 X143.2393 Y-92.6157 F120.00
M5
G00 X143.5104 Y-92.6559
G01 F60.00
M03 S5000.0
G01 F120.00
G01 X143.1991 Y-92.6559 F120.00
M5
G00 X143.4702 Y-92.6961
G01 F60.00
M03 S5000.0
G01 F120.00
G01 X143.1589 Y-92.6961 F120.00
M5
G00 X143.4300 Y-92.7363
G01 F60.00
M03 S5000.0
G01 F120.00
G01 X143.1187 Y-92.7363 F120.00
M5
G00 X143.3898 Y-92.7765
G01 F60.00
M03 S5000.0
G01 F120.00
G01 X143.0785 Y-92.7765 F120.00
M5
G00 X143.3496 Y-92.8167
G01 F60.00
M03 S5000.0
G01 F120.00
G01 X143.0383 Y-92.8167 F120.00
M5
G00 X143.3094 Y-92.8569
G01 F60.00
M03 S5000.0
G01 F120.00
G01 X143.0063 Y-92.8569 F120.00
M5
G00 X143.2692 Y-92.8971
G01 F60.00
M03 S5000.0
G01 F120.00
G01 X143.0240 Y-92.8971 F120.00
M5
G00 X143.2290 Y-92.9373
G01 F60.00
M03 S5000.0
G01 F120.00
G01 X143.0642 Y-92.9373 F120.00
M5
G00 X143.1888 Y-92.9775
G01 F60.00
M03 S5000.0
G01 F120.00
G01 X143.1044 Y-92.9775 F120.00
M5
G00 X143.3918 Y-93.1703
G01 F60.00
M03 S5000.0
G01 F120.00
G01 X143.7031 Y-93.1703 F120.00
M5
G00 X143.6629 Y-93.2105
G01 F60.00
M03 S5000.0
G01 F120.00
G01 X143.3598 Y-93.2105 F120.00
M5
G00 X143.6227 Y-93.2507
G01 F60.00
M03 S5000.0
G01 F120.00
G01 X143.3775 Y-93.2507 F120.00
M5
G00 X143.5825 Y-93.2909
G01 F60.00
M03 S5000.0
G01 F120.00
G01 X143.4177 Y-93.2909 F120.00
M5
G00 X143.5423 Y-93.3311
G01 F60.00
M03 S5000.0
G01 F120.00
G01 X143.4579 Y-93.3311 F120.00
M5
G00 X143.4320 Y-93.1301
G01 F60.00
M03 S5000.0
G01 F120.00
G01 X143.7433 Y-93.1301 F120.00
M5
G00 X143.7835 Y-93.0899
G01 F60.00
M03 S5000.0
G01 F120.00
G01 X143.4722 Y-93.0899 F120.00
M5
G00 X143.8237 Y-93.0497
G01 F60.00
M03 S5000.0
G01 F120.00
G01 X143.5124 Y-93.0497 F120.00
M5
G00 X143.8639 Y-93.0095
G01 F60.00
M03 S5000.0
G01 F120.00
G01 X143.5526 Y-93.0095 F120.00
M5
G00 X143.9041 Y-92.9693
G01 F60.00
M03 S5000.0
G01 F120.00
G01 X143.5928 Y-92.9693 F120.00
M5
G00 X143.9443 Y-92.9291
G01 F60.00
M03 S5000.0
G01 F120.00
G01 X143.6330 Y-92.9291 F120.00
M5
G00 X143.9845 Y-92.8889
G01 F60.00
M03 S5000.0
G01 F120.00
G01 X143.6732 Y-92.8889 F120.00
M5
G00 X144.0247 Y-92.8487
G01 F60.00
M03 S5000.0
G01 F120.00
G01 X143.7134 Y-92.8487 F120.00
M5
G00 X144.0649 Y-92.8085
G01 F60.00
M03 S5000.0
G01 F120.00
G01 X143.7536 Y-92.8085 F120.00
M5
G00 X144.1051 Y-92.7683
G01 F60.00
M03 S5000.0
G01 F120.00
G01 X143.7938 Y-92.7683 F120.00
M5
G00 X144.1453 Y-92.7281
G01 F60.00
M03 S5000.0
G01 F120.00
G01 X143.8340 Y-92.7281 F120.00
M5
G00 X144.1855 Y-92.6879
G01 F60.00
M03 S5000.0
G01 F120.00
G01 X143.8742 Y-92.6879 F120.00
M5
G00 X144.2257 Y-92.6477
G01 F60.00
M03 S5000.0
G01 F120.00
G01 X143.9144 Y-92.6477 F120.00
M5
G00 X144.2659 Y-92.6075
G01 F60.00
M03 S5000.0
G01 F120.00
G01 X143.9546 Y-92.6075 F120.00
M5
G00 X144.3061 Y-92.5673
G01 F60.00
M03 S5000.0
G01 F120.00
G01 X143.9948 Y-92.5673 F120.00
M5
G00 X144.3463 Y-92.5271
G01 F60.00
M03 S5000.0
G01 F120.00
G01 X144.0350 Y-92.5271 F120.00
M5
G00 X144.3865 Y-92.4869
G01 F60.00
M03 S5000.0
G01 F120.00
G01 X144.0752 Y-92.4869 F120.00
M5
G00 X144.4267 Y-92.4467
G01 F60.00
M03 S5000.0
G01 F120.00
G01 X144.1154 Y-92.4467 F120.00
M5
G00 X144.4660 Y-92.4065
G01 F60.00
M03 S5000.0
G01 F120.00
G01 X144.1556 Y-92.4065 F120.00
M5
G00 X144.4654 Y-92.3663
G01 F60.00
M03 S5000.0
G01 F120.00
G01 X144.1958 Y-92.3663 F120.00
M5
G00 X144.4259 Y-92.3261
G01 F60.00
M03 S5000.0
G01 F120.00
G01 X144.2360 Y-92.3261 F120.00
M5
G00 X144.3857 Y-92.2859
G01 F60.00
M03 S5000.0
G01 F120.00
G01 X144.2762 Y-92.2859 F120.00
M5
G00 X144.3055 Y-92.2566
G01 F60.00
M03 S5000.0
G01 F120.00
G01 X144.3115 Y-92.2516 F120.00
G01 X144.3176 Y-92.2484 F120.00
G01 X144.3242 Y-92.2464 F120.00
G01 X144.3310 Y-92.2457 F120.00
G01 X144.3378 Y-92.2464 F120.00
G01 X144.3444 Y-92.2484 F120.00
G01 X144.3504 Y-92.2516 F120.00
G01 X144.3565 Y-92.2566 F120.00
G01 X144.4611 Y-92.3613 F120.00
G01 X144.4661 Y-92.3673 F120.00
G01 X144.4694 Y-92.3734 F120.00
G01 X144.4714 Y-92.3800 F120.00
G01 X144.4720 Y-92.3868 F120.00
G01 X144.4719 Y-92.3902 F120.00
G01 X144.4705 Y-92.3970 F120.00
G01 X144.4694 Y-92.4002 F120.00
G01 X144.4661 Y-92.4062 F120.00
G01 X144.4641 Y-92.4090 F120.00
G01 X143.5256 Y-93.3478 F120.00
G01 X143.5223 Y-93.3508 F120.00
G01 X143.5166 Y-93.3546 F120.00
G01 X143.5103 Y-93.3572 F120.00
G01 X143.5036 Y-93.3585 F120.00
G01 X143.4967 Y-93.3585 F120.00
G01 X143.4900 Y-93.3572 F120.00
G01 X143.4836 Y-93.3546 F120.00
G01 X143.4779 Y-93.3508 F120.00
G01 X143.3700 Y-93.2431 F120.00
G01 X143.3650 Y-93.2371 F120.00
G01 X143.3617 Y-93.2310 F120.00
G01 X143.3597 Y-93.2245 F120.00
G01 X143.3591 Y-93.2176 F120.00
G01 X143.3592 Y-93.2142 F120.00
G01 X143.3606 Y-93.2075 F120.00
G01 X143.3617 Y-93.2042 F120.00
G01 X143.3650 Y-93.1982 F120.00
G01 X143.3670 Y-93.1954 F120.00
G01 X144.3055 Y-92.2566 F120.00
M5
G00 X144.6591 Y-92.6102
G01 F60.00
M03 S5000.0
G01 F120.00
G01 X144.6651 Y-92.6052 F120.00
G01 X144.6711 Y-92.6019 F120.00
G01 X144.6777 Y-92.5999 F120.00
G01 X144.6845 Y-92.5993 F120.00
G01 X144.6914 Y-92.5999 F120.00
G01 X144.6979 Y-92.6019 F120.00
G01 X144.7040 Y-92.6052 F120.00
G01 X144.7100 Y-92.6102 F120.00
G01 X144.8147 Y-92.7149 F120.00
G01 X144.8197 Y-92.7209 F120.00
G01 X144.8229 Y-92.7269 F120.00
G01 X144.8249 Y-92.7335 F120.00
G01 X144.8256 Y-92.7403 F120.00
G01 X144.8254 Y-92.7438 F120.00
G01 X144.8241 Y-92.7505 F120.00
G01 X144.8229 Y-92.7537 F120.00
G01 X144.8197 Y-92.7598 F120.00
G01 X144.8177 Y-92.7625 F120.00
G01 X143.8792 Y-93.7013 F120.00
G01 X143.8759 Y-93.7043 F120.00
G01 X143.8702 Y-93.7081 F120.00
G01 X143.8638 Y-93.7108 F120.00
G01 X143.8571 Y-93.7121 F120.00
G01 X143.8502 Y-93.7121 F120.00
G01 X143.8435 Y-93.7108 F120.00
G01 X143.8372 Y-93.7081 F120.00
G01 X143.8315 Y-93.7043 F120.00
G01 X143.7235 Y-93.5967 F120.00
G01 X143.7185 Y-93.5906 F120.00
G01 X143.7153 Y-93.5846 F120.00
G01 X143.7133 Y-93.5780 F120.00
G01 X143.7126 Y-93.5712 F120.00
G01 X143.7128 Y-93.5678 F120.00
G01 X143.7141 Y-93.5610 F120.00
G01 X143.7153 Y-93.5578 F120.00
G01 X143.7185 Y-93.5517 F120.00
G01 X143.7206 Y-93.5490 F120.00
G01 X144.6591 Y-92.6102 F120.00
M5
G00 X144.6298 Y-92.6394
G01 F60.00
M03 S5000.0
G01 F120.00
G01 X144.7393 Y-92.6394 F120.00
M5
G00 X144.7795 Y-92.6796
G01 F60.00
M03 S5000.0
G01 F120.00
G01 X144.5896 Y-92.6796 F120.00
M5
G00 X144.8189 Y-92.7198
G01 F60.00
M03 S5000.0
G01 F120.00
G01 X144.5494 Y-92.7198 F120.00
M5
G00 X144.8195 Y-92.7600
G01 F60.00
M03 S5000.0
G01 F120.00
G01 X144.5092 Y-92.7600 F120.00
M5
G00 X144.7803 Y-92.8002
G01 F60.00
M03 S5000.0
G01 F120.00
G01 X144.4690 Y-92.8002 F120.00
M5
G00 X144.7401 Y-92.8404
G01 F60.00
M03 S5000.0
G01 F120.00
G01 X144.4288 Y-92.8404 F120.00
M5
G00 X144.6999 Y-92.8806
G01 F60.00
M03 S5000.0
G01 F120.00
G01 X144.3886 Y-92.8806 F120.00
M5
G00 X144.6597 Y-92.9208
G01 F60.00
M03 S5000.0
G01 F120.00
G01 X144.3484 Y-92.9208 F120.00
M5
G00 X144.6195 Y-92.9610
G01 F60.00
M03 S5000.0
G01 F120.00
G01 X144.3082 Y-92.9610 F120.00
M5
G00 X144.5793 Y-93.0012
G01 F60.00
M03 S5000.0
G01 F120.00
G01 X144.2680 Y-93.0012 F120.00
M5
G00 X144.5391 Y-93.0414
G01 F60.00
M03 S5000.0
G01 F120.00
G01 X144.2278 Y-93.0414 F120.00
M5
G00 X144.4989 Y-93.0816
G01 F60.00
M03 S5000.0
G01 F120.00
