(G-CODE GENERATED BY FLATCAM v8.994 - www.flatcam.org - Version Date: 2020/11/7)

(Name: Front Paste_edit_mt_paint_cnc)
(Type: G-code from Geometry)
(Units: MM)

(Created on Friday, 13 June 2025 at 07:19)

(This preprocessor is used with a motion controller loaded with GRBL firmware. )
(It is for the case when it is used together with a LASER connected on the SPINDLE connector.)

(Feedrate: 120.0 mm/min)
(Feedrate rapids: 1500.0 mm/min)

(Z Focus: 2.0 mm)
(Steps per circle: 64)
(Preprocessor Geometry: GRBL_laser)

(X range:  128.5301 ...  178.0400  mm)
(Y range: -118.5699 ...  -74.5301  mm)

(Laser Power - Spindle Speed: 5000.0)

G21
G90
G17
G94

G01 F120.00

M5
G01 F120.00
G00 X130.9618 Y-77.0854
G01 F60.00
M03 S5000.0
G01 F120.00
G01 X133.2382 Y-77.0854 F120.00
G01 X133.2450 Y-77.1256 F120.00
G01 X130.9550 Y-77.1256 F120.00
G01 X130.9550 Y-77.1658 F120.00
G01 X133.2450 Y-77.1658 F120.00
G01 X133.2450 Y-77.2060 F120.00
G01 X130.9550 Y-77.2060 F120.00
G01 X130.9550 Y-77.2462 F120.00
G01 X133.2450 Y-77.2462 F120.00
G01 X133.2450 Y-77.2864 F120.00
G01 X130.9550 Y-77.2864 F120.00
G01 X130.9550 Y-77.3266 F120.00
G01 X133.2450 Y-77.3266 F120.00
G01 X133.2450 Y-77.3668 F120.00
G01 X130.9550 Y-77.3668 F120.00
G01 X130.9550 Y-77.4070 F120.00
G01 X133.2450 Y-77.4070 F120.00
G01 X133.2450 Y-77.4472 F120.00
G01 X130.9550 Y-77.4472 F120.00
G01 X130.9550 Y-77.4874 F120.00
G01 X133.2450 Y-77.4874 F120.00
G01 X133.2450 Y-77.5276 F120.00
G01 X130.9550 Y-77.5276 F120.00
G01 X130.9550 Y-77.5678 F120.00
G01 X133.2450 Y-77.5678 F120.00
G01 X133.2450 Y-77.6080 F120.00
G01 X130.9550 Y-77.6080 F120.00
G01 X130.9550 Y-77.6482 F120.00
G01 X133.2450 Y-77.6482 F120.00
G01 X133.2450 Y-77.6884 F120.00
G01 X130.9550 Y-77.6884 F120.00
G01 X130.9550 Y-77.7286 F120.00
G01 X133.2450 Y-77.7286 F120.00
G01 X133.2450 Y-77.7688 F120.00
G01 X130.9550 Y-77.7688 F120.00
G01 X130.9550 Y-77.8090 F120.00
G01 X133.2450 Y-77.8090 F120.00
G01 X133.2450 Y-77.8492 F120.00
G01 X130.9550 Y-77.8492 F120.00
G01 X130.9550 Y-77.8894 F120.00
G01 X133.2450 Y-77.8894 F120.00
G01 X133.2450 Y-77.9296 F120.00
G01 X130.9550 Y-77.9296 F120.00
G01 X130.9550 Y-77.9698 F120.00
G01 X133.2450 Y-77.9698 F120.00
G01 X133.2450 Y-78.0100 F120.00
G01 X130.9550 Y-78.0100 F120.00
G01 X130.9550 Y-78.0502 F120.00
G01 X133.2450 Y-78.0502 F120.00
G01 X133.2450 Y-78.0904 F120.00
G01 X130.9550 Y-78.0904 F120.00
G01 X130.9550 Y-78.1306 F120.00
G01 X133.2450 Y-78.1306 F120.00
G01 X133.2450 Y-78.1708 F120.00
G01 X130.9550 Y-78.1708 F120.00
G01 X130.9550 Y-78.2110 F120.00
G01 X133.2450 Y-78.2110 F120.00
G01 X133.2450 Y-78.2512 F120.00
G01 X130.9550 Y-78.2512 F120.00
G01 X130.9550 Y-78.2914 F120.00
G01 X133.2450 Y-78.2914 F120.00
G01 X133.2450 Y-78.3316 F120.00
G01 X130.9550 Y-78.3316 F120.00
G01 X130.9550 Y-78.3718 F120.00
G01 X133.2450 Y-78.3718 F120.00
G01 X133.2450 Y-78.4120 F120.00
G01 X130.9550 Y-78.4120 F120.00
G01 X130.9550 Y-78.4522 F120.00
G01 X133.2450 Y-78.4522 F120.00
G01 X133.2450 Y-78.4924 F120.00
G01 X130.9550 Y-78.4924 F120.00
G01 X130.9550 Y-78.5326 F120.00
G01 X133.2450 Y-78.5326 F120.00
G01 X133.2450 Y-78.5728 F120.00
G01 X130.9550 Y-78.5728 F120.00
G01 X130.9550 Y-78.6130 F120.00
G01 X133.2450 Y-78.6130 F120.00
G01 X133.2416 Y-78.6532 F120.00
G01 X130.9584 Y-78.6532 F120.00
G01 X130.9765 Y-78.6934 F120.00
G01 X133.2235 Y-78.6934 F120.00
G01 X133.1759 Y-78.7336 F120.00
G01 X131.0241 Y-78.7336 F120.00
M5
G00 X131.8702 Y-80.0980
G01 F60.00
M03 S5000.0
G01 F120.00
G01 X131.8702 Y-81.0270 F120.00
G01 X131.9104 Y-81.0883 F120.00
G01 X131.9104 Y-80.0367 F120.00
G01 X131.9506 Y-79.9951 F120.00
G01 X131.9506 Y-81.1299 F120.00
G01 X131.9908 Y-81.1609 F120.00
G01 X131.9908 Y-79.9641 F120.00
G01 X132.0310 Y-79.9414 F120.00
G01 X132.0310 Y-81.1836 F120.00
G01 X132.0712 Y-81.2003 F120.00
G01 X132.0712 Y-79.9247 F120.00
G01 X132.1114 Y-79.9133 F120.00
G01 X132.1114 Y-81.2117 F120.00
G01 X132.1516 Y-81.2181 F120.00
G01 X132.1516 Y-79.9069 F120.00
G01 X132.1918 Y-79.9050 F120.00
G01 X132.1918 Y-81.2200 F120.00
G01 X132.2320 Y-81.2200 F120.00
G01 X132.2320 Y-79.9050 F120.00
G01 X132.2722 Y-79.9050 F120.00
G01 X132.2722 Y-81.2200 F120.00
G01 X132.3124 Y-81.2200 F120.00
G01 X132.3124 Y-79.9050 F120.00
G01 X132.3526 Y-79.9050 F120.00
G01 X132.3526 Y-81.2200 F120.00
G01 X132.3928 Y-81.2200 F120.00
G01 X132.3928 Y-79.9050 F120.00
G01 X132.4330 Y-79.9050 F120.00
G01 X132.4330 Y-81.2200 F120.00
G01 X132.4732 Y-81.2200 F120.00
G01 X132.4732 Y-79.9050 F120.00
G01 X132.5134 Y-79.9050 F120.00
G01 X132.5134 Y-81.2200 F120.00
G01 X132.5536 Y-81.2200 F120.00
G01 X132.5536 Y-79.9050 F120.00
G01 X132.5938 Y-79.9050 F120.00
G01 X132.5938 Y-81.2200 F120.00
G01 X132.6340 Y-81.2200 F120.00
G01 X132.6340 Y-79.9050 F120.00
G01 X132.6742 Y-79.9054 F120.00
G01 X132.6742 Y-81.2196 F120.00
G01 X132.7144 Y-81.2159 F120.00
G01 X132.7144 Y-79.9091 F120.00
G01 X132.7546 Y-79.9173 F120.00
G01 X132.7546 Y-81.2077 F120.00
G01 X132.7948 Y-81.1945 F120.00
G01 X132.7948 Y-79.9305 F120.00
G01 X132.8350 Y-79.9495 F120.00
G01 X132.8350 Y-81.1755 F120.00
G01 X132.8752 Y-81.1495 F120.00
G01 X132.8752 Y-79.9755 F120.00
G01 X132.9154 Y-80.0099 F120.00
G01 X132.9154 Y-81.1151 F120.00
G01 X132.9556 Y-81.0670 F120.00
G01 X132.9556 Y-80.0580 F120.00
G01 X132.9958 Y-80.1337 F120.00
G01 X132.9958 Y-80.9913 F120.00
M5
G00 X131.8300 Y-80.8623
G01 F60.00
M03 S5000.0
G01 F120.00
G01 X131.8300 Y-80.2627 F120.00
G01 X131.8300 Y-80.8623 F120.00
G01 X131.8300 Y-80.2627 F120.00
G01 X131.8315 Y-80.2300 F120.00
G01 X131.8358 Y-80.1989 F120.00
G01 X131.8382 Y-80.1867 F120.00
G01 X131.8447 Y-80.1612 F120.00
G01 X131.8474 Y-80.1528 F120.00
G01 X131.8563 Y-80.1281 F120.00
G01 X131.8598 Y-80.1200 F120.00
G01 X131.8711 Y-80.0963 F120.00
G01 X131.8753 Y-80.0885 F120.00
G01 X131.8889 Y-80.0661 F120.00
G01 X131.8939 Y-80.0588 F120.00
G01 X131.9096 Y-80.0377 F120.00
G01 X131.9152 Y-80.0310 F120.00
G01 X131.9329 Y-80.0116 F120.00
G01 X131.9392 Y-80.0054 F120.00
G01 X131.9588 Y-79.9878 F120.00
G01 X131.9838 Y-79.9689 F120.00
G01 X131.9942 Y-79.9619 F120.00
G01 X132.0213 Y-79.9461 F120.00
G01 X132.0450 Y-79.9348 F120.00
G01 X132.0565 Y-79.9300 F120.00
G01 X132.0862 Y-79.9197 F120.00
G01 X132.1117 Y-79.9132 F120.00
G01 X132.1239 Y-79.9108 F120.00
G01 X132.1550 Y-79.9065 F120.00
G01 X132.1877 Y-79.9050 F120.00
G01 X132.6623 Y-79.9050 F120.00
G01 X132.6950 Y-79.9065 F120.00
G01 X132.7038 Y-79.9075 F120.00
G01 X132.7348 Y-79.9124 F120.00
G01 X132.7602 Y-79.9187 F120.00
G01 X132.7687 Y-79.9212 F120.00
G01 X132.7935 Y-79.9300 F120.00
G01 X132.8017 Y-79.9333 F120.00
G01 X132.8254 Y-79.9444 F120.00
G01 X132.8365 Y-79.9503 F120.00
G01 X132.8632 Y-79.9667 F120.00
G01 X132.8844 Y-79.9823 F120.00
G01 X132.8940 Y-79.9902 F120.00
G01 X132.9108 Y-80.0054 F120.00
G01 X132.9196 Y-80.0142 F120.00
G01 X132.9404 Y-80.0377 F120.00
G01 X132.9561 Y-80.0588 F120.00
G01 X132.9631 Y-80.0692 F120.00
G01 X132.9789 Y-80.0963 F120.00
G01 X132.9902 Y-80.1200 F120.00
G01 X132.9950 Y-80.1315 F120.00
G01 X133.0053 Y-80.1612 F120.00
G01 X133.0118 Y-80.1867 F120.00
G01 X133.0142 Y-80.1989 F120.00
G01 X133.0185 Y-80.2300 F120.00
G01 X133.0200 Y-80.2627 F120.00
G01 X133.0200 Y-80.8623 F120.00
G01 X133.0185 Y-80.8950 F120.00
G01 X133.0175 Y-80.9038 F120.00
G01 X133.0126 Y-80.9348 F120.00
G01 X133.0063 Y-80.9602 F120.00
G01 X133.0038 Y-80.9687 F120.00
G01 X132.9950 Y-80.9935 F120.00
G01 X132.9917 Y-81.0017 F120.00
G01 X132.9806 Y-81.0254 F120.00
G01 X132.9747 Y-81.0365 F120.00
G01 X132.9583 Y-81.0632 F120.00
G01 X132.9427 Y-81.0844 F120.00
G01 X132.9348 Y-81.0940 F120.00
G01 X132.9196 Y-81.1108 F120.00
G01 X132.9108 Y-81.1196 F120.00
G01 X132.8873 Y-81.1404 F120.00
G01 X132.8662 Y-81.1561 F120.00
G01 X132.8558 Y-81.1631 F120.00
G01 X132.8287 Y-81.1789 F120.00
G01 X132.8050 Y-81.1902 F120.00
G01 X132.7935 Y-81.1950 F120.00
G01 X132.7638 Y-81.2053 F120.00
G01 X132.7383 Y-81.2118 F120.00
G01 X132.7261 Y-81.2142 F120.00
G01 X132.7038 Y-81.2175 F120.00
G01 X132.6913 Y-81.2187 F120.00
G01 X132.6623 Y-81.2200 F120.00
G01 X132.1858 Y-81.2200 F120.00
G01 X132.1587 Y-81.2187 F120.00
G01 X132.1462 Y-81.2175 F120.00
G01 X132.1152 Y-81.2126 F120.00
G01 X132.0862 Y-81.2053 F120.00
G01 X132.0565 Y-81.1950 F120.00
G01 X132.0450 Y-81.1902 F120.00
G01 X132.0167 Y-81.1765 F120.00
G01 X131.9942 Y-81.1631 F120.00
G01 X131.9868 Y-81.1583 F120.00
G01 X131.9627 Y-81.1404 F120.00
G01 X131.9392 Y-81.1196 F120.00
G01 X131.9304 Y-81.1108 F120.00
G01 X131.9152 Y-81.0940 F120.00
G01 X131.9073 Y-81.0844 F120.00
G01 X131.8889 Y-81.0589 F120.00
G01 X131.8753 Y-81.0365 F120.00
G01 X131.8711 Y-81.0287 F120.00
G01 X131.8583 Y-81.0017 F120.00
G01 X131.8474 Y-80.9722 F120.00
G01 X131.8437 Y-80.9602 F120.00
G01 X131.8382 Y-80.9383 F120.00
G01 X131.8358 Y-80.9261 F120.00
G01 X131.8315 Y-80.8950 F120.00
G01 X131.8300 Y-80.8623 F120.00
M5
G00 X131.8702 Y-81.8230
G01 F60.00
M03 S5000.0
G01 F120.00
G01 X131.8702 Y-82.7520 F120.00
G01 X131.9104 Y-82.8133 F120.00
G01 X131.9104 Y-81.7617 F120.00
G01 X131.9506 Y-81.7201 F120.00
G01 X131.9506 Y-82.8549 F120.00
G01 X131.9908 Y-82.8859 F120.00
G01 X131.9908 Y-81.6891 F120.00
G01 X132.0310 Y-81.6664 F120.00
G01 X132.0310 Y-82.9086 F120.00
G01 X132.0712 Y-82.9253 F120.00
G01 X132.0712 Y-81.6497 F120.00
G01 X132.1114 Y-81.6383 F120.00
G01 X132.1114 Y-82.9367 F120.00
G01 X132.1516 Y-82.9431 F120.00
G01 X132.1516 Y-81.6319 F120.00
G01 X132.1918 Y-81.6300 F120.00
G01 X132.1918 Y-82.9450 F120.00
G01 X132.2320 Y-82.9450 F120.00
G01 X132.2320 Y-81.6300 F120.00
G01 X132.2722 Y-81.6300 F120.00
G01 X132.2722 Y-82.9450 F120.00
G01 X132.3124 Y-82.9450 F120.00
G01 X132.3124 Y-81.6300 F120.00
G01 X132.3526 Y-81.6300 F120.00
G01 X132.3526 Y-82.9450 F120.00
G01 X132.3928 Y-82.9450 F120.00
G01 X132.3928 Y-81.6300 F120.00
G01 X132.4330 Y-81.6300 F120.00
G01 X132.4330 Y-82.9450 F120.00
G01 X132.4732 Y-82.9450 F120.00
G01 X132.4732 Y-81.6300 F120.00
G01 X132.5134 Y-81.6300 F120.00
G01 X132.5134 Y-82.9450 F120.00
G01 X132.5536 Y-82.9450 F120.00
G01 X132.5536 Y-81.6300 F120.00
G01 X132.5938 Y-81.6300 F120.00
G01 X132.5938 Y-82.9450 F120.00
G01 X132.6340 Y-82.9450 F120.00
G01 X132.6340 Y-81.6300 F120.00
G01 X132.6742 Y-81.6304 F120.00
G01 X132.6742 Y-82.9446 F120.00
G01 X132.7144 Y-82.9409 F120.00
G01 X132.7144 Y-81.6341 F120.00
G01 X132.7546 Y-81.6423 F120.00
G01 X132.7546 Y-82.9327 F120.00
G01 X132.7948 Y-82.9195 F120.00
G01 X132.7948 Y-81.6555 F120.00
G01 X132.8350 Y-81.6745 F120.00
G01 X132.8350 Y-82.9005 F120.00
G01 X132.8752 Y-82.8745 F120.00
G01 X132.8752 Y-81.7005 F120.00
G01 X132.9154 Y-81.7349 F120.00
G01 X132.9154 Y-82.8401 F120.00
G01 X132.9556 Y-82.7920 F120.00
G01 X132.9556 Y-81.7830 F120.00
G01 X132.9958 Y-81.8587 F120.00
G01 X132.9958 Y-82.7163 F120.00
M5
G00 X131.8300 Y-82.5873
G01 F60.00
M03 S5000.0
G01 F120.00
G01 X131.8300 Y-81.9877 F120.00
G01 X131.8300 Y-82.5873 F120.00
G01 X131.8300 Y-81.9877 F120.00
G01 X131.8315 Y-81.9550 F120.00
G01 X131.8358 Y-81.9239 F120.00
G01 X131.8382 Y-81.9117 F120.00
G01 X131.8447 Y-81.8862 F120.00
G01 X131.8474 Y-81.8778 F120.00
G01 X131.8563 Y-81.8531 F120.00
G01 X131.8598 Y-81.8450 F120.00
G01 X131.8711 Y-81.8213 F120.00
G01 X131.8753 Y-81.8135 F120.00
G01 X131.8889 Y-81.7911 F120.00
G01 X131.8939 Y-81.7838 F120.00
G01 X131.9096 Y-81.7627 F120.00
G01 X131.9152 Y-81.7560 F120.00
G01 X131.9329 Y-81.7366 F120.00
G01 X131.9392 Y-81.7304 F120.00
G01 X131.9588 Y-81.7128 F120.00
G01 X131.9838 Y-81.6939 F120.00
G01 X131.9942 Y-81.6869 F120.00
G01 X132.0213 Y-81.6711 F120.00
G01 X132.0450 Y-81.6598 F120.00
G01 X132.0565 Y-81.6550 F120.00
G01 X132.0862 Y-81.6447 F120.00
G01 X132.1117 Y-81.6382 F120.00
G01 X132.1239 Y-81.6358 F120.00
G01 X132.1550 Y-81.6315 F120.00
G01 X132.1877 Y-81.6300 F120.00
G01 X132.6623 Y-81.6300 F120.00
G01 X132.6950 Y-81.6315 F120.00
G01 X132.7038 Y-81.6325 F120.00
G01 X132.7348 Y-81.6374 F120.00
G01 X132.7602 Y-81.6437 F120.00
G01 X132.7687 Y-81.6462 F120.00
G01 X132.7935 Y-81.6550 F120.00
G01 X132.8017 Y-81.6583 F120.00
G01 X132.8254 Y-81.6694 F120.00
G01 X132.8365 Y-81.6753 F120.00
G01 X132.8632 Y-81.6917 F120.00
G01 X132.8844 Y-81.7073 F120.00
G01 X132.8940 Y-81.7152 F120.00
G01 X132.9108 Y-81.7304 F120.00
G01 X132.9196 Y-81.7392 F120.00
G01 X132.9404 Y-81.7627 F120.00
G01 X132.9561 Y-81.7838 F120.00
G01 X132.9631 Y-81.7942 F120.00
G01 X132.9789 Y-81.8213 F120.00
G01 X132.9902 Y-81.8450 F120.00
G01 X132.9950 Y-81.8565 F120.00
G01 X133.0053 Y-81.8862 F120.00
G01 X133.0118 Y-81.9117 F120.00
G01 X133.0142 Y-81.9239 F120.00
G01 X133.0185 Y-81.9550 F120.00
G01 X133.0200 Y-81.9877 F120.00
G01 X133.0200 Y-82.5873 F120.00
G01 X133.0185 Y-82.6200 F120.00
G01 X133.0175 Y-82.6288 F120.00
G01 X133.0126 Y-82.6598 F120.00
G01 X133.0063 Y-82.6852 F120.00
G01 X133.0038 Y-82.6937 F120.00
G01 X132.9950 Y-82.7185 F120.00
G01 X132.9917 Y-82.7267 F120.00
G01 X132.9806 Y-82.7504 F120.00
G01 X132.9747 Y-82.7615 F120.00
G01 X132.9583 Y-82.7882 F120.00
G01 X132.9427 Y-82.8094 F120.00
G01 X132.9348 Y-82.8190 F120.00
G01 X132.9196 Y-82.8358 F120.00
G01 X132.9108 Y-82.8446 F120.00
G01 X132.8873 Y-82.8654 F120.00
G01 X132.8662 Y-82.8811 F120.00
G01 X132.8558 Y-82.8881 F120.00
G01 X132.8287 Y-82.9039 F120.00
G01 X132.8050 Y-82.9152 F120.00
G01 X132.7935 Y-82.9200 F120.00
G01 X132.7638 Y-82.9303 F120.00
G01 X132.7383 Y-82.9368 F120.00
G01 X132.7261 Y-82.9392 F120.00
G01 X132.7038 Y-82.9425 F120.00
G01 X132.6913 Y-82.9437 F120.00
G01 X132.6623 Y-82.9450 F120.00
G01 X132.1858 Y-82.9450 F120.00
G01 X132.1587 Y-82.9437 F120.00
G01 X132.1462 Y-82.9425 F120.00
G01 X132.1152 Y-82.9376 F120.00
G01 X132.0862 Y-82.9303 F120.00
G01 X132.0565 Y-82.9200 F120.00
G01 X132.0450 Y-82.9152 F120.00
G01 X132.0167 Y-82.9015 F120.00
G01 X131.9942 Y-82.8881 F120.00
G01 X131.9868 Y-82.8833 F120.00
G01 X131.9627 Y-82.8654 F120.00
G01 X131.9392 Y-82.8446 F120.00
G01 X131.9304 Y-82.8358 F120.00
G01 X131.9152 Y-82.8190 F120.00
G01 X131.9073 Y-82.8094 F120.00
G01 X131.8889 Y-82.7839 F120.00
G01 X131.8753 Y-82.7615 F120.00
G01 X131.8711 Y-82.7537 F120.00
G01 X131.8583 Y-82.7267 F120.00
G01 X131.8474 Y-82.6972 F120.00
G01 X131.8437 Y-82.6852 F120.00
G01 X131.8382 Y-82.6633 F120.00
G01 X131.8358 Y-82.6511 F120.00
G01 X131.8315 Y-82.6200 F120.00
G01 X131.8300 Y-82.5873 F120.00
M5
G00 X131.6354 Y-84.6449
G01 F60.00
M03 S5000.0
G01 F120.00
G01 X131.6354 Y-86.0051 F120.00
G01 X131.6756 Y-86.0479 F120.00
G01 X131.6756 Y-84.6021 F120.00
G01 X131.7158 Y-84.5699 F120.00
G01 X131.7158 Y-86.0801 F120.00
G01 X131.7560 Y-86.1040 F120.00
G01 X131.7560 Y-84.5460 F120.00
G01 X131.7962 Y-84.5284 F120.00
G01 X131.7962 Y-86.1216 F120.00
G01 X131.8364 Y-86.1339 F120.00
G01 X131.8364 Y-84.5161 F120.00
G01 X131.8766 Y-84.5084 F120.00
G01 X131.8766 Y-86.1416 F120.00
G01 X131.9168 Y-86.1447 F120.00
G01 X131.9168 Y-84.5053 F120.00
G01 X131.9570 Y-84.5050 F120.00
G01 X131.9570 Y-86.1450 F120.00
G01 X131.9972 Y-86.1450 F120.00
G01 X131.9972 Y-84.5050 F120.00
G01 X132.0374 Y-84.5050 F120.00
G01 X132.0374 Y-86.1450 F120.00
G01 X132.0776 Y-86.1450 F120.00
G01 X132.0776 Y-84.5050 F120.00
G01 X132.1178 Y-84.5050 F120.00
G01 X132.1178 Y-86.1450 F120.00
G01 X132.1580 Y-86.1450 F120.00
G01 X132.1580 Y-84.5050 F120.00
G01 X132.1982 Y-84.5050 F120.00
G01 X132.1982 Y-86.1450 F120.00
G01 X132.2384 Y-86.1450 F120.00
G01 X132.2384 Y-84.5050 F120.00
G01 X132.2786 Y-84.5050 F120.00
G01 X132.2786 Y-86.1450 F120.00
G01 X132.3188 Y-86.1450 F120.00
G01 X132.3188 Y-84.5050 F120.00
G01 X132.3590 Y-84.5050 F120.00
G01 X132.3590 Y-86.1450 F120.00
G01 X132.3992 Y-86.1450 F120.00
G01 X132.3992 Y-84.5050 F120.00
G01 X132.4394 Y-84.5050 F120.00
G01 X132.4394 Y-86.1450 F120.00
G01 X132.4796 Y-86.1450 F120.00
G01 X132.4796 Y-84.5050 F120.00
G01 X132.5198 Y-84.5050 F120.00
G01 X132.5198 Y-86.1450 F120.00
G01 X132.5600 Y-86.1450 F120.00
G01 X132.5600 Y-84.5050 F120.00
G01 X132.6002 Y-84.5050 F120.00
G01 X132.6002 Y-86.1450 F120.00
G01 X132.6404 Y-86.1444 F120.00
G01 X132.6404 Y-84.5056 F120.00
G01 X132.6806 Y-84.5095 F120.00
G01 X132.6806 Y-86.1405 F120.00
G01 X132.7208 Y-86.1321 F120.00
G01 X132.7208 Y-84.5179 F120.00
G01 X132.7610 Y-84.5310 F120.00
G01 X132.7610 Y-86.1190 F120.00
G01 X132.8012 Y-86.1003 F120.00
G01 X132.8012 Y-84.5497 F120.00
G01 X132.8414 Y-84.5752 F120.00
G01 X132.8414 Y-86.0748 F120.00
G01 X132.8816 Y-86.0414 F120.00
G01 X132.8816 Y-84.6086 F120.00
G01 X132.9218 Y-84.6546 F120.00
G01 X132.9218 Y-85.9954 F120.00
G01 X132.9620 Y-85.9272 F120.00
G01 X132.9620 Y-84.7228 F120.00
M5
G00 X133.5550 Y-84.8752
G01 F60.00
M03 S5000.0
G01 F120.00
G01 X133.5550 Y-85.7748 F120.00
M5
G00 X133.5952 Y-84.7076
G01 F60.00
M03 S5000.0
G01 F120.00
G01 X133.5952 Y-85.9424 F120.00
G01 X133.6354 Y-86.0051 F120.00
G01 X133.6354 Y-84.6449 F120.00
G01 X133.6756 Y-84.6021 F120.00
G01 X133.6756 Y-86.0479 F120.00
G01 X133.7158 Y-86.0801 F120.00
G01 X133.7158 Y-84.5699 F120.00
G01 X133.7560 Y-84.5460 F120.00
G01 X133.7560 Y-86.1040 F120.00
G01 X133.7962 Y-86.1216 F120.00
G01 X133.7962 Y-84.5284 F120.00
G01 X133.8364 Y-84.5161 F120.00
G01 X133.8364 Y-86.1339 F120.00
G01 X133.8766 Y-86.1416 F120.00
G01 X133.8766 Y-84.5084 F120.00
G01 X133.9168 Y-84.5053 F120.00
G01 X133.9168 Y-86.1447 F120.00
G01 X133.9570 Y-86.1450 F120.00
G01 X133.9570 Y-84.5050 F120.00
G01 X133.9972 Y-84.5050 F120.00
G01 X133.9972 Y-86.1450 F120.00
G01 X134.0374 Y-86.1450 F120.00
G01 X134.0374 Y-84.5050 F120.00
G01 X134.0776 Y-84.5050 F120.00
G01 X134.0776 Y-86.1450 F120.00
G01 X134.1178 Y-86.1450 F120.00
G01 X134.1178 Y-84.5050 F120.00
G01 X134.1580 Y-84.5050 F120.00
G01 X134.1580 Y-86.1450 F120.00
G01 X134.1982 Y-86.1450 F120.00
G01 X134.1982 Y-84.5050 F120.00
G01 X134.2384 Y-84.5050 F120.00
G01 X134.2384 Y-86.1450 F120.00
G01 X134.2786 Y-86.1450 F120.00
G01 X134.2786 Y-84.5050 F120.00
G01 X134.3188 Y-84.5050 F120.00
G01 X134.3188 Y-86.1450 F120.00
G01 X134.3590 Y-86.1450 F120.00
G01 X134.3590 Y-84.5050 F120.00
G01 X134.3992 Y-84.5050 F120.00
G01 X134.3992 Y-86.1450 F120.00
G01 X134.4394 Y-86.1450 F120.00
G01 X134.4394 Y-84.5050 F120.00
G01 X134.4796 Y-84.5050 F120.00
G01 X134.4796 Y-86.1450 F120.00
G01 X134.5198 Y-86.1450 F120.00
G01 X134.5198 Y-84.5050 F120.00
G01 X134.5600 Y-84.5050 F120.00
G01 X134.5600 Y-86.1450 F120.00
G01 X134.6002 Y-86.1450 F120.00
G01 X134.6002 Y-84.5050 F120.00
G01 X134.6404 Y-84.5056 F120.00
G01 X134.6404 Y-86.1444 F120.00
G01 X134.6806 Y-86.1405 F120.00
G01 X134.6806 Y-84.5095 F120.00
G01 X134.7208 Y-84.5179 F120.00
G01 X134.7208 Y-86.1321 F120.00
G01 X134.7610 Y-86.1190 F120.00
G01 X134.7610 Y-84.5310 F120.00
G01 X134.8012 Y-84.5497 F120.00
G01 X134.8012 Y-86.1003 F120.00
G01 X134.8414 Y-86.0748 F120.00
G01 X134.8414 Y-84.5752 F120.00
G01 X134.8816 Y-84.6086 F120.00
G01 X134.8816 Y-86.0414 F120.00
G01 X134.9218 Y-85.9954 F120.00
G01 X134.9218 Y-84.6546 F120.00
G01 X134.9620 Y-84.7228 F120.00
G01 X134.9620 Y-85.9272 F120.00
M5
G00 X134.9620 Y-86.7228
G01 F60.00
M03 S5000.0
G01 F120.00
G01 X134.9620 Y-87.9272 F120.00
G01 X134.9218 Y-87.9954 F120.00
G01 X134.9218 Y-86.6546 F120.00
G01 X134.8816 Y-86.6086 F120.00
G01 X134.8816 Y-88.0414 F120.00
G01 X134.8414 Y-88.0748 F120.00
G01 X134.8414 Y-86.5752 F120.00
G01 X134.8012 Y-86.5497 F120.00
G01 X134.8012 Y-88.1003 F120.00
G01 X134.7610 Y-88.1190 F120.00
G01 X134.7610 Y-86.5310 F120.00
G01 X134.7208 Y-86.5179 F120.00
G01 X134.7208 Y-88.1321 F120.00
G01 X134.6806 Y-88.1405 F120.00
G01 X134.6806 Y-86.5095 F120.00
G01 X134.6404 Y-86.5056 F120.00
G01 X134.6404 Y-88.1444 F120.00
G01 X134.6002 Y-88.1450 F120.00
G01 X134.6002 Y-86.5050 F120.00
G01 X134.5600 Y-86.5050 F120.00
G01 X134.5600 Y-88.1450 F120.00
G01 X134.5198 Y-88.1450 F120.00
G01 X134.5198 Y-86.5050 F120.00
G01 X134.4796 Y-86.5050 F120.00
G01 X134.4796 Y-88.1450 F120.00
G01 X134.4394 Y-88.1450 F120.00
G01 X134.4394 Y-86.5050 F120.00
G01 X134.3992 Y-86.5050 F120.00
G01 X134.3992 Y-88.1450 F120.00
G01 X134.3590 Y-88.1450 F120.00
G01 X134.3590 Y-86.5050 F120.00
G01 X134.3188 Y-86.5050 F120.00
G01 X134.3188 Y-88.1450 F120.00
G01 X134.2786 Y-88.1450 F120.00
G01 X134.2786 Y-86.5050 F120.00
G01 X134.2384 Y-86.5050 F120.00
G01 X134.2384 Y-88.1450 F120.00
G01 X134.1982 Y-88.1450 F120.00
G01 X134.1982 Y-86.5050 F120.00
G01 X134.1580 Y-86.5050 F120.00
G01 X134.1580 Y-88.1450 F120.00
G01 X134.1178 Y-88.1450 F120.00
G01 X134.1178 Y-86.5050 F120.00
G01 X134.0776 Y-86.5050 F120.00
G01 X134.0776 Y-88.1450 F120.00
G01 X134.0374 Y-88.1450 F120.00
G01 X134.0374 Y-86.5050 F120.00
G01 X133.9972 Y-86.5050 F120.00
G01 X133.9972 Y-88.1450 F120.00
G01 X133.9570 Y-88.1450 F120.00
G01 X133.9570 Y-86.5050 F120.00
G01 X133.9168 Y-86.5053 F120.00
G01 X133.9168 Y-88.1447 F120.00
G01 X133.8766 Y-88.1416 F120.00
G01 X133.8766 Y-86.5084 F120.00
G01 X133.8364 Y-86.5161 F120.00
G01 X133.8364 Y-88.1339 F120.00
G01 X133.7962 Y-88.1216 F120.00
G01 X133.7962 Y-86.5284 F120.00
G01 X133.7560 Y-86.5460 F120.00
G01 X133.7560 Y-88.1040 F120.00
G01 X133.7158 Y-88.0801 F120.00
G01 X133.7158 Y-86.5699 F120.00
G01 X133.6756 Y-86.6021 F120.00
G01 X133.6756 Y-88.0479 F120.00
G01 X133.6354 Y-88.0051 F120.00
G01 X133.6354 Y-86.6449 F120.00
M5
G00 X133.5952 Y-86.7076
G01 F60.00
M03 S5000.0
G01 F120.00
G01 X133.5952 Y-87.9424 F120.00
G01 X133.5550 Y-87.7748 F120.00
G01 X133.5550 Y-86.8752 F120.00
M5
G00 X132.9620 Y-86.7228
G01 F60.00
M03 S5000.0
G01 F120.00
G01 X132.9620 Y-87.9272 F120.00
G01 X132.9218 Y-87.9954 F120.00
G01 X132.9218 Y-86.6546 F120.00
G01 X132.8816 Y-86.6086 F120.00
G01 X132.8816 Y-88.0414 F120.00
G01 X132.8414 Y-88.0748 F120.00
G01 X132.8414 Y-86.5752 F120.00
G01 X132.8012 Y-86.5497 F120.00
G01 X132.8012 Y-88.1003 F120.00
G01 X132.7610 Y-88.1190 F120.00
G01 X132.7610 Y-86.5310 F120.00
G01 X132.7208 Y-86.5179 F120.00
G01 X132.7208 Y-88.1321 F120.00
G01 X132.6806 Y-88.1405 F120.00
G01 X132.6806 Y-86.5095 F120.00
G01 X132.6404 Y-86.5056 F120.00
G01 X132.6404 Y-88.1444 F120.00
G01 X132.6002 Y-88.1450 F120.00
G01 X132.6002 Y-86.5050 F120.00
G01 X132.5600 Y-86.5050 F120.00
G01 X132.5600 Y-88.1450 F120.00
G01 X132.5198 Y-88.1450 F120.00
G01 X132.5198 Y-86.5050 F120.00
G01 X132.4796 Y-86.5050 F120.00
G01 X132.4796 Y-88.1450 F120.00
G01 X132.4394 Y-88.1450 F120.00
G01 X132.4394 Y-86.5050 F120.00
G01 X132.3992 Y-86.5050 F120.00
G01 X132.3992 Y-88.1450 F120.00
G01 X132.3590 Y-88.1450 F120.00
G01 X132.3590 Y-86.5050 F120.00
G01 X132.3188 Y-86.5050 F120.00
G01 X132.3188 Y-88.1450 F120.00
G01 X132.2786 Y-88.1450 F120.00
G01 X132.2786 Y-86.5050 F120.00
G01 X132.2384 Y-86.5050 F120.00
G01 X132.2384 Y-88.1450 F120.00
G01 X132.1982 Y-88.1450 F120.00
G01 X132.1982 Y-86.5050 F120.00
G01 X132.1580 Y-86.5050 F120.00
G01 X132.1580 Y-88.1450 F120.00
G01 X132.1178 Y-88.1450 F120.00
G01 X132.1178 Y-86.5050 F120.00
G01 X132.0776 Y-86.5050 F120.00
G01 X132.0776 Y-88.1450 F120.00
G01 X132.0374 Y-88.1450 F120.00
G01 X132.0374 Y-86.5050 F120.00
G01 X131.9972 Y-86.5050 F120.00
G01 X131.9972 Y-88.1450 F120.00
G01 X131.9570 Y-88.1450 F120.00
G01 X131.9570 Y-86.5050 F120.00
G01 X131.9168 Y-86.5053 F120.00
G01 X131.9168 Y-88.1447 F120.00
G01 X131.8766 Y-88.1416 F120.00
G01 X131.8766 Y-86.5084 F120.00
G01 X131.8364 Y-86.5161 F120.00
G01 X131.8364 Y-88.1339 F120.00
G01 X131.7962 Y-88.1216 F120.00
G01 X131.7962 Y-86.5284 F120.00
G01 X131.7560 Y-86.5460 F120.00
G01 X131.7560 Y-88.1040 F120.00
G01 X131.7158 Y-88.0801 F120.00
G01 X131.7158 Y-86.5699 F120.00
G01 X131.6756 Y-86.6021 F120.00
G01 X131.6756 Y-88.0479 F120.00
G01 X131.6354 Y-88.0051 F120.00
G01 X131.6354 Y-86.6449 F120.00
M5
G00 X133.5550 Y-85.7748
G01 F60.00
M03 S5000.0
G01 F120.00
G01 X133.5550 Y-84.8752 F120.00
G01 X133.5563 Y-84.8450 F120.00
G01 X133.5571 Y-84.8362 F120.00
G01 X133.5610 Y-84.8090 F120.00
G01 X133.5627 Y-84.8003 F120.00
G01 X133.5693 Y-84.7736 F120.00
G01 X133.5717 Y-84.7652 F120.00
G01 X133.5809 Y-84.7392 F120.00
G01 X133.5842 Y-84.7311 F120.00
G01 X133.5959 Y-84.7062 F120.00
G01 X133.6000 Y-84.6983 F120.00
G01 X133.6140 Y-84.6747 F120.00
G01 X133.6188 Y-84.6673 F120.00
G01 X133.6351 Y-84.6452 F120.00
G01 X133.6407 Y-84.6383 F120.00
G01 X133.6591 Y-84.6179 F120.00
G01 X133.6652 Y-84.6116 F120.00
G01 X133.6883 Y-84.5907 F120.00
G01 X133.6952 Y-84.5851 F120.00
G01 X133.7143 Y-84.5710 F120.00
G01 X133.7247 Y-84.5640 F120.00
G01 X133.7451 Y-84.5518 F120.00
G01 X133.7529 Y-84.5475 F120.00
G01 X133.7777 Y-84.5357 F120.00
G01 X133.7858 Y-84.5322 F120.00
G01 X133.8152 Y-84.5217 F120.00
G01 X133.8236 Y-84.5193 F120.00
G01 X133.8467 Y-84.5135 F120.00
G01 X133.8590 Y-84.5110 F120.00
G01 X133.8825 Y-84.5076 F120.00
G01 X133.8913 Y-84.5066 F120.00
G01 X133.9252 Y-84.5050 F120.00
G01 X134.6311 Y-84.5052 F120.00
G01 X134.6550 Y-84.5063 F120.00
G01 X134.6638 Y-84.5071 F120.00
G01 X134.6910 Y-84.5110 F120.00
G01 X134.7033 Y-84.5135 F120.00
G01 X134.7264 Y-84.5193 F120.00
G01 X134.7383 Y-84.5229 F120.00
G01 X134.7608 Y-84.5309 F120.00
G01 X134.7689 Y-84.5342 F120.00
G01 X134.7938 Y-84.5459 F120.00
G01 X134.8049 Y-84.5518 F120.00
G01 X134.8284 Y-84.5660 F120.00
G01 X134.8357 Y-84.5710 F120.00
G01 X134.8577 Y-84.5874 F120.00
G01 X134.8645 Y-84.5931 F120.00
G01 X134.8848 Y-84.6116 F120.00
G01 X134.8909 Y-84.6179 F120.00
G01 X134.9093 Y-84.6383 F120.00
G01 X134.9149 Y-84.6452 F120.00
G01 X134.9290 Y-84.6643 F120.00
G01 X134.9360 Y-84.6747 F120.00
G01 X134.9482 Y-84.6951 F120.00
G01 X134.9525 Y-84.7029 F120.00
G01 X134.9643 Y-84.7277 F120.00
G01 X134.9678 Y-84.7358 F120.00
G01 X134.9783 Y-84.7652 F120.00
G01 X134.9807 Y-84.7736 F120.00
G01 X134.9865 Y-84.7967 F120.00
G01 X134.9890 Y-84.8090 F120.00
G01 X134.9924 Y-84.8325 F120.00
G01 X134.9934 Y-84.8413 F120.00
G01 X134.9950 Y-84.8752 F120.00
G01 X134.9949 Y-85.7792 F120.00
G01 X134.9937 Y-85.8050 F120.00
G01 X134.9929 Y-85.8138 F120.00
G01 X134.9890 Y-85.8410 F120.00
G01 X134.9865 Y-85.8533 F120.00
G01 X134.9807 Y-85.8764 F120.00
G01 X134.9771 Y-85.8883 F120.00
G01 X134.9691 Y-85.9108 F120.00
G01 X134.9658 Y-85.9189 F120.00
G01 X134.9541 Y-85.9438 F120.00
G01 X134.9482 Y-85.9549 F120.00
G01 X134.9340 Y-85.9784 F120.00
G01 X134.9290 Y-85.9857 F120.00
G01 X134.9126 Y-86.0077 F120.00
G01 X134.9069 Y-86.0145 F120.00
G01 X134.8884 Y-86.0348 F120.00
G01 X134.8821 Y-86.0409 F120.00
G01 X134.8617 Y-86.0593 F120.00
G01 X134.8548 Y-86.0649 F120.00
G01 X134.8357 Y-86.0790 F120.00
G01 X134.8253 Y-86.0860 F120.00
G01 X134.8049 Y-86.0982 F120.00
G01 X134.7971 Y-86.1025 F120.00
G01 X134.7723 Y-86.1143 F120.00
G01 X134.7642 Y-86.1178 F120.00
G01 X134.7348 Y-86.1283 F120.00
G01 X134.7264 Y-86.1307 F120.00
G01 X134.7033 Y-86.1365 F120.00
G01 X134.6910 Y-86.1390 F120.00
G01 X134.6675 Y-86.1424 F120.00
G01 X134.6587 Y-86.1434 F120.00
G01 X134.6248 Y-86.1450 F120.00
G01 X133.9252 Y-86.1450 F120.00
G01 X133.8950 Y-86.1437 F120.00
G01 X133.8862 Y-86.1429 F120.00
G01 X133.8590 Y-86.1390 F120.00
G01 X133.8503 Y-86.1373 F120.00
G01 X133.8236 Y-86.1307 F120.00
G01 X133.8152 Y-86.1283 F120.00
G01 X133.7858 Y-86.1178 F120.00
G01 X133.7777 Y-86.1143 F120.00
G01 X133.7529 Y-86.1025 F120.00
G01 X133.7451 Y-86.0982 F120.00
G01 X133.7247 Y-86.0860 F120.00
G01 X133.7143 Y-86.0790 F120.00
G01 X133.6952 Y-86.0649 F120.00
G01 X133.6855 Y-86.0569 F120.00
G01 X133.6679 Y-86.0409 F120.00
G01 X133.6616 Y-86.0348 F120.00
G01 X133.6431 Y-86.0145 F120.00
G01 X133.6374 Y-86.0077 F120.00
G01 X133.6210 Y-85.9857 F120.00
G01 X133.6160 Y-85.9784 F120.00
G01 X133.6000 Y-85.9517 F120.00
G01 X133.5959 Y-85.9438 F120.00
G01 X133.5842 Y-85.9189 F120.00
G01 X133.5809 Y-85.9108 F120.00
G01 X133.5729 Y-85.8883 F120.00
G01 X133.5693 Y-85.8764 F120.00
G01 X133.5635 Y-85.8533 F120.00
G01 X133.5610 Y-85.8410 F120.00
G01 X133.5576 Y-85.8175 F120.00
G01 X133.5566 Y-85.8087 F120.00
G01 X133.5550 Y-85.7748 F120.00
M5
G00 X131.5550 Y-85.7748
G01 F60.00
M03 S5000.0
G01 F120.00
G01 X131.5550 Y-84.8752 F120.00
G01 X131.5563 Y-84.8450 F120.00
G01 X131.5571 Y-84.8362 F120.00
G01 X131.5610 Y-84.8090 F120.00
G01 X131.5627 Y-84.8003 F120.00
G01 X131.5693 Y-84.7736 F120.00
G01 X131.5717 Y-84.7652 F120.00
G01 X131.5809 Y-84.7392 F120.00
G01 X131.5842 Y-84.7311 F120.00
G01 X131.5959 Y-84.7062 F120.00
G01 X131.6000 Y-84.6983 F120.00
G01 X131.6140 Y-84.6747 F120.00
G01 X131.6188 Y-84.6673 F120.00
G01 X131.6351 Y-84.6452 F120.00
G01 X131.6407 Y-84.6383 F120.00
G01 X131.6591 Y-84.6179 F120.00
G01 X131.6652 Y-84.6116 F120.00
G01 X131.6883 Y-84.5907 F120.00
G01 X131.6952 Y-84.5851 F120.00
G01 X131.7143 Y-84.5710 F120.00
G01 X131.7247 Y-84.5640 F120.00
G01 X131.7451 Y-84.5518 F120.00
G01 X131.7529 Y-84.5475 F120.00
G01 X131.7777 Y-84.5357 F120.00
G01 X131.7858 Y-84.5322 F120.00
G01 X131.8152 Y-84.5217 F120.00
G01 X131.8236 Y-84.5193 F120.00
G01 X131.8467 Y-84.5135 F120.00
G01 X131.8590 Y-84.5110 F120.00
G01 X131.8825 Y-84.5076 F120.00
G01 X131.8913 Y-84.5066 F120.00
G01 X131.9252 Y-84.5050 F120.00
G01 X132.6311 Y-84.5052 F120.00
G01 X132.6550 Y-84.5063 F120.00
G01 X132.6638 Y-84.5071 F120.00
G01 X132.6910 Y-84.5110 F120.00
G01 X132.7033 Y-84.5135 F120.00
G01 X132.7264 Y-84.5193 F120.00
G01 X132.7383 Y-84.5229 F120.00
G01 X132.7608 Y-84.5309 F120.00
G01 X132.7689 Y-84.5342 F120.00
G01 X132.7938 Y-84.5459 F120.00
G01 X132.8049 Y-84.5518 F120.00
G01 X132.8284 Y-84.5660 F120.00
G01 X132.8357 Y-84.5710 F120.00
G01 X132.8577 Y-84.5874 F120.00
G01 X132.8645 Y-84.5931 F120.00
G01 X132.8848 Y-84.6116 F120.00
G01 X132.8909 Y-84.6179 F120.00
G01 X132.9093 Y-84.6383 F120.00
G01 X132.9149 Y-84.6452 F120.00
G01 X132.9290 Y-84.6643 F120.00
G01 X132.9360 Y-84.6747 F120.00
G01 X132.9482 Y-84.6951 F120.00
G01 X132.9525 Y-84.7029 F120.00
G01 X132.9643 Y-84.7277 F120.00
G01 X132.9678 Y-84.7358 F120.00
G01 X132.9783 Y-84.7652 F120.00
G01 X132.9807 Y-84.7736 F120.00
G01 X132.9865 Y-84.7967 F120.00
G01 X132.9890 Y-84.8090 F120.00
G01 X132.9924 Y-84.8325 F120.00
G01 X132.9934 Y-84.8413 F120.00
G01 X132.9950 Y-84.8752 F120.00
G01 X132.9949 Y-85.7792 F120.00
G01 X132.9937 Y-85.8050 F120.00
G01 X132.9929 Y-85.8138 F120.00
G01 X132.9890 Y-85.8410 F120.00
G01 X132.9865 Y-85.8533 F120.00
G01 X132.9807 Y-85.8764 F120.00
G01 X132.9771 Y-85.8883 F120.00
G01 X132.9691 Y-85.9108 F120.00
G01 X132.9658 Y-85.9189 F120.00
G01 X132.9541 Y-85.9438 F120.00
G01 X132.9482 Y-85.9549 F120.00
G01 X132.9340 Y-85.9784 F120.00
G01 X132.9290 Y-85.9857 F120.00
G01 X132.9126 Y-86.0077 F120.00
G01 X132.9069 Y-86.0145 F120.00
G01 X132.8884 Y-86.0348 F120.00
G01 X132.8821 Y-86.0409 F120.00
G01 X132.8617 Y-86.0593 F120.00
G01 X132.8548 Y-86.0649 F120.00
G01 X132.8357 Y-86.0790 F120.00
G01 X132.8253 Y-86.0860 F120.00
G01 X132.8049 Y-86.0982 F120.00
G01 X132.7971 Y-86.1025 F120.00
G01 X132.7723 Y-86.1143 F120.00
G01 X132.7642 Y-86.1178 F120.00
G01 X132.7348 Y-86.1283 F120.00
G01 X132.7264 Y-86.1307 F120.00
G01 X132.7033 Y-86.1365 F120.00
G01 X132.6910 Y-86.1390 F120.00
G01 X132.6675 Y-86.1424 F120.00
G01 X132.6587 Y-86.1434 F120.00
G01 X132.6248 Y-86.1450 F120.00
G01 X131.9252 Y-86.1450 F120.00
G01 X131.8950 Y-86.1437 F120.00
G01 X131.8862 Y-86.1429 F120.00
G01 X131.8590 Y-86.1390 F120.00
G01 X131.8503 Y-86.1373 F120.00
G01 X131.8236 Y-86.1307 F120.00
G01 X131.8152 Y-86.1283 F120.00
G01 X131.7858 Y-86.1178 F120.00
G01 X131.7777 Y-86.1143 F120.00
G01 X131.7529 Y-86.1025 F120.00
G01 X131.7451 Y-86.0982 F120.00
G01 X131.7247 Y-86.0860 F120.00
G01 X131.7143 Y-86.0790 F120.00
G01 X131.6952 Y-86.0649 F120.00
G01 X131.6855 Y-86.0569 F120.00
G01 X131.6679 Y-86.0409 F120.00
G01 X131.6616 Y-86.0348 F120.00
G01 X131.6431 Y-86.0145 F120.00
G01 X131.6374 Y-86.0077 F120.00
G01 X131.6210 Y-85.9857 F120.00
G01 X131.6160 Y-85.9784 F120.00
G01 X131.6000 Y-85.9517 F120.00
G01 X131.5959 Y-85.9438 F120.00
G01 X131.5842 Y-85.9189 F120.00
G01 X131.5809 Y-85.9108 F120.00
G01 X131.5729 Y-85.8883 F120.00
G01 X131.5693 Y-85.8764 F120.00
G01 X131.5635 Y-85.8533 F120.00
G01 X131.5610 Y-85.8410 F120.00
G01 X131.5576 Y-85.8175 F120.00
G01 X131.5566 Y-85.8087 F120.00
G01 X131.5550 Y-85.7748 F120.00
M5
G00 X131.5550 Y-84.8752
G01 F60.00
M03 S5000.0
G01 F120.00
G01 X131.5550 Y-85.7748 F120.00
G01 X131.5952 Y-85.9424 F120.00
G01 X131.5952 Y-84.7076 F120.00
M5
G00 X131.5952 Y-86.7076
G01 F60.00
M03 S5000.0
G01 F120.00
G01 X131.5952 Y-87.9424 F120.00
G01 X131.5550 Y-87.7748 F120.00
G01 X131.5550 Y-86.8752 F120.00
M5
G00 X131.5550 Y-87.7748
G01 F60.00
M03 S5000.0
G01 F120.00
G01 X131.5550 Y-86.8752 F120.00
G01 X131.5563 Y-86.8450 F120.00
G01 X131.5571 Y-86.8362 F120.00
G01 X131.5610 Y-86.8090 F120.00
G01 X131.5627 Y-86.8003 F120.00
G01 X131.5693 Y-86.7736 F120.00
G01 X131.5717 Y-86.7652 F120.00
G01 X131.5809 Y-86.7392 F120.00
G01 X131.5842 Y-86.7311 F120.00
G01 X131.5959 Y-86.7062 F120.00
G01 X131.6000 Y-86.6983 F120.00
G01 X131.6140 Y-86.6747 F120.00
G01 X131.6188 Y-86.6673 F120.00
G01 X131.6351 Y-86.6452 F120.00
G01 X131.6407 Y-86.6383 F120.00
G01 X131.6591 Y-86.6179 F120.00
G01 X131.6652 Y-86.6116 F120.00
G01 X131.6883 Y-86.5907 F120.00
G01 X131.6952 Y-86.5851 F120.00
G01 X131.7143 Y-86.5710 F120.00
G01 X131.7247 Y-86.5640 F120.00
G01 X131.7451 Y-86.5518 F120.00
G01 X131.7529 Y-86.5475 F120.00
G01 X131.7777 Y-86.5357 F120.00
G01 X131.7858 Y-86.5322 F120.00
G01 X131.8152 Y-86.5217 F120.00
G01 X131.8236 Y-86.5193 F120.00
G01 X131.8467 Y-86.5135 F120.00
G01 X131.8590 Y-86.5110 F120.00
G01 X131.8825 Y-86.5076 F120.00
G01 X131.8913 Y-86.5066 F120.00
G01 X131.9252 Y-86.5050 F120.00
G01 X132.6311 Y-86.5052 F120.00
G01 X132.6550 Y-86.5063 F120.00
G01 X132.6638 Y-86.5071 F120.00
G01 X132.6910 Y-86.5110 F120.00
G01 X132.7033 Y-86.5135 F120.00
G01 X132.7264 Y-86.5193 F120.00
G01 X132.7383 Y-86.5229 F120.00
G01 X132.7608 Y-86.5309 F120.00
G01 X132.7689 Y-86.5342 F120.00
G01 X132.7938 Y-86.5459 F120.00
G01 X132.8049 Y-86.5518 F120.00
G01 X132.8284 Y-86.5660 F120.00
G01 X132.8357 Y-86.5710 F120.00
G01 X132.8577 Y-86.5874 F120.00
G01 X132.8645 Y-86.5931 F120.00
G01 X132.8848 Y-86.6116 F120.00
G01 X132.8909 Y-86.6179 F120.00
G01 X132.9093 Y-86.6383 F120.00
G01 X132.9149 Y-86.6452 F120.00
G01 X132.9290 Y-86.6643 F120.00
G01 X132.9360 Y-86.6747 F120.00
G01 X132.9482 Y-86.6951 F120.00
G01 X132.9525 Y-86.7029 F120.00
G01 X132.9643 Y-86.7277 F120.00
G01 X132.9678 Y-86.7358 F120.00
G01 X132.9783 Y-86.7652 F120.00
G01 X132.9807 Y-86.7736 F120.00
G01 X132.9865 Y-86.7967 F120.00
G01 X132.9890 Y-86.8090 F120.00
G01 X132.9924 Y-86.8325 F120.00
G01 X132.9934 Y-86.8413 F120.00
G01 X132.9950 Y-86.8752 F120.00
G01 X132.9949 Y-87.7792 F120.00
G01 X132.9937 Y-87.8050 F120.00
G01 X132.9929 Y-87.8138 F120.00
G01 X132.9890 Y-87.8410 F120.00
G01 X132.9865 Y-87.8533 F120.00
G01 X132.9807 Y-87.8764 F120.00
G01 X132.9771 Y-87.8883 F120.00
G01 X132.9691 Y-87.9108 F120.00
G01 X132.9658 Y-87.9189 F120.00
G01 X132.9541 Y-87.9438 F120.00
G01 X132.9482 Y-87.9549 F120.00
G01 X132.9340 Y-87.9784 F120.00
G01 X132.9290 Y-87.9857 F120.00
G01 X132.9126 Y-88.0077 F120.00
G01 X132.9069 Y-88.0145 F120.00
G01 X132.8884 Y-88.0348 F120.00
G01 X132.8821 Y-88.0409 F120.00
G01 X132.8617 Y-88.0593 F120.00
G01 X132.8548 Y-88.0649 F120.00
G01 X132.8357 Y-88.0790 F120.00
G01 X132.8253 Y-88.0860 F120.00
G01 X132.8049 Y-88.0982 F120.00
G01 X132.7971 Y-88.1025 F120.00
G01 X132.7723 Y-88.1143 F120.00
G01 X132.7642 Y-88.1178 F120.00
G01 X132.7348 Y-88.1283 F120.00
G01 X132.7264 Y-88.1307 F120.00
G01 X132.7033 Y-88.1365 F120.00
G01 X132.6910 Y-88.1390 F120.00
G01 X132.6675 Y-88.1424 F120.00
G01 X132.6587 Y-88.1434 F120.00
G01 X132.6248 Y-88.1450 F120.00
G01 X131.9252 Y-88.1450 F120.00
G01 X131.8950 Y-88.1437 F120.00
G01 X131.8862 Y-88.1429 F120.00
G01 X131.8590 Y-88.1390 F120.00
G01 X131.8503 Y-88.1373 F120.00
G01 X131.8236 Y-88.1307 F120.00
G01 X131.8152 Y-88.1283 F120.00
G01 X131.7858 Y-88.1178 F120.00
G01 X131.7777 Y-88.1143 F120.00
G01 X131.7529 Y-88.1025 F120.00
G01 X131.7451 Y-88.0982 F120.00
G01 X131.7247 Y-88.0860 F120.00
G01 X131.7143 Y-88.0790 F120.00
G01 X131.6952 Y-88.0649 F120.00
G01 X131.6855 Y-88.0569 F120.00
G01 X131.6679 Y-88.0409 F120.00
G01 X131.6616 Y-88.0348 F120.00
G01 X131.6431 Y-88.0145 F120.00
G01 X131.6374 Y-88.0077 F120.00
G01 X131.6210 Y-87.9857 F120.00
G01 X131.6160 Y-87.9784 F120.00
G01 X131.6000 Y-87.9517 F120.00
G01 X131.5959 Y-87.9438 F120.00
G01 X131.5842 Y-87.9189 F120.00
G01 X131.5809 Y-87.9108 F120.00
G01 X131.5729 Y-87.8883 F120.00
G01 X131.5693 Y-87.8764 F120.00
G01 X131.5635 Y-87.8533 F120.00
G01 X131.5610 Y-87.8410 F120.00
G01 X131.5576 Y-87.8175 F120.00
G01 X131.5566 Y-87.8087 F120.00
G01 X131.5550 Y-87.7748 F120.00
M5
G00 X131.7836 Y-89.1902
G01 F60.00
M03 S5000.0
G01 F120.00
G01 X133.7164 Y-89.1902 F120.00
G01 X133.7671 Y-89.2304 F120.00
G01 X131.7329 Y-89.2304 F120.00
M5
G00 X131.7002 Y-89.2706
G01 F60.00
M03 S5000.0
G01 F120.00
G01 X133.7998 Y-89.2706 F120.00
G01 X133.8218 Y-89.3108 F120.00
G01 X131.6782 Y-89.3108 F120.00
G01 X131.6641 Y-89.3510 F120.00
G01 X133.8359 Y-89.3510 F120.00
G01 X133.8434 Y-89.3912 F120.00
G01 X131.6566 Y-89.3912 F120.00
G01 X131.6550 Y-89.4314 F120.00
G01 X133.8450 Y-89.4314 F120.00
G01 X133.8450 Y-89.4716 F120.00
G01 X131.6550 Y-89.4716 F120.00
G01 X131.6550 Y-89.5118 F120.00
G01 X133.8450 Y-89.5118 F120.00
G01 X133.8450 Y-89.5520 F120.00
G01 X131.6550 Y-89.5520 F120.00
G01 X131.6550 Y-89.5922 F120.00
G01 X133.8450 Y-89.5922 F120.00
G01 X133.8450 Y-89.6324 F120.00
G01 X131.6550 Y-89.6324 F120.00
G01 X131.6550 Y-89.6726 F120.00
G01 X133.8450 Y-89.6726 F120.00
G01 X133.8450 Y-89.7128 F120.00
G01 X131.6550 Y-89.7128 F120.00
G01 X131.6550 Y-89.7198 F120.00
G01 X131.6550 Y-89.4202 F120.00
G01 X131.6552 Y-89.4139 F120.00
G01 X131.6559 Y-89.3998 F120.00
G01 X131.6561 Y-89.3961 F120.00
G01 X131.6566 Y-89.3910 F120.00
G01 X131.6591 Y-89.3735 F120.00
G01 X131.6608 Y-89.3648 F120.00
G01 X131.6616 Y-89.3612 F120.00
G01 X131.6650 Y-89.3477 F120.00
G01 X131.6674 Y-89.3392 F120.00
G01 X131.6746 Y-89.3191 F120.00
G01 X131.6781 Y-89.3110 F120.00
G01 X131.6841 Y-89.2983 F120.00
G01 X131.6882 Y-89.2905 F120.00
G01 X131.6972 Y-89.2753 F120.00
G01 X131.6991 Y-89.2722 F120.00
G01 X131.7020 Y-89.2679 F120.00
G01 X131.7041 Y-89.2649 F120.00
G01 X131.7180 Y-89.2468 F120.00
G01 X131.7298 Y-89.2336 F120.00
G01 X131.7386 Y-89.2248 F120.00
G01 X131.7558 Y-89.2097 F120.00
G01 X131.7699 Y-89.1991 F120.00
G01 X131.7803 Y-89.1922 F120.00
G01 X131.8000 Y-89.1807 F120.00
G01 X131.8160 Y-89.1731 F120.00
G01 X131.8275 Y-89.1683 F120.00
G01 X131.8491 Y-89.1609 F120.00
G01 X131.8662 Y-89.1566 F120.00
G01 X131.8785 Y-89.1541 F120.00
G01 X131.9011 Y-89.1511 F120.00
G01 X131.9252 Y-89.1500 F120.00
G01 X133.5748 Y-89.1500 F120.00
G01 X133.5952 Y-89.1508 F120.00
G01 X133.6040 Y-89.1516 F120.00
G01 X133.6251 Y-89.1548 F120.00
G01 X133.6473 Y-89.1600 F120.00
G01 X133.6593 Y-89.1636 F120.00
G01 X133.6725 Y-89.1683 F120.00
G01 X133.6840 Y-89.1731 F120.00
G01 X133.7045 Y-89.1832 F120.00
G01 X133.7197 Y-89.1922 F120.00
G01 X133.7271 Y-89.1970 F120.00
G01 X133.7413 Y-89.2074 F120.00
G01 X133.7482 Y-89.2130 F120.00
G01 X133.7640 Y-89.2273 F120.00
G01 X133.7702 Y-89.2336 F120.00
G01 X133.7820 Y-89.2468 F120.00
G01 X133.7959 Y-89.2649 F120.00
G01 X133.7980 Y-89.2679 F120.00
G01 X133.8009 Y-89.2722 F120.00
G01 X133.8028 Y-89.2753 F120.00
G01 X133.8100 Y-89.2873 F120.00
G01 X133.8159 Y-89.2983 F120.00
G01 X133.8219 Y-89.3110 F120.00
G01 X133.8254 Y-89.3191 F120.00
G01 X133.8314 Y-89.3357 F120.00
G01 X133.8341 Y-89.3441 F120.00
G01 X133.8350 Y-89.3477 F120.00
G01 X133.8384 Y-89.3612 F120.00
G01 X133.8392 Y-89.3648 F120.00
G01 X133.8429 Y-89.3873 F120.00
G01 X133.8434 Y-89.3910 F120.00
G01 X133.8439 Y-89.3961 F120.00
G01 X133.8442 Y-89.3998 F120.00
G01 X133.8450 Y-89.4202 F120.00
G01 X133.8450 Y-89.7198 F120.00
G01 X133.8449 Y-89.7242 F120.00
G01 X133.8439 Y-89.7439 F120.00
G01 X133.8429 Y-89.7527 F120.00
G01 X133.8409 Y-89.7665 F120.00
G01 X133.8384 Y-89.7788 F120.00
G01 X133.8350 Y-89.7923 F120.00
G01 X133.8341 Y-89.7959 F120.00
G01 X133.8326 Y-89.8008 F120.00
G01 X133.8267 Y-89.8175 F120.00
G01 X133.8219 Y-89.8290 F120.00
G01 X133.8159 Y-89.8417 F120.00
G01 X133.8118 Y-89.8495 F120.00
G01 X133.8028 Y-89.8647 F120.00
G01 X133.8009 Y-89.8678 F120.00
G01 X133.7980 Y-89.8721 F120.00
G01 X133.7959 Y-89.8751 F120.00
G01 X133.7853 Y-89.8892 F120.00
G01 X133.7796 Y-89.8960 F120.00
G01 X133.7640 Y-89.9127 F120.00
G01 X133.7614 Y-89.9152 F120.00
G01 X133.7510 Y-89.9246 F120.00
G01 X133.7413 Y-89.9326 F120.00
G01 X133.7228 Y-89.9459 F120.00
G01 X133.7197 Y-89.9478 F120.00
G01 X133.7077 Y-89.9550 F120.00
G01 X133.6967 Y-89.9609 F120.00
G01 X133.6759 Y-89.9704 F120.00
G01 X133.6593 Y-89.9764 F120.00
G01 X133.6473 Y-89.9800 F120.00
G01 X133.6251 Y-89.9852 F120.00
G01 X133.6077 Y-89.9879 F120.00
G01 X133.5952 Y-89.9891 F120.00
G01 X133.5748 Y-89.9900 F120.00
G01 X131.9252 Y-89.9900 F120.00
G01 X131.9048 Y-89.9891 F120.00
G01 X131.8923 Y-89.9879 F120.00
G01 X131.8698 Y-89.9842 F120.00
G01 X131.8527 Y-89.9800 F120.00
G01 X131.8442 Y-89.9776 F120.00
G01 X131.8275 Y-89.9717 F120.00
G01 X131.8193 Y-89.9684 F120.00
G01 X131.8033 Y-89.9609 F120.00
G01 X131.7955 Y-89.9568 F120.00
G01 X131.7923 Y-89.9550 F120.00
G01 X131.7803 Y-89.9478 F120.00
G01 X131.7729 Y-89.9430 F120.00
G01 X131.7558 Y-89.9303 F120.00
G01 X131.7490 Y-89.9246 F120.00
G01 X131.7386 Y-89.9152 F120.00
G01 X131.7360 Y-89.9127 F120.00
G01 X131.7204 Y-89.8960 F120.00
G01 X131.7124 Y-89.8863 F120.00
G01 X131.7041 Y-89.8751 F120.00
G01 X131.7020 Y-89.8721 F120.00
G01 X131.6972 Y-89.8647 F120.00
G01 X131.6857 Y-89.8450 F120.00
G01 X131.6841 Y-89.8417 F120.00
G01 X131.6781 Y-89.8290 F120.00
G01 X131.6733 Y-89.8175 F120.00
G01 X131.6659 Y-89.7959 F120.00
G01 X131.6650 Y-89.7923 F120.00
G01 X131.6616 Y-89.7788 F120.00
G01 X131.6598 Y-89.7701 F120.00
G01 X131.6591 Y-89.7665 F120.00
G01 X131.6571 Y-89.7527 F120.00
G01 X131.6561 Y-89.7439 F120.00
G01 X131.6550 Y-89.7198 F120.00
G01 X131.6571 Y-89.7530 F120.00
G01 X133.8429 Y-89.7530 F120.00
G01 X133.8348 Y-89.7932 F120.00
G01 X131.6652 Y-89.7932 F120.00
G01 X131.6802 Y-89.8334 F120.00
G01 X133.8198 Y-89.8334 F120.00
G01 X133.7970 Y-89.8736 F120.00
G01 X131.7030 Y-89.8736 F120.00
G01 X131.7371 Y-89.9138 F120.00
G01 X133.7629 Y-89.9138 F120.00
G01 X133.7094 Y-89.9540 F120.00
G01 X131.7906 Y-89.9540 F120.00
M5
G00 X131.7836 Y-90.4602
G01 F60.00
M03 S5000.0
G01 F120.00
G01 X133.7164 Y-90.4602 F120.00
G01 X133.7671 Y-90.5004 F120.00
G01 X131.7329 Y-90.5004 F120.00
M5
G00 X131.7002 Y-90.5406
G01 F60.00
M03 S5000.0
G01 F120.00
G01 X133.7998 Y-90.5406 F120.00
G01 X133.8218 Y-90.5808 F120.00
G01 X131.6782 Y-90.5808 F120.00
G01 X131.6641 Y-90.6210 F120.00
G01 X133.8359 Y-90.6210 F120.00
G01 X133.8434 Y-90.6612 F120.00
G01 X131.6566 Y-90.6612 F120.00
G01 X131.6550 Y-90.7014 F120.00
G01 X133.8450 Y-90.7014 F120.00
G01 X133.8450 Y-90.7416 F120.00
G01 X131.6550 Y-90.7416 F120.00
G01 X131.6550 Y-90.7818 F120.00
G01 X133.8450 Y-90.7818 F120.00
G01 X133.8450 Y-90.8220 F120.00
G01 X131.6550 Y-90.8220 F120.00
G01 X131.6550 Y-90.8622 F120.00
G01 X133.8450 Y-90.8622 F120.00
G01 X133.8450 Y-90.9024 F120.00
G01 X131.6550 Y-90.9024 F120.00
G01 X131.6550 Y-90.9426 F120.00
G01 X133.8450 Y-90.9426 F120.00
G01 X133.8450 Y-90.9828 F120.00
G01 X131.6550 Y-90.9828 F120.00
G01 X131.6550 Y-90.9898 F120.00
G01 X131.6550 Y-90.6902 F120.00
G01 X131.6552 Y-90.6839 F120.00
G01 X131.6558 Y-90.6698 F120.00
G01 X131.6561 Y-90.6661 F120.00
G01 X131.6566 Y-90.6610 F120.00
G01 X131.6591 Y-90.6435 F120.00
G01 X131.6608 Y-90.6348 F120.00
G01 X131.6616 Y-90.6312 F120.00
G01 X131.6650 Y-90.6177 F120.00
G01 X131.6674 Y-90.6092 F120.00
G01 X131.6746 Y-90.5891 F120.00
G01 X131.6781 Y-90.5810 F120.00
G01 X131.6841 Y-90.5683 F120.00
G01 X131.6882 Y-90.5605 F120.00
G01 X131.6972 Y-90.5453 F120.00
G01 X131.6991 Y-90.5422 F120.00
G01 X131.7020 Y-90.5379 F120.00
G01 X131.7041 Y-90.5349 F120.00
G01 X131.7180 Y-90.5168 F120.00
G01 X131.7298 Y-90.5036 F120.00
G01 X131.7386 Y-90.4948 F120.00
G01 X131.7558 Y-90.4797 F120.00
G01 X131.7699 Y-90.4691 F120.00
G01 X131.7803 Y-90.4622 F120.00
G01 X131.8000 Y-90.4507 F120.00
G01 X131.8160 Y-90.4431 F120.00
G01 X131.8275 Y-90.4383 F120.00
G01 X131.8491 Y-90.4309 F120.00
G01 X131.8662 Y-90.4266 F120.00
G01 X131.8785 Y-90.4241 F120.00
G01 X131.9011 Y-90.4211 F120.00
G01 X131.9252 Y-90.4200 F120.00
G01 X133.5748 Y-90.4200 F120.00
G01 X133.5952 Y-90.4208 F120.00
G01 X133.6040 Y-90.4216 F120.00
G01 X133.6251 Y-90.4248 F120.00
G01 X133.6473 Y-90.4300 F120.00
G01 X133.6593 Y-90.4336 F120.00
G01 X133.6725 Y-90.4383 F120.00
G01 X133.6840 Y-90.4431 F120.00
G01 X133.7045 Y-90.4532 F120.00
G01 X133.7197 Y-90.4622 F120.00
G01 X133.7271 Y-90.4670 F120.00
G01 X133.7413 Y-90.4774 F120.00
G01 X133.7482 Y-90.4830 F120.00
G01 X133.7640 Y-90.4973 F120.00
G01 X133.7702 Y-90.5036 F120.00
G01 X133.7820 Y-90.5168 F120.00
G01 X133.7959 Y-90.5349 F120.00
G01 X133.7980 Y-90.5379 F120.00
G01 X133.8009 Y-90.5422 F120.00
G01 X133.8028 Y-90.5453 F120.00
G01 X133.8100 Y-90.5573 F120.00
G01 X133.8159 Y-90.5683 F120.00
G01 X133.8219 Y-90.5810 F120.00
G01 X133.8254 Y-90.5891 F120.00
G01 X133.8314 Y-90.6057 F120.00
G01 X133.8341 Y-90.6141 F120.00
G01 X133.8350 Y-90.6177 F120.00
G01 X133.8384 Y-90.6312 F120.00
G01 X133.8392 Y-90.6348 F120.00
G01 X133.8429 Y-90.6573 F120.00
G01 X133.8434 Y-90.6610 F120.00
G01 X133.8439 Y-90.6661 F120.00
G01 X133.8442 Y-90.6698 F120.00
G01 X133.8450 Y-90.6902 F120.00
G01 X133.8450 Y-90.9898 F120.00
G01 X133.8449 Y-90.9942 F120.00
G01 X133.8439 Y-91.0139 F120.00
G01 X133.8429 Y-91.0227 F120.00
G01 X133.8409 Y-91.0365 F120.00
G01 X133.8384 Y-91.0488 F120.00
G01 X133.8350 Y-91.0623 F120.00
G01 X133.8341 Y-91.0659 F120.00
G01 X133.8326 Y-91.0708 F120.00
G01 X133.8267 Y-91.0875 F120.00
G01 X133.8219 Y-91.0990 F120.00
G01 X133.8159 Y-91.1117 F120.00
G01 X133.8118 Y-91.1195 F120.00
G01 X133.8028 Y-91.1347 F120.00
G01 X133.8009 Y-91.1378 F120.00
G01 X133.7980 Y-91.1421 F120.00
G01 X133.7959 Y-91.1451 F120.00
G01 X133.7853 Y-91.1592 F120.00
G01 X133.7796 Y-91.1660 F120.00
G01 X133.7640 Y-91.1827 F120.00
G01 X133.7614 Y-91.1852 F120.00
G01 X133.7510 Y-91.1946 F120.00
G01 X133.7413 Y-91.2026 F120.00
G01 X133.7228 Y-91.2159 F120.00
G01 X133.7197 Y-91.2178 F120.00
G01 X133.7077 Y-91.2250 F120.00
G01 X133.6967 Y-91.2309 F120.00
G01 X133.6759 Y-91.2404 F120.00
G01 X133.6593 Y-91.2464 F120.00
G01 X133.6473 Y-91.2500 F120.00
G01 X133.6251 Y-91.2552 F120.00
G01 X133.6077 Y-91.2579 F120.00
G01 X133.5952 Y-91.2592 F120.00
G01 X133.5748 Y-91.2600 F120.00
G01 X131.9252 Y-91.2600 F120.00
G01 X131.9048 Y-91.2592 F120.00
G01 X131.8923 Y-91.2579 F120.00
G01 X131.8698 Y-91.2542 F120.00
G01 X131.8527 Y-91.2500 F120.00
G01 X131.8442 Y-91.2476 F120.00
G01 X131.8275 Y-91.2417 F120.00
G01 X131.8193 Y-91.2384 F120.00
G01 X131.8033 Y-91.2309 F120.00
G01 X131.7955 Y-91.2268 F120.00
G01 X131.7923 Y-91.2250 F120.00
G01 X131.7803 Y-91.2178 F120.00
G01 X131.7729 Y-91.2130 F120.00
G01 X131.7558 Y-91.2003 F120.00
G01 X131.7490 Y-91.1946 F120.00
G01 X131.7386 Y-91.1852 F120.00
G01 X131.7360 Y-91.1827 F120.00
G01 X131.7204 Y-91.1660 F120.00
G01 X131.7124 Y-91.1563 F120.00
G01 X131.7041 Y-91.1451 F120.00
G01 X131.7020 Y-91.1421 F120.00
G01 X131.6972 Y-91.1347 F120.00
G01 X131.6857 Y-91.1150 F120.00
G01 X131.6841 Y-91.1117 F120.00
G01 X131.6781 Y-91.0990 F120.00
G01 X131.6733 Y-91.0875 F120.00
G01 X131.6659 Y-91.0659 F120.00
G01 X131.6650 Y-91.0623 F120.00
G01 X131.6616 Y-91.0488 F120.00
G01 X131.6598 Y-91.0401 F120.00
G01 X131.6591 Y-91.0365 F120.00
G01 X131.6571 Y-91.0227 F120.00
G01 X131.6561 Y-91.0139 F120.00
G01 X131.6550 Y-90.9898 F120.00
G01 X131.6571 Y-91.0230 F120.00
G01 X133.8429 Y-91.0230 F120.00
G01 X133.8348 Y-91.0632 F120.00
G01 X131.6652 Y-91.0632 F120.00
G01 X131.6802 Y-91.1034 F120.00
G01 X133.8198 Y-91.1034 F120.00
G01 X133.7970 Y-91.1436 F120.00
G01 X131.7030 Y-91.1436 F120.00
G01 X131.7371 Y-91.1838 F120.00
G01 X133.7629 Y-91.1838 F120.00
G01 X133.7094 Y-91.2240 F120.00
G01 X131.7906 Y-91.2240 F120.00
M5
G00 X131.7836 Y-91.7302
G01 F60.00
M03 S5000.0
G01 F120.00
G01 X133.7164 Y-91.7302 F120.00
G01 X133.7671 Y-91.7704 F120.00
G01 X131.7329 Y-91.7704 F120.00
M5
G00 X131.7002 Y-91.8106
G01 F60.00
M03 S5000.0
G01 F120.00
G01 X133.7998 Y-91.8106 F120.00
G01 X133.8218 Y-91.8508 F120.00
G01 X131.6782 Y-91.8508 F120.00
G01 X131.6641 Y-91.8910 F120.00
G01 X133.8359 Y-91.8910 F120.00
G01 X133.8434 Y-91.9312 F120.00
G01 X131.6566 Y-91.9312 F120.00
G01 X131.6550 Y-91.9714 F120.00
G01 X133.8450 Y-91.9714 F120.00
G01 X133.8450 Y-92.0116 F120.00
G01 X131.6550 Y-92.0116 F120.00
G01 X131.6550 Y-92.0518 F120.00
G01 X133.8450 Y-92.0518 F120.00
G01 X133.8450 Y-92.0920 F120.00
G01 X131.6550 Y-92.0920 F120.00
G01 X131.6550 Y-92.1322 F120.00
G01 X133.8450 Y-92.1322 F120.00
G01 X133.8450 Y-92.1724 F120.00
G01 X131.6550 Y-92.1724 F120.00
G01 X131.6550 Y-92.2126 F120.00
G01 X133.8450 Y-92.2126 F120.00
G01 X133.8450 Y-92.2528 F120.00
G01 X131.6550 Y-92.2528 F120.00
G01 X131.6550 Y-92.2598 F120.00
G01 X131.6550 Y-91.9602 F120.00
G01 X131.6552 Y-91.9539 F120.00
G01 X131.6558 Y-91.9398 F120.00
G01 X131.6561 Y-91.9361 F120.00
G01 X131.6566 Y-91.9310 F120.00
G01 X131.6591 Y-91.9135 F120.00
G01 X131.6608 Y-91.9048 F120.00
G01 X131.6616 Y-91.9012 F120.00
G01 X131.6650 Y-91.8877 F120.00
G01 X131.6674 Y-91.8792 F120.00
G01 X131.6746 Y-91.8591 F120.00
G01 X131.6781 Y-91.8510 F120.00
G01 X131.6841 Y-91.8383 F120.00
G01 X131.6882 Y-91.8305 F120.00
G01 X131.6972 Y-91.8153 F120.00
G01 X131.6991 Y-91.8122 F120.00
G01 X131.7020 Y-91.8079 F120.00
G01 X131.7041 Y-91.8049 F120.00
G01 X131.7180 Y-91.7868 F120.00
G01 X131.7298 Y-91.7736 F120.00
G01 X131.7386 Y-91.7648 F120.00
G01 X131.7558 Y-91.7497 F120.00
G01 X131.7699 Y-91.7391 F120.00
G01 X131.7803 Y-91.7322 F120.00
G01 X131.8000 Y-91.7207 F120.00
G01 X131.8160 Y-91.7131 F120.00
G01 X131.8275 Y-91.7083 F120.00
G01 X131.8491 Y-91.7009 F120.00
G01 X131.8662 Y-91.6966 F120.00
G01 X131.8785 Y-91.6941 F120.00
G01 X131.9011 Y-91.6911 F120.00
G01 X131.9252 Y-91.6900 F120.00
G01 X133.5748 Y-91.6900 F120.00
G01 X133.5952 Y-91.6908 F120.00
G01 X133.6040 Y-91.6916 F120.00
G01 X133.6251 Y-91.6948 F120.00
G01 X133.6473 Y-91.7000 F120.00
G01 X133.6593 Y-91.7036 F120.00
G01 X133.6725 Y-91.7083 F120.00
G01 X133.6840 Y-91.7131 F120.00
G01 X133.7045 Y-91.7232 F120.00
G01 X133.7197 Y-91.7322 F120.00
G01 X133.7271 Y-91.7370 F120.00
G01 X133.7413 Y-91.7474 F120.00
G01 X133.7482 Y-91.7530 F120.00
G01 X133.7640 Y-91.7673 F120.00
G01 X133.7702 Y-91.7736 F120.00
G01 X133.7820 Y-91.7868 F120.00
G01 X133.7959 Y-91.8049 F120.00
G01 X133.7980 Y-91.8079 F120.00
G01 X133.8009 Y-91.8122 F120.00
G01 X133.8028 Y-91.8153 F120.00
G01 X133.8100 Y-91.8273 F120.00
G01 X133.8159 Y-91.8383 F120.00
G01 X133.8219 Y-91.8510 F120.00
G01 X133.8254 Y-91.8591 F120.00
G01 X133.8314 Y-91.8757 F120.00
G01 X133.8341 Y-91.8841 F120.00
G01 X133.8350 Y-91.8877 F120.00
G01 X133.8384 Y-91.9012 F120.00
G01 X133.8392 Y-91.9048 F120.00
G01 X133.8429 Y-91.9273 F120.00
G01 X133.8434 Y-91.9310 F120.00
G01 X133.8439 Y-91.9361 F120.00
G01 X133.8442 Y-91.9398 F120.00
G01 X133.8450 Y-91.9602 F120.00
G01 X133.8450 Y-92.2598 F120.00
G01 X133.8449 Y-92.2642 F120.00
G01 X133.8439 Y-92.2839 F120.00
G01 X133.8429 Y-92.2927 F120.00
G01 X133.8409 Y-92.3065 F120.00
G01 X133.8384 Y-92.3188 F120.00
G01 X133.8350 Y-92.3323 F120.00
G01 X133.8341 Y-92.3359 F120.00
G01 X133.8326 Y-92.3408 F120.00
G01 X133.8267 Y-92.3575 F120.00
G01 X133.8219 Y-92.3690 F120.00
G01 X133.8159 Y-92.3817 F120.00
G01 X133.8118 Y-92.3895 F120.00
G01 X133.8028 Y-92.4047 F120.00
G01 X133.8009 Y-92.4078 F120.00
G01 X133.7980 Y-92.4121 F120.00
G01 X133.7959 Y-92.4151 F120.00
G01 X133.7853 Y-92.4292 F120.00
G01 X133.7796 Y-92.4360 F120.00
G01 X133.7640 Y-92.4527 F120.00
G01 X133.7614 Y-92.4552 F120.00
G01 X133.7510 Y-92.4646 F120.00
G01 X133.7413 Y-92.4726 F120.00
G01 X133.7228 Y-92.4859 F120.00
G01 X133.7197 Y-92.4878 F120.00
G01 X133.7077 Y-92.4950 F120.00
G01 X133.6967 Y-92.5009 F120.00
G01 X133.6759 Y-92.5104 F120.00
G01 X133.6593 Y-92.5164 F120.00
G01 X133.6473 Y-92.5200 F120.00
G01 X133.6251 Y-92.5252 F120.00
G01 X133.6077 Y-92.5279 F120.00
G01 X133.5952 Y-92.5292 F120.00
G01 X133.5748 Y-92.5300 F120.00
G01 X131.9252 Y-92.5300 F120.00
G01 X131.9048 Y-92.5292 F120.00
G01 X131.8923 Y-92.5279 F120.00
G01 X131.8698 Y-92.5242 F120.00
G01 X131.8527 Y-92.5200 F120.00
G01 X131.8442 Y-92.5176 F120.00
G01 X131.8275 Y-92.5117 F120.00
G01 X131.8193 Y-92.5084 F120.00
G01 X131.8033 Y-92.5009 F120.00
G01 X131.7955 Y-92.4968 F120.00
G01 X131.7923 Y-92.4950 F120.00
G01 X131.7803 Y-92.4878 F120.00
G01 X131.7729 Y-92.4830 F120.00
G01 X131.7558 Y-92.4703 F120.00
G01 X131.7490 Y-92.4646 F120.00
G01 X131.7386 Y-92.4552 F120.00
G01 X131.7360 Y-92.4527 F120.00
G01 X131.7204 Y-92.4360 F120.00
G01 X131.7124 Y-92.4263 F120.00
G01 X131.7041 Y-92.4151 F120.00
G01 X131.7020 Y-92.4121 F120.00
G01 X131.6972 Y-92.4047 F120.00
G01 X131.6857 Y-92.3850 F120.00
G01 X131.6841 Y-92.3817 F120.00
G01 X131.6781 Y-92.3690 F120.00
G01 X131.6733 Y-92.3575 F120.00
G01 X131.6659 Y-92.3359 F120.00
G01 X131.6650 Y-92.3323 F120.00
G01 X131.6616 Y-92.3188 F120.00
G01 X131.6598 Y-92.3101 F120.00
G01 X131.6591 Y-92.3065 F120.00
G01 X131.6571 Y-92.2927 F120.00
G01 X131.6561 Y-92.2839 F120.00
G01 X131.6550 Y-92.2598 F120.00
G01 X131.6571 Y-92.2930 F120.00
G01 X133.8429 Y-92.2930 F120.00
G01 X133.8348 Y-92.3332 F120.00
G01 X131.6652 Y-92.3332 F120.00
G01 X131.6802 Y-92.3734 F120.00
G01 X133.8198 Y-92.3734 F120.00
G01 X133.7970 Y-92.4136 F120.00
G01 X131.7030 Y-92.4136 F120.00
G01 X131.7371 Y-92.4538 F120.00
G01 X133.7629 Y-92.4538 F120.00
G01 X133.7094 Y-92.4940 F120.00
G01 X131.7906 Y-92.4940 F120.00
M5
G00 X131.7836 Y-93.0002
G01 F60.00
M03 S5000.0
G01 F120.00
G01 X133.7164 Y-93.0002 F120.00
G01 X133.7671 Y-93.0404 F120.00
G01 X131.7329 Y-93.0404 F120.00
M5
G00 X131.7002 Y-93.0806
G01 F60.00
M03 S5000.0
G01 F120.00
G01 X133.7998 Y-93.0806 F120.00
G01 X133.8218 Y-93.1208 F120.00
G01 X131.6782 Y-93.1208 F120.00
G01 X131.6641 Y-93.1610 F120.00
G01 X133.8359 Y-93.1610 F120.00
G01 X133.8434 Y-93.2012 F120.00
G01 X131.6566 Y-93.2012 F120.00
G01 X131.6550 Y-93.2414 F120.00
G01 X133.8450 Y-93.2414 F120.00
G01 X133.8450 Y-93.2816 F120.00
G01 X131.6550 Y-93.2816 F120.00
G01 X131.6550 Y-93.3218 F120.00
G01 X133.8450 Y-93.3218 F120.00
G01 X133.8450 Y-93.3620 F120.00
G01 X131.6550 Y-93.3620 F120.00
G01 X131.6550 Y-93.4022 F120.00
G01 X133.8450 Y-93.4022 F120.00
G01 X133.8450 Y-93.4424 F120.00
G01 X131.6550 Y-93.4424 F120.00
G01 X131.6550 Y-93.4826 F120.00
G01 X133.8450 Y-93.4826 F120.00
G01 X133.8450 Y-93.5228 F120.00
G01 X131.6550 Y-93.5228 F120.00
G01 X131.6550 Y-93.5298 F120.00
G01 X131.6550 Y-93.2302 F120.00
G01 X131.6552 Y-93.2239 F120.00
G01 X131.6558 Y-93.2098 F120.00
G01 X131.6561 Y-93.2061 F120.00
G01 X131.6566 Y-93.2010 F120.00
G01 X131.6591 Y-93.1835 F120.00
G01 X131.6608 Y-93.1748 F120.00
G01 X131.6616 Y-93.1712 F120.00
G01 X131.6650 Y-93.1577 F120.00
G01 X131.6674 Y-93.1492 F120.00
G01 X131.6746 Y-93.1291 F120.00
G01 X131.6781 Y-93.1210 F120.00
G01 X131.6841 Y-93.1083 F120.00
G01 X131.6882 Y-93.1005 F120.00
G01 X131.6972 Y-93.0853 F120.00
G01 X131.6991 Y-93.0822 F120.00
G01 X131.7020 Y-93.0779 F120.00
G01 X131.7041 Y-93.0749 F120.00
G01 X131.7180 Y-93.0568 F120.00
G01 X131.7298 Y-93.0436 F120.00
G01 X131.7386 Y-93.0348 F120.00
G01 X131.7558 Y-93.0197 F120.00
G01 X131.7699 Y-93.0091 F120.00
G01 X131.7803 Y-93.0022 F120.00
G01 X131.8000 Y-92.9907 F120.00
G01 X131.8160 Y-92.9831 F120.00
G01 X131.8275 Y-92.9783 F120.00
G01 X131.8491 Y-92.9709 F120.00
G01 X131.8662 Y-92.9666 F120.00
G01 X131.8785 Y-92.9641 F120.00
G01 X131.9011 Y-92.9611 F120.00
G01 X131.9252 Y-92.9600 F120.00
G01 X133.5748 Y-92.9600 F120.00
G01 X133.5952 Y-92.9608 F120.00
G01 X133.6040 Y-92.9616 F120.00
G01 X133.6251 Y-92.9648 F120.00
G01 X133.6473 Y-92.9700 F120.00
G01 X133.6593 Y-92.9736 F120.00
G01 X133.6725 Y-92.9783 F120.00
G01 X133.6840 Y-92.9831 F120.00
G01 X133.7045 Y-92.9932 F120.00
G01 X133.7197 Y-93.0022 F120.00
G01 X133.7271 Y-93.0070 F120.00
G01 X133.7413 Y-93.0174 F120.00
G01 X133.7482 Y-93.0230 F120.00
G01 X133.7640 Y-93.0373 F120.00
G01 X133.7702 Y-93.0436 F120.00
G01 X133.7820 Y-93.0568 F120.00
G01 X133.7959 Y-93.0749 F120.00
G01 X133.7980 Y-93.0779 F120.00
G01 X133.8009 Y-93.0822 F120.00
G01 X133.8028 Y-93.0853 F120.00
G01 X133.8100 Y-93.0973 F120.00
G01 X133.8159 Y-93.1083 F120.00
G01 X133.8219 Y-93.1210 F120.00
G01 X133.8254 Y-93.1291 F120.00
G01 X133.8314 Y-93.1457 F120.00
G01 X133.8341 Y-93.1541 F120.00
G01 X133.8350 Y-93.1577 F120.00
G01 X133.8384 Y-93.1712 F120.00
G01 X133.8392 Y-93.1748 F120.00
G01 X133.8429 Y-93.1973 F120.00
G01 X133.8434 Y-93.2010 F120.00
G01 X133.8439 Y-93.2061 F120.00
G01 X133.8442 Y-93.2098 F120.00
G01 X133.8450 Y-93.2302 F120.00
G01 X133.8450 Y-93.5298 F120.00
G01 X133.8449 Y-93.5342 F120.00
G01 X133.8439 Y-93.5539 F120.00
G01 X133.8429 Y-93.5627 F120.00
G01 X133.8409 Y-93.5765 F120.00
G01 X133.8384 Y-93.5888 F120.00
G01 X133.8350 Y-93.6023 F120.00
G01 X133.8341 Y-93.6059 F120.00
G01 X133.8326 Y-93.6108 F120.00
G01 X133.8267 Y-93.6275 F120.00
G01 X133.8219 Y-93.6390 F120.00
G01 X133.8159 Y-93.6517 F120.00
G01 X133.8118 Y-93.6595 F120.00
G01 X133.8028 Y-93.6747 F120.00
G01 X133.8009 Y-93.6778 F120.00
G01 X133.7980 Y-93.6821 F120.00
G01 X133.7959 Y-93.6851 F120.00
G01 X133.7853 Y-93.6993 F120.00
G01 X133.7796 Y-93.7060 F120.00
G01 X133.7640 Y-93.7227 F120.00
G01 X133.7614 Y-93.7252 F120.00
G01 X133.7510 Y-93.7346 F120.00
G01 X133.7413 Y-93.7426 F120.00
G01 X133.7228 Y-93.7559 F120.00
G01 X133.7197 Y-93.7578 F120.00
G01 X133.7077 Y-93.7650 F120.00
G01 X133.6967 Y-93.7709 F120.00
G01 X133.6759 Y-93.7804 F120.00
G01 X133.6593 Y-93.7864 F120.00
G01 X133.6473 Y-93.7900 F120.00
G01 X133.6251 Y-93.7952 F120.00
G01 X133.6077 Y-93.7979 F120.00
G01 X133.5952 Y-93.7992 F120.00
G01 X133.5748 Y-93.8000 F120.00
G01 X131.9252 Y-93.8000 F120.00
G01 X131.9048 Y-93.7992 F120.00
G01 X131.8923 Y-93.7979 F120.00
G01 X131.8698 Y-93.7942 F120.00
G01 X131.8527 Y-93.7900 F120.00
G01 X131.8442 Y-93.7876 F120.00
G01 X131.8275 Y-93.7817 F120.00
G01 X131.8193 Y-93.7784 F120.00
G01 X131.8033 Y-93.7709 F120.00
G01 X131.7955 Y-93.7668 F120.00
G01 X131.7923 Y-93.7650 F120.00
G01 X131.7803 Y-93.7578 F120.00
G01 X131.7729 Y-93.7530 F120.00
G01 X131.7558 Y-93.7403 F120.00
G01 X131.7490 Y-93.7346 F120.00
G01 X131.7386 Y-93.7252 F120.00
G01 X131.7360 Y-93.7227 F120.00
G01 X131.7204 Y-93.7060 F120.00
G01 X131.7124 Y-93.6963 F120.00
G01 X131.7041 Y-93.6851 F120.00
G01 X131.7020 Y-93.6821 F120.00
G01 X131.6972 Y-93.6747 F120.00
G01 X131.6857 Y-93.6550 F120.00
G01 X131.6841 Y-93.6517 F120.00
G01 X131.6781 Y-93.6390 F120.00
G01 X131.6733 Y-93.6275 F120.00
G01 X131.6659 Y-93.6059 F120.00
G01 X131.6650 Y-93.6023 F120.00
G01 X131.6616 Y-93.5888 F120.00
G01 X131.6598 Y-93.5801 F120.00
G01 X131.6591 Y-93.5765 F120.00
G01 X131.6571 Y-93.5627 F120.00
G01 X131.6561 Y-93.5539 F120.00
G01 X131.6550 Y-93.5298 F120.00
G01 X131.6571 Y-93.5630 F120.00
G01 X133.8429 Y-93.5630 F120.00
G01 X133.8348 Y-93.6032 F120.00
G01 X131.6652 Y-93.6032 F120.00
G01 X131.6802 Y-93.6434 F120.00
G01 X133.8198 Y-93.6434 F120.00
G01 X133.7970 Y-93.6836 F120.00
G01 X131.7030 Y-93.6836 F120.00
G01 X131.7371 Y-93.7238 F120.00
G01 X133.7629 Y-93.7238 F120.00
G01 X133.7094 Y-93.7640 F120.00
G01 X131.7906 Y-93.7640 F120.00
M5
G00 X134.0203 Y-94.2245
G01 F60.00
M03 S5000.0
G01 F120.00
G01 X134.0203 Y-94.6255 F120.00
M5
G00 X134.0605 Y-94.1478
G01 F60.00
M03 S5000.0
G01 F120.00
G01 X134.0605 Y-94.7022 F120.00
G01 X134.1007 Y-94.7579 F120.00
G01 X134.1007 Y-94.0921 F120.00
G01 X134.1409 Y-94.0493 F120.00
G01 X134.1409 Y-94.8007 F120.00
G01 X134.1811 Y-94.8353 F120.00
G01 X134.1811 Y-94.0147 F120.00
G01 X134.2213 Y-93.9864 F120.00
G01 X134.2213 Y-94.8636 F120.00
G01 X134.2615 Y-94.8869 F120.00
G01 X134.2615 Y-93.9631 F120.00
G01 X134.3017 Y-93.9444 F120.00
G01 X134.3017 Y-94.9056 F120.00
G01 X134.3419 Y-94.9202 F120.00
G01 X134.3419 Y-93.9298 F120.00
G01 X134.3821 Y-93.9190 F120.00
G01 X134.3821 Y-94.9310 F120.00
G01 X134.4223 Y-94.9387 F120.00
G01 X134.4223 Y-93.9113 F120.00
G01 X134.4625 Y-93.9067 F120.00
G01 X134.4625 Y-94.9433 F120.00
G01 X134.5027 Y-94.9449 F120.00
G01 X134.5027 Y-93.9051 F120.00
G01 X134.5429 Y-93.9070 F120.00
G01 X134.5429 Y-94.9430 F120.00
G01 X134.5831 Y-94.9379 F120.00
G01 X134.5831 Y-93.9121 F120.00
G01 X134.6233 Y-93.9203 F120.00
G01 X134.6233 Y-94.9297 F120.00
G01 X134.6635 Y-94.9183 F120.00
G01 X134.6635 Y-93.9317 F120.00
G01 X134.7037 Y-93.9467 F120.00
G01 X134.7037 Y-94.9033 F120.00
G01 X134.7439 Y-94.8842 F120.00
G01 X134.7439 Y-93.9658 F120.00
G01 X134.7841 Y-93.9896 F120.00
G01 X134.7841 Y-94.8604 F120.00
G01 X134.8243 Y-94.8313 F120.00
G01 X134.8243 Y-94.0187 F120.00
G01 X134.8645 Y-94.0542 F120.00
G01 X134.8645 Y-94.7958 F120.00
G01 X134.9047 Y-94.7514 F120.00
G01 X134.9047 Y-94.0986 F120.00
G01 X134.9449 Y-94.1567 F120.00
G01 X134.9449 Y-94.6933 F120.00
G01 X134.9851 Y-94.6114 F120.00
G01 X134.9851 Y-94.2386 F120.00
G01 X135.0198 Y-94.4187 F120.00
G01 X135.0198 Y-94.4313 F120.00
G01 X135.0177 Y-94.4734 F120.00
G01 X135.0167 Y-94.4822 F120.00
G01 X135.0111 Y-94.5203 F120.00
G01 X135.0094 Y-94.5290 F120.00
G01 X134.9993 Y-94.5699 F120.00
G01 X134.9956 Y-94.5819 F120.00
G01 X134.9827 Y-94.6182 F120.00
G01 X134.9794 Y-94.6263 F120.00
G01 X134.9597 Y-94.6678 F120.00
G01 X134.9555 Y-94.6756 F120.00
G01 X134.9357 Y-94.7086 F120.00
G01 X134.9288 Y-94.7190 F120.00
G01 X134.9058 Y-94.7499 F120.00
G01 X134.9035 Y-94.7528 F120.00
G01 X134.9003 Y-94.7568 F120.00
G01 X134.8720 Y-94.7882 F120.00
G01 X134.8695 Y-94.7908 F120.00
G01 X134.8658 Y-94.7945 F120.00
G01 X134.8632 Y-94.7970 F120.00
G01 X134.8346 Y-94.8229 F120.00
G01 X134.8278 Y-94.8285 F120.00
G01 X134.8249 Y-94.8308 F120.00
G01 X134.7940 Y-94.8538 F120.00
G01 X134.7910 Y-94.8559 F120.00
G01 X134.7867 Y-94.8587 F120.00
G01 X134.7836 Y-94.8607 F120.00
G01 X134.7506 Y-94.8805 F120.00
G01 X134.7474 Y-94.8823 F120.00
G01 X134.7428 Y-94.8847 F120.00
G01 X134.7047 Y-94.9029 F120.00
G01 X134.7013 Y-94.9044 F120.00
G01 X134.6932 Y-94.9077 F120.00
G01 X134.6569 Y-94.9206 F120.00
G01 X134.6449 Y-94.9243 F120.00
G01 X134.6076 Y-94.9336 F120.00
G01 X134.5989 Y-94.9354 F120.00
G01 X134.5953 Y-94.9361 F120.00
G01 X134.5572 Y-94.9417 F120.00
G01 X134.5447 Y-94.9429 F120.00
G01 X134.5063 Y-94.9448 F120.00
G01 X134.5026 Y-94.9449 F120.00
G01 X134.4974 Y-94.9449 F120.00
G01 X134.4937 Y-94.9448 F120.00
G01 X134.4553 Y-94.9429 F120.00
G01 X134.4428 Y-94.9417 F120.00
G01 X134.4047 Y-94.9361 F120.00
G01 X134.3960 Y-94.9344 F120.00
G01 X134.3924 Y-94.9336 F120.00
G01 X134.3551 Y-94.9243 F120.00
G01 X134.3515 Y-94.9233 F120.00
G01 X134.3431 Y-94.9206 F120.00
G01 X134.3068 Y-94.9077 F120.00
G01 X134.3034 Y-94.9063 F120.00
G01 X134.2987 Y-94.9044 F120.00
G01 X134.2953 Y-94.9029 F120.00
G01 X134.2605 Y-94.8864 F120.00
G01 X134.2526 Y-94.8823 F120.00
G01 X134.2494 Y-94.8805 F120.00
G01 X134.2164 Y-94.8607 F120.00
G01 X134.2060 Y-94.8538 F120.00
G01 X134.1751 Y-94.8308 F120.00
G01 X134.1682 Y-94.8253 F120.00
G01 X134.1654 Y-94.8229 F120.00
G01 X134.1368 Y-94.7970 F120.00
G01 X134.1280 Y-94.7882 F120.00
G01 X134.1021 Y-94.7596 F120.00
G01 X134.0997 Y-94.7568 F120.00
G01 X134.0965 Y-94.7528 F120.00
G01 X134.0712 Y-94.7190 F120.00
G01 X134.0643 Y-94.7086 F120.00
G01 X134.0445 Y-94.6756 F120.00
G01 X134.0403 Y-94.6678 F120.00
G01 X134.0206 Y-94.6263 F120.00
G01 X134.0173 Y-94.6182 F120.00
G01 X134.0044 Y-94.5819 F120.00
G01 X134.0007 Y-94.5699 F120.00
G01 X133.9914 Y-94.5326 F120.00
G01 X133.9896 Y-94.5239 F120.00
G01 X133.9833 Y-94.4822 F120.00
G01 X133.9821 Y-94.4697 F120.00
G01 X133.9802 Y-94.4313 F120.00
G01 X133.9801 Y-94.4224 F120.00
G01 X133.9823 Y-94.3766 F120.00
G01 X133.9833 Y-94.3678 F120.00
G01 X133.9889 Y-94.3297 F120.00
G01 X133.9914 Y-94.3174 F120.00
G01 X134.0007 Y-94.2801 F120.00
G01 X134.0032 Y-94.2716 F120.00
G01 X134.0173 Y-94.2318 F120.00
G01 X134.0221 Y-94.2203 F120.00
G01 X134.0386 Y-94.1855 F120.00
G01 X134.0427 Y-94.1776 F120.00
G01 X134.0445 Y-94.1744 F120.00
G01 X134.0643 Y-94.1414 F120.00
G01 X134.0712 Y-94.1310 F120.00
G01 X134.0942 Y-94.1001 F120.00
G01 X134.0997 Y-94.0932 F120.00
G01 X134.1021 Y-94.0904 F120.00
G01 X134.1280 Y-94.0618 F120.00
G01 X134.1368 Y-94.0530 F120.00
G01 X134.1654 Y-94.0271 F120.00
G01 X134.1751 Y-94.0192 F120.00
G01 X134.2060 Y-93.9962 F120.00
G01 X134.2133 Y-93.9913 F120.00
G01 X134.2164 Y-93.9893 F120.00
G01 X134.2494 Y-93.9695 F120.00
G01 X134.2605 Y-93.9636 F120.00
G01 X134.2953 Y-93.9471 F120.00
G01 X134.2987 Y-93.9456 F120.00
G01 X134.3034 Y-93.9437 F120.00
G01 X134.3068 Y-93.9423 F120.00
G01 X134.3431 Y-93.9294 F120.00
G01 X134.3551 Y-93.9257 F120.00
G01 X134.3924 Y-93.9164 F120.00
G01 X134.4011 Y-93.9146 F120.00
G01 X134.4047 Y-93.9139 F120.00
G01 X134.4428 Y-93.9083 F120.00
G01 X134.4553 Y-93.9071 F120.00
G01 X134.4937 Y-93.9052 F120.00
G01 X134.5026 Y-93.9051 F120.00
G01 X134.5063 Y-93.9052 F120.00
G01 X134.5447 Y-93.9071 F120.00
G01 X134.5572 Y-93.9083 F120.00
G01 X134.5953 Y-93.9139 F120.00
G01 X134.6040 Y-93.9156 F120.00
G01 X134.6076 Y-93.9164 F120.00
G01 X134.6449 Y-93.9257 F120.00
G01 X134.6569 Y-93.9294 F120.00
G01 X134.6932 Y-93.9423 F120.00
G01 X134.6966 Y-93.9437 F120.00
G01 X134.7013 Y-93.9456 F120.00
G01 X134.7047 Y-93.9471 F120.00
G01 X134.7395 Y-93.9636 F120.00
G01 X134.7428 Y-93.9653 F120.00
G01 X134.7474 Y-93.9677 F120.00
G01 X134.7836 Y-93.9893 F120.00
G01 X134.7867 Y-93.9913 F120.00
G01 X134.7940 Y-93.9962 F120.00
G01 X134.8249 Y-94.0192 F120.00
G01 X134.8318 Y-94.0247 F120.00
G01 X134.8346 Y-94.0271 F120.00
G01 X134.8632 Y-94.0530 F120.00
G01 X134.8658 Y-94.0555 F120.00
G01 X134.8720 Y-94.0618 F120.00
G01 X134.8979 Y-94.0904 F120.00
G01 X134.9003 Y-94.0932 F120.00
G01 X134.9035 Y-94.0972 F120.00
G01 X134.9058 Y-94.1001 F120.00
G01 X134.9288 Y-94.1310 F120.00
G01 X134.9337 Y-94.1383 F120.00
G01 X134.9357 Y-94.1414 F120.00
G01 X134.9555 Y-94.1744 F120.00
G01 X134.9614 Y-94.1855 F120.00
G01 X134.9779 Y-94.2203 F120.00
G01 X134.9813 Y-94.2284 F120.00
G01 X134.9827 Y-94.2318 F120.00
G01 X134.9956 Y-94.2681 F120.00
G01 X134.9968 Y-94.2716 F120.00
G01 X134.9993 Y-94.2801 F120.00
G01 X135.0086 Y-94.3174 F120.00
G01 X135.0111 Y-94.3297 F120.00
G01 X135.0167 Y-94.3678 F120.00
G01 X135.0177 Y-94.3766 F120.00
G01 X135.0198 Y-94.4187 F120.00
M5
G00 X136.7406 Y-93.7640
G01 F60.00
M03 S5000.0
G01 F120.00
G01 X138.6594 Y-93.7640 F120.00
G01 X138.7129 Y-93.7238 F120.00
G01 X136.6871 Y-93.7238 F120.00
G01 X136.6530 Y-93.6836 F120.00
G01 X138.7470 Y-93.6836 F120.00
G01 X138.7698 Y-93.6434 F120.00
G01 X136.6302 Y-93.6434 F120.00
G01 X136.6152 Y-93.6032 F120.00
G01 X138.7848 Y-93.6032 F120.00
G01 X138.7929 Y-93.5630 F120.00
G01 X136.6071 Y-93.5630 F120.00
G01 X136.6050 Y-93.5298 F120.00
G01 X136.6061 Y-93.5539 F120.00
G01 X136.6071 Y-93.5627 F120.00
G01 X136.6091 Y-93.5765 F120.00
G01 X136.6098 Y-93.5801 F120.00
G01 X136.6116 Y-93.5888 F120.00
G01 X136.6150 Y-93.6023 F120.00
G01 X136.6159 Y-93.6059 F120.00
G01 X136.6233 Y-93.6275 F120.00
G01 X136.6281 Y-93.6390 F120.00
G01 X136.6341 Y-93.6517 F120.00
G01 X136.6357 Y-93.6550 F120.00
G01 X136.6472 Y-93.6747 F120.00
G01 X136.6520 Y-93.6821 F120.00
G01 X136.6541 Y-93.6851 F120.00
G01 X136.6624 Y-93.6963 F120.00
G01 X136.6704 Y-93.7060 F120.00
G01 X136.6860 Y-93.7227 F120.00
G01 X136.6886 Y-93.7252 F120.00
G01 X136.6990 Y-93.7346 F120.00
G01 X136.7057 Y-93.7403 F120.00
G01 X136.7229 Y-93.7530 F120.00
G01 X136.7303 Y-93.7578 F120.00
G01 X136.7423 Y-93.7650 F120.00
G01 X136.7455 Y-93.7668 F120.00
G01 X136.7533 Y-93.7709 F120.00
G01 X136.7693 Y-93.7784 F120.00
G01 X136.7775 Y-93.7817 F120.00
G01 X136.7942 Y-93.7876 F120.00
G01 X136.8027 Y-93.7900 F120.00
G01 X136.8198 Y-93.7942 F120.00
G01 X136.8423 Y-93.7979 F120.00
G01 X136.8548 Y-93.7992 F120.00
G01 X136.8752 Y-93.8000 F120.00
G01 X138.5248 Y-93.8000 F120.00
G01 X138.5452 Y-93.7992 F120.00
G01 X138.5577 Y-93.7979 F120.00
G01 X138.5751 Y-93.7952 F120.00
G01 X138.5973 Y-93.7900 F120.00
G01 X138.6093 Y-93.7864 F120.00
G01 X138.6259 Y-93.7804 F120.00
G01 X138.6467 Y-93.7709 F120.00
G01 X138.6577 Y-93.7650 F120.00
G01 X138.6697 Y-93.7578 F120.00
G01 X138.6728 Y-93.7559 F120.00
G01 X138.6913 Y-93.7426 F120.00
G01 X138.7010 Y-93.7346 F120.00
G01 X138.7114 Y-93.7252 F120.00
G01 X138.7140 Y-93.7227 F120.00
G01 X138.7296 Y-93.7060 F120.00
G01 X138.7353 Y-93.6993 F120.00
G01 X138.7459 Y-93.6851 F120.00
G01 X138.7480 Y-93.6821 F120.00
G01 X138.7509 Y-93.6778 F120.00
G01 X138.7528 Y-93.6747 F120.00
G01 X138.7618 Y-93.6595 F120.00
G01 X138.7659 Y-93.6517 F120.00
G01 X138.7719 Y-93.6390 F120.00
G01 X138.7767 Y-93.6275 F120.00
G01 X138.7826 Y-93.6108 F120.00
G01 X138.7841 Y-93.6059 F120.00
G01 X138.7850 Y-93.6023 F120.00
G01 X138.7884 Y-93.5888 F120.00
G01 X138.7909 Y-93.5765 F120.00
G01 X138.7929 Y-93.5627 F120.00
G01 X138.7939 Y-93.5539 F120.00
G01 X138.7949 Y-93.5342 F120.00
G01 X138.7950 Y-93.5298 F120.00
G01 X138.7950 Y-93.2302 F120.00
G01 X138.7941 Y-93.2098 F120.00
G01 X138.7939 Y-93.2061 F120.00
G01 X138.7934 Y-93.2010 F120.00
G01 X138.7929 Y-93.1973 F120.00
G01 X138.7892 Y-93.1748 F120.00
G01 X138.7884 Y-93.1712 F120.00
G01 X138.7850 Y-93.1577 F120.00
G01 X138.7841 Y-93.1541 F120.00
G01 X138.7814 Y-93.1457 F120.00
G01 X138.7754 Y-93.1291 F120.00
G01 X138.7719 Y-93.1210 F120.00
G01 X138.7659 Y-93.1083 F120.00
G01 X138.7600 Y-93.0973 F120.00
G01 X138.7528 Y-93.0853 F120.00
G01 X138.7509 Y-93.0822 F120.00
G01 X138.7480 Y-93.0779 F120.00
G01 X138.7459 Y-93.0749 F120.00
G01 X138.7320 Y-93.0568 F120.00
G01 X138.7202 Y-93.0436 F120.00
G01 X138.7140 Y-93.0373 F120.00
G01 X138.6982 Y-93.0230 F120.00
G01 X138.6913 Y-93.0174 F120.00
G01 X138.6771 Y-93.0070 F120.00
G01 X138.6697 Y-93.0022 F120.00
G01 X138.6545 Y-92.9932 F120.00
G01 X138.6340 Y-92.9831 F120.00
G01 X138.6225 Y-92.9783 F120.00
G01 X138.6093 Y-92.9736 F120.00
G01 X138.5973 Y-92.9700 F120.00
G01 X138.5751 Y-92.9648 F120.00
G01 X138.5540 Y-92.9616 F120.00
G01 X138.5452 Y-92.9609 F120.00
G01 X138.5248 Y-92.9600 F120.00
G01 X136.8752 Y-92.9600 F120.00
G01 X136.8511 Y-92.9611 F120.00
G01 X136.8285 Y-92.9641 F120.00
G01 X136.8162 Y-92.9666 F120.00
G01 X136.7991 Y-92.9709 F120.00
G01 X136.7775 Y-92.9783 F120.00
G01 X136.7660 Y-92.9831 F120.00
G01 X136.7500 Y-92.9907 F120.00
G01 X136.7303 Y-93.0022 F120.00
G01 X136.7199 Y-93.0091 F120.00
G01 X136.7057 Y-93.0197 F120.00
G01 X136.6886 Y-93.0348 F120.00
G01 X136.6798 Y-93.0436 F120.00
G01 X136.6680 Y-93.0568 F120.00
G01 X136.6541 Y-93.0749 F120.00
G01 X136.6520 Y-93.0779 F120.00
G01 X136.6491 Y-93.0822 F120.00
G01 X136.6472 Y-93.0853 F120.00
G01 X136.6382 Y-93.1005 F120.00
G01 X136.6341 Y-93.1083 F120.00
G01 X136.6281 Y-93.1210 F120.00
G01 X136.6246 Y-93.1291 F120.00
G01 X136.6174 Y-93.1492 F120.00
G01 X136.6150 Y-93.1577 F120.00
G01 X136.6116 Y-93.1712 F120.00
G01 X136.6108 Y-93.1748 F120.00
G01 X136.6091 Y-93.1835 F120.00
G01 X136.6066 Y-93.2010 F120.00
G01 X136.6061 Y-93.2061 F120.00
G01 X136.6058 Y-93.2098 F120.00
G01 X136.6052 Y-93.2239 F120.00
G01 X136.6050 Y-93.2302 F120.00
G01 X136.6050 Y-93.5298 F120.00
G01 X136.6050 Y-93.5228 F120.00
G01 X138.7950 Y-93.5228 F120.00
G01 X138.7950 Y-93.4826 F120.00
G01 X136.6050 Y-93.4826 F120.00
G01 X136.6050 Y-93.4424 F120.00
G01 X138.7950 Y-93.4424 F120.00
G01 X138.7950 Y-93.4022 F120.00
G01 X136.6050 Y-93.4022 F120.00
G01 X136.6050 Y-93.3620 F120.00
G01 X138.7950 Y-93.3620 F120.00
G01 X138.7950 Y-93.3218 F120.00
G01 X136.6050 Y-93.3218 F120.00
G01 X136.6050 Y-93.2816 F120.00
G01 X138.7950 Y-93.2816 F120.00
G01 X138.7950 Y-93.2414 F120.00
G01 X136.6050 Y-93.2414 F120.00
G01 X136.6066 Y-93.2012 F120.00
G01 X138.7934 Y-93.2012 F120.00
G01 X138.7859 Y-93.1610 F120.00
G01 X136.6141 Y-93.1610 F120.00
G01 X136.6282 Y-93.1208 F120.00
G01 X138.7718 Y-93.1208 F120.00
G01 X138.7498 Y-93.0806 F120.00
G01 X136.6502 Y-93.0806 F120.00
M5
G00 X136.6829 Y-93.0404
G01 F60.00
M03 S5000.0
G01 F120.00
G01 X138.7171 Y-93.0404 F120.00
G01 X138.6664 Y-93.0002 F120.00
G01 X136.7336 Y-93.0002 F120.00
M5
G00 X136.7406 Y-92.4940
G01 F60.00
M03 S5000.0
G01 F120.00
G01 X138.6594 Y-92.4940 F120.00
G01 X138.7129 Y-92.4538 F120.00
G01 X136.6871 Y-92.4538 F120.00
G01 X136.6530 Y-92.4136 F120.00
G01 X138.7470 Y-92.4136 F120.00
G01 X138.7698 Y-92.3734 F120.00
G01 X136.6302 Y-92.3734 F120.00
G01 X136.6152 Y-92.3332 F120.00
G01 X138.7848 Y-92.3332 F120.00
G01 X138.7929 Y-92.2930 F120.00
G01 X136.6071 Y-92.2930 F120.00
G01 X136.6050 Y-92.2598 F120.00
G01 X136.6061 Y-92.2839 F120.00
G01 X136.6071 Y-92.2927 F120.00
G01 X136.6091 Y-92.3065 F120.00
G01 X136.6098 Y-92.3101 F120.00
G01 X136.6116 Y-92.3188 F120.00
G01 X136.6150 Y-92.3323 F120.00
G01 X136.6159 Y-92.3359 F120.00
G01 X136.6233 Y-92.3575 F120.00
G01 X136.6281 Y-92.3690 F120.00
G01 X136.6341 Y-92.3817 F120.00
G01 X136.6357 Y-92.3850 F120.00
G01 X136.6472 Y-92.4047 F120.00
G01 X136.6520 Y-92.4121 F120.00
G01 X136.6541 Y-92.4151 F120.00
G01 X136.6624 Y-92.4263 F120.00
G01 X136.6704 Y-92.4360 F120.00
G01 X136.6860 Y-92.4527 F120.00
G01 X136.6886 Y-92.4552 F120.00
G01 X136.6990 Y-92.4646 F120.00
G01 X136.7058 Y-92.4703 F120.00
G01 X136.7229 Y-92.4830 F120.00
G01 X136.7303 Y-92.4878 F120.00
G01 X136.7423 Y-92.4950 F120.00
G01 X136.7455 Y-92.4968 F120.00
G01 X136.7533 Y-92.5009 F120.00
G01 X136.7693 Y-92.5084 F120.00
G01 X136.7775 Y-92.5117 F120.00
G01 X136.7942 Y-92.5176 F120.00
G01 X136.8027 Y-92.5200 F120.00
G01 X136.8198 Y-92.5242 F120.00
G01 X136.8423 Y-92.5279 F120.00
G01 X136.8548 Y-92.5292 F120.00
G01 X136.8752 Y-92.5300 F120.00
G01 X138.5248 Y-92.5300 F120.00
G01 X138.5452 Y-92.5292 F120.00
G01 X138.5577 Y-92.5279 F120.00
G01 X138.5751 Y-92.5252 F120.00
G01 X138.5973 Y-92.5200 F120.00
G01 X138.6093 Y-92.5164 F120.00
G01 X138.6259 Y-92.5104 F120.00
G01 X138.6467 Y-92.5009 F120.00
G01 X138.6577 Y-92.4950 F120.00
G01 X138.6697 Y-92.4878 F120.00
G01 X138.6728 Y-92.4859 F120.00
G01 X138.6913 Y-92.4726 F120.00
G01 X138.7010 Y-92.4646 F120.00
G01 X138.7114 Y-92.4552 F120.00
G01 X138.7140 Y-92.4527 F120.00
G01 X138.7296 Y-92.4360 F120.00
G01 X138.7353 Y-92.4292 F120.00
G01 X138.7459 Y-92.4151 F120.00
G01 X138.7480 Y-92.4121 F120.00
G01 X138.7509 Y-92.4078 F120.00
G01 X138.7528 Y-92.4047 F120.00
G01 X138.7618 Y-92.3895 F120.00
G01 X138.7659 Y-92.3817 F120.00
G01 X138.7719 Y-92.3690 F120.00
G01 X138.7767 Y-92.3575 F120.00
G01 X138.7826 Y-92.3408 F120.00
G01 X138.7841 Y-92.3359 F120.00
G01 X138.7850 Y-92.3323 F120.00
G01 X138.7884 Y-92.3188 F120.00
G01 X138.7909 Y-92.3065 F120.00
G01 X138.7929 Y-92.2927 F120.00
G01 X138.7939 Y-92.2839 F120.00
G01 X138.7949 Y-92.2642 F120.00
G01 X138.7950 Y-92.2598 F120.00
G01 X138.7950 Y-91.9602 F120.00
G01 X138.7942 Y-91.9398 F120.00
G01 X138.7939 Y-91.9361 F120.00
G01 X138.7934 Y-91.9310 F120.00
G01 X138.7929 Y-91.9273 F120.00
G01 X138.7892 Y-91.9048 F120.00
G01 X138.7884 Y-91.9012 F120.00
G01 X138.7850 Y-91.8877 F120.00
G01 X138.7841 Y-91.8841 F120.00
G01 X138.7814 Y-91.8757 F120.00
G01 X138.7754 Y-91.8591 F120.00
G01 X138.7719 Y-91.8510 F120.00
G01 X138.7659 Y-91.8383 F120.00
G01 X138.7600 Y-91.8273 F120.00
G01 X138.7528 Y-91.8153 F120.00
G01 X138.7509 Y-91.8122 F120.00
G01 X138.7480 Y-91.8079 F120.00
G01 X138.7459 Y-91.8049 F120.00
G01 X138.7320 Y-91.7868 F120.00
G01 X138.7202 Y-91.7736 F120.00
G01 X138.7140 Y-91.7673 F120.00
G01 X138.6982 Y-91.7530 F120.00
G01 X138.6913 Y-91.7474 F120.00
G01 X138.6771 Y-91.7370 F120.00
G01 X138.6697 Y-91.7322 F120.00
G01 X138.6545 Y-91.7232 F120.00
G01 X138.6340 Y-91.7131 F120.00
G01 X138.6225 Y-91.7083 F120.00
G01 X138.6093 Y-91.7036 F120.00
G01 X138.5973 Y-91.7000 F120.00
G01 X138.5751 Y-91.6948 F120.00
G01 X138.5540 Y-91.6916 F120.00
G01 X138.5452 Y-91.6908 F120.00
G01 X138.5248 Y-91.6900 F120.00
G01 X136.8752 Y-91.6900 F120.00
G01 X136.8511 Y-91.6911 F120.00
G01 X136.8285 Y-91.6941 F120.00
G01 X136.8162 Y-91.6966 F120.00
G01 X136.7991 Y-91.7009 F120.00
G01 X136.7775 Y-91.7083 F120.00
G01 X136.7660 Y-91.7131 F120.00
G01 X136.7500 Y-91.7207 F120.00
G01 X136.7303 Y-91.7322 F120.00
G01 X136.7199 Y-91.7391 F120.00
G01 X136.7058 Y-91.7497 F120.00
G01 X136.6886 Y-91.7648 F120.00
G01 X136.6798 Y-91.7736 F120.00
G01 X136.6680 Y-91.7868 F120.00
G01 X136.6541 Y-91.8049 F120.00
G01 X136.6520 Y-91.8079 F120.00
G01 X136.6491 Y-91.8122 F120.00
G01 X136.6472 Y-91.8153 F120.00
G01 X136.6382 Y-91.8305 F120.00
G01 X136.6341 Y-91.8383 F120.00
G01 X136.6281 Y-91.8510 F120.00
G01 X136.6246 Y-91.8591 F120.00
G01 X136.6174 Y-91.8792 F120.00
G01 X136.6150 Y-91.8877 F120.00
G01 X136.6116 Y-91.9012 F120.00
G01 X136.6108 Y-91.9048 F120.00
G01 X136.6091 Y-91.9135 F120.00
G01 X136.6066 Y-91.9310 F120.00
G01 X136.6061 Y-91.9361 F120.00
G01 X136.6058 Y-91.9398 F120.00
G01 X136.6052 Y-91.9539 F120.00
G01 X136.6050 Y-91.9602 F120.00
G01 X136.6050 Y-92.2598 F120.00
G01 X136.6050 Y-92.2528 F120.00
G01 X138.7950 Y-92.2528 F120.00
G01 X138.7950 Y-92.2126 F120.00
G01 X136.6050 Y-92.2126 F120.00
G01 X136.6050 Y-92.1724 F120.00
G01 X138.7950 Y-92.1724 F120.00
G01 X138.7950 Y-92.1322 F120.00
G01 X136.6050 Y-92.1322 F120.00
G01 X136.6050 Y-92.0920 F120.00
G01 X138.7950 Y-92.0920 F120.00
G01 X138.7950 Y-92.0518 F120.00
G01 X136.6050 Y-92.0518 F120.00
G01 X136.6050 Y-92.0116 F120.00
G01 X138.7950 Y-92.0116 F120.00
G01 X138.7950 Y-91.9714 F120.00
G01 X136.6050 Y-91.9714 F120.00
G01 X136.6066 Y-91.9312 F120.00
G01 X138.7934 Y-91.9312 F120.00
G01 X138.7859 Y-91.8910 F120.00
G01 X136.6141 Y-91.8910 F120.00
G01 X136.6282 Y-91.8508 F120.00
G01 X138.7718 Y-91.8508 F120.00
G01 X138.7498 Y-91.8106 F120.00
G01 X136.6502 Y-91.8106 F120.00
M5
G00 X136.6829 Y-91.7704
G01 F60.00
M03 S5000.0
G01 F120.00
G01 X138.7171 Y-91.7704 F120.00
G01 X138.6664 Y-91.7302 F120.00
G01 X136.7336 Y-91.7302 F120.00
M5
G00 X136.7406 Y-91.2240
G01 F60.00
M03 S5000.0
G01 F120.00
G01 X138.6594 Y-91.2240 F120.00
G01 X138.7129 Y-91.1838 F120.00
G01 X136.6871 Y-91.1838 F120.00
G01 X136.6530 Y-91.1436 F120.00
G01 X138.7470 Y-91.1436 F120.00
G01 X138.7698 Y-91.1034 F120.00
G01 X136.6302 Y-91.1034 F120.00
G01 X136.6152 Y-91.0632 F120.00
G01 X138.7848 Y-91.0632 F120.00
G01 X138.7929 Y-91.0230 F120.00
G01 X136.6071 Y-91.0230 F120.00
G01 X136.6050 Y-90.9898 F120.00
G01 X136.6061 Y-91.0139 F120.00
G01 X136.6071 Y-91.0227 F120.00
G01 X136.6091 Y-91.0365 F120.00
G01 X136.6098 Y-91.0401 F120.00
G01 X136.6116 Y-91.0488 F120.00
G01 X136.6150 Y-91.0623 F120.00
G01 X136.6159 Y-91.0659 F120.00
G01 X136.6233 Y-91.0875 F120.00
G01 X136.6281 Y-91.0990 F120.00
G01 X136.6341 Y-91.1117 F120.00
G01 X136.6357 Y-91.1150 F120.00
G01 X136.6472 Y-91.1347 F120.00
G01 X136.6520 Y-91.1421 F120.00
G01 X136.6541 Y-91.1451 F120.00
G01 X136.6624 Y-91.1563 F120.00
G01 X136.6704 Y-91.1660 F120.00
G01 X136.6860 Y-91.1827 F120.00
G01 X136.6886 Y-91.1852 F120.00
G01 X136.6990 Y-91.1946 F120.00
G01 X136.7058 Y-91.2003 F120.00
G01 X136.7229 Y-91.2130 F120.00
G01 X136.7303 Y-91.2178 F120.00
G01 X136.7423 Y-91.2250 F120.00
G01 X136.7455 Y-91.2268 F120.00
G01 X136.7533 Y-91.2309 F120.00
G01 X136.7693 Y-91.2384 F120.00
G01 X136.7775 Y-91.2417 F120.00
G01 X136.7942 Y-91.2476 F120.00
G01 X136.8027 Y-91.2500 F120.00
G01 X136.8198 Y-91.2542 F120.00
G01 X136.8423 Y-91.2579 F120.00
G01 X136.8548 Y-91.2592 F120.00
G01 X136.8752 Y-91.2600 F120.00
G01 X138.5248 Y-91.2600 F120.00
G01 X138.5452 Y-91.2592 F120.00
G01 X138.5577 Y-91.2579 F120.00
G01 X138.5751 Y-91.2552 F120.00
G01 X138.5973 Y-91.2500 F120.00
G01 X138.6093 Y-91.2464 F120.00
G01 X138.6259 Y-91.2404 F120.00
G01 X138.6467 Y-91.2309 F120.00
G01 X138.6577 Y-91.2250 F120.00
G01 X138.6697 Y-91.2178 F120.00
G01 X138.6728 Y-91.2159 F120.00
G01 X138.6913 Y-91.2026 F120.00
G01 X138.7010 Y-91.1946 F120.00
G01 X138.7114 Y-91.1852 F120.00
G01 X138.7140 Y-91.1827 F120.00
G01 X138.7296 Y-91.1660 F120.00
G01 X138.7353 Y-91.1592 F120.00
G01 X138.7459 Y-91.1451 F120.00
G01 X138.7480 Y-91.1421 F120.00
G01 X138.7509 Y-91.1378 F120.00
G01 X138.7528 Y-91.1347 F120.00
G01 X138.7618 Y-91.1195 F120.00
G01 X138.7659 Y-91.1117 F120.00
G01 X138.7719 Y-91.0990 F120.00
G01 X138.7767 Y-91.0875 F120.00
G01 X138.7826 Y-91.0708 F120.00
G01 X138.7841 Y-91.0659 F120.00
G01 X138.7850 Y-91.0623 F120.00
G01 X138.7884 Y-91.0488 F120.00
G01 X138.7909 Y-91.0365 F120.00
G01 X138.7929 Y-91.0227 F120.00
G01 X138.7939 Y-91.0139 F120.00
G01 X138.7949 Y-90.9942 F120.00
G01 X138.7950 Y-90.9898 F120.00
G01 X138.7950 Y-90.6902 F120.00
G01 X138.7942 Y-90.6698 F120.00
G01 X138.7939 Y-90.6661 F120.00
G01 X138.7934 Y-90.6610 F120.00
G01 X138.7929 Y-90.6573 F120.00
G01 X138.7892 Y-90.6348 F120.00
G01 X138.7884 Y-90.6312 F120.00
G01 X138.7850 Y-90.6177 F120.00
G01 X138.7841 Y-90.6141 F120.00
G01 X138.7814 Y-90.6057 F120.00
G01 X138.7754 Y-90.5891 F120.00
G01 X138.7719 Y-90.5810 F120.00
G01 X138.7659 Y-90.5683 F120.00
G01 X138.7600 Y-90.5573 F120.00
G01 X138.7528 Y-90.5453 F120.00
G01 X138.7509 Y-90.5422 F120.00
G01 X138.7480 Y-90.5379 F120.00
G01 X138.7459 Y-90.5349 F120.00
G01 X138.7320 Y-90.5168 F120.00
G01 X138.7202 Y-90.5036 F120.00
G01 X138.7140 Y-90.4973 F120.00
G01 X138.6982 Y-90.4830 F120.00
G01 X138.6913 Y-90.4774 F120.00
G01 X138.6771 Y-90.4670 F120.00
G01 X138.6697 Y-90.4622 F120.00
G01 X138.6545 Y-90.4532 F120.00
G01 X138.6340 Y-90.4431 F120.00
G01 X138.6225 Y-90.4383 F120.00
G01 X138.6093 Y-90.4336 F120.00
G01 X138.5973 Y-90.4300 F120.00
G01 X138.5751 Y-90.4248 F120.00
G01 X138.5540 Y-90.4216 F120.00
G01 X138.5452 Y-90.4208 F120.00
G01 X138.5248 Y-90.4200 F120.00
G01 X136.8752 Y-90.4200 F120.00
G01 X136.8511 Y-90.4211 F120.00
G01 X136.8285 Y-90.4241 F120.00
G01 X136.8162 Y-90.4266 F120.00
G01 X136.7991 Y-90.4309 F120.00
G01 X136.7775 Y-90.4383 F120.00
G01 X136.7660 Y-90.4431 F120.00
G01 X136.7500 Y-90.4507 F120.00
G01 X136.7303 Y-90.4622 F120.00
G01 X136.7199 Y-90.4691 F120.00
G01 X136.7058 Y-90.4797 F120.00
G01 X136.6886 Y-90.4948 F120.00
G01 X136.6798 Y-90.5036 F120.00
G01 X136.6680 Y-90.5168 F120.00
G01 X136.6541 Y-90.5349 F120.00
G01 X136.6520 Y-90.5379 F120.00
G01 X136.6491 Y-90.5422 F120.00
G01 X136.6472 Y-90.5453 F120.00
G01 X136.6382 Y-90.5605 F120.00
G01 X136.6341 Y-90.5683 F120.00
G01 X136.6281 Y-90.5810 F120.00
G01 X136.6246 Y-90.5891 F120.00
G01 X136.6174 Y-90.6092 F120.00
G01 X136.6150 Y-90.6177 F120.00
G01 X136.6116 Y-90.6312 F120.00
G01 X136.6108 Y-90.6348 F120.00
G01 X136.6091 Y-90.6435 F120.00
G01 X136.6066 Y-90.6610 F120.00
G01 X136.6061 Y-90.6661 F120.00
G01 X136.6058 Y-90.6698 F120.00
G01 X136.6052 Y-90.6839 F120.00
G01 X136.6050 Y-90.6902 F120.00
G01 X136.6050 Y-90.9898 F120.00
G01 X136.6050 Y-90.9828 F120.00
G01 X138.7950 Y-90.9828 F120.00
G01 X138.7950 Y-90.9426 F120.00
G01 X136.6050 Y-90.9426 F120.00
G01 X136.6050 Y-90.9024 F120.00
G01 X138.7950 Y-90.9024 F120.00
G01 X138.7950 Y-90.8622 F120.00
G01 X136.6050 Y-90.8622 F120.00
G01 X136.6050 Y-90.8220 F120.00
G01 X138.7950 Y-90.8220 F120.00
G01 X138.7950 Y-90.7818 F120.00
G01 X136.6050 Y-90.7818 F120.00
G01 X136.6050 Y-90.7416 F120.00
G01 X138.7950 Y-90.7416 F120.00
G01 X138.7950 Y-90.7014 F120.00
G01 X136.6050 Y-90.7014 F120.00
G01 X136.6066 Y-90.6612 F120.00
G01 X138.7934 Y-90.6612 F120.00
G01 X138.7859 Y-90.6210 F120.00
G01 X136.6141 Y-90.6210 F120.00
G01 X136.6282 Y-90.5808 F120.00
G01 X138.7718 Y-90.5808 F120.00
G01 X138.7498 Y-90.5406 F120.00
G01 X136.6502 Y-90.5406 F120.00
M5
G00 X136.6829 Y-90.5004
G01 F60.00
M03 S5000.0
G01 F120.00
G01 X138.7171 Y-90.5004 F120.00
G01 X138.6664 Y-90.4602 F120.00
G01 X136.7336 Y-90.4602 F120.00
M5
G00 X136.7406 Y-89.9540
G01 F60.00
M03 S5000.0
G01 F120.00
G01 X138.6594 Y-89.9540 F120.00
G01 X138.7129 Y-89.9138 F120.00
G01 X136.6871 Y-89.9138 F120.00
G01 X136.6530 Y-89.8736 F120.00
G01 X138.7470 Y-89.8736 F120.00
G01 X138.7698 Y-89.8334 F120.00
G01 X136.6302 Y-89.8334 F120.00
G01 X136.6152 Y-89.7932 F120.00
G01 X138.7848 Y-89.7932 F120.00
G01 X138.7929 Y-89.7530 F120.00
G01 X136.6071 Y-89.7530 F120.00
G01 X136.6050 Y-89.7198 F120.00
G01 X136.6061 Y-89.7439 F120.00
G01 X136.6071 Y-89.7527 F120.00
G01 X136.6091 Y-89.7665 F120.00
G01 X136.6098 Y-89.7701 F120.00
G01 X136.6116 Y-89.7788 F120.00
G01 X136.6150 Y-89.7923 F120.00
G01 X136.6159 Y-89.7959 F120.00
G01 X136.6233 Y-89.8175 F120.00
G01 X136.6281 Y-89.8290 F120.00
G01 X136.6341 Y-89.8417 F120.00
G01 X136.6357 Y-89.8450 F120.00
G01 X136.6472 Y-89.8647 F120.00
G01 X136.6520 Y-89.8721 F120.00
G01 X136.6541 Y-89.8751 F120.00
G01 X136.6624 Y-89.8863 F120.00
G01 X136.6704 Y-89.8960 F120.00
G01 X136.6860 Y-89.9127 F120.00
G01 X136.6886 Y-89.9152 F120.00
G01 X136.6990 Y-89.9246 F120.00
G01 X136.7058 Y-89.9303 F120.00
G01 X136.7229 Y-89.9430 F120.00
G01 X136.7303 Y-89.9478 F120.00
G01 X136.7423 Y-89.9550 F120.00
G01 X136.7455 Y-89.9568 F120.00
G01 X136.7533 Y-89.9609 F120.00
G01 X136.7693 Y-89.9684 F120.00
G01 X136.7775 Y-89.9717 F120.00
G01 X136.7942 Y-89.9776 F120.00
G01 X136.8027 Y-89.9800 F120.00
G01 X136.8198 Y-89.9842 F120.00
G01 X136.8423 Y-89.9879 F120.00
G01 X136.8548 Y-89.9892 F120.00
G01 X136.8752 Y-89.9900 F120.00
G01 X138.5248 Y-89.9900 F120.00
G01 X138.5452 Y-89.9892 F120.00
G01 X138.5577 Y-89.9879 F120.00
G01 X138.5751 Y-89.9852 F120.00
G01 X138.5973 Y-89.9800 F120.00
G01 X138.6093 Y-89.9764 F120.00
G01 X138.6259 Y-89.9704 F120.00
G01 X138.6467 Y-89.9609 F120.00
G01 X138.6577 Y-89.9550 F120.00
G01 X138.6697 Y-89.9478 F120.00
G01 X138.6728 Y-89.9459 F120.00
G01 X138.6913 Y-89.9326 F120.00
G01 X138.7010 Y-89.9246 F120.00
G01 X138.7114 Y-89.9152 F120.00
G01 X138.7140 Y-89.9127 F120.00
G01 X138.7296 Y-89.8960 F120.00
G01 X138.7353 Y-89.8892 F120.00
G01 X138.7459 Y-89.8751 F120.00
G01 X138.7480 Y-89.8721 F120.00
G01 X138.7509 Y-89.8678 F120.00
G01 X138.7528 Y-89.8647 F120.00
G01 X138.7618 Y-89.8495 F120.00
G01 X138.7659 Y-89.8417 F120.00
G01 X138.7719 Y-89.8290 F120.00
G01 X138.7767 Y-89.8175 F120.00
G01 X138.7826 Y-89.8008 F120.00
G01 X138.7841 Y-89.7959 F120.00
G01 X138.7850 Y-89.7923 F120.00
G01 X138.7884 Y-89.7788 F120.00
G01 X138.7909 Y-89.7665 F120.00
G01 X138.7929 Y-89.7527 F120.00
G01 X138.7939 Y-89.7439 F120.00
G01 X138.7949 Y-89.7242 F120.00
G01 X138.7950 Y-89.7198 F120.00
G01 X138.7950 Y-89.4202 F120.00
G01 X138.7942 Y-89.3998 F120.00
G01 X138.7939 Y-89.3961 F120.00
G01 X138.7934 Y-89.3910 F120.00
G01 X138.7929 Y-89.3873 F120.00
G01 X138.7892 Y-89.3648 F120.00
G01 X138.7884 Y-89.3612 F120.00
G01 X138.7850 Y-89.3477 F120.00
G01 X138.7841 Y-89.3441 F120.00
G01 X138.7814 Y-89.3357 F120.00
G01 X138.7754 Y-89.3191 F120.00
G01 X138.7719 Y-89.3110 F120.00
G01 X138.7659 Y-89.2983 F120.00
G01 X138.7600 Y-89.2873 F120.00
G01 X138.7528 Y-89.2753 F120.00
G01 X138.7509 Y-89.2722 F120.00
G01 X138.7480 Y-89.2679 F120.00
G01 X138.7459 Y-89.2649 F120.00
G01 X138.7320 Y-89.2468 F120.00
G01 X138.7202 Y-89.2336 F120.00
G01 X138.7140 Y-89.2273 F120.00
G01 X138.6982 Y-89.2130 F120.00
G01 X138.6913 Y-89.2074 F120.00
G01 X138.6771 Y-89.1970 F120.00
G01 X138.6697 Y-89.1922 F120.00
G01 X138.6545 Y-89.1832 F120.00
G01 X138.6340 Y-89.1731 F120.00
G01 X138.6225 Y-89.1683 F120.00
G01 X138.6093 Y-89.1636 F120.00
G01 X138.5973 Y-89.1600 F120.00
G01 X138.5751 Y-89.1548 F120.00
G01 X138.5540 Y-89.1516 F120.00
G01 X138.5452 Y-89.1508 F120.00
G01 X138.5248 Y-89.1500 F120.00
G01 X136.8752 Y-89.1500 F120.00
G01 X136.8511 Y-89.1511 F120.00
G01 X136.8285 Y-89.1541 F120.00
G01 X136.8162 Y-89.1566 F120.00
G01 X136.7991 Y-89.1609 F120.00
G01 X136.7775 Y-89.1683 F120.00
G01 X136.7660 Y-89.1731 F120.00
G01 X136.7500 Y-89.1807 F120.00
G01 X136.7303 Y-89.1922 F120.00
G01 X136.7199 Y-89.1991 F120.00
G01 X136.7058 Y-89.2097 F120.00
G01 X136.6886 Y-89.2248 F120.00
G01 X136.6798 Y-89.2336 F120.00
G01 X136.6680 Y-89.2468 F120.00
G01 X136.6541 Y-89.2649 F120.00
G01 X136.6520 Y-89.2679 F120.00
G01 X136.6491 Y-89.2722 F120.00
G01 X136.6472 Y-89.2753 F120.00
G01 X136.6382 Y-89.2905 F120.00
G01 X136.6341 Y-89.2983 F120.00
G01 X136.6281 Y-89.3110 F120.00
G01 X136.6246 Y-89.3191 F120.00
G01 X136.6174 Y-89.3392 F120.00
G01 X136.6150 Y-89.3477 F120.00
G01 X136.6116 Y-89.3612 F120.00
G01 X136.6108 Y-89.3648 F120.00
G01 X136.6091 Y-89.3735 F120.00
G01 X136.6066 Y-89.3910 F120.00
G01 X136.6061 Y-89.3961 F120.00
G01 X136.6058 Y-89.3998 F120.00
G01 X136.6052 Y-89.4139 F120.00
G01 X136.6050 Y-89.4202 F120.00
G01 X136.6050 Y-89.7198 F120.00
G01 X136.6050 Y-89.7128 F120.00
G01 X138.7950 Y-89.7128 F120.00
G01 X138.7950 Y-89.6726 F120.00
G01 X136.6050 Y-89.6726 F120.00
G01 X136.6050 Y-89.6324 F120.00
G01 X138.7950 Y-89.6324 F120.00
G01 X138.7950 Y-89.5922 F120.00
G01 X136.6050 Y-89.5922 F120.00
G01 X136.6050 Y-89.5520 F120.00
G01 X138.7950 Y-89.5520 F120.00
G01 X138.7950 Y-89.5118 F120.00
G01 X136.6050 Y-89.5118 F120.00
G01 X136.6050 Y-89.4716 F120.00
G01 X138.7950 Y-89.4716 F120.00
G01 X138.7950 Y-89.4314 F120.00
G01 X136.6050 Y-89.4314 F120.00
G01 X136.6066 Y-89.3912 F120.00
G01 X138.7934 Y-89.3912 F120.00
G01 X138.7859 Y-89.3510 F120.00
G01 X136.6141 Y-89.3510 F120.00
G01 X136.6282 Y-89.3108 F120.00
G01 X138.7718 Y-89.3108 F120.00
G01 X138.7498 Y-89.2706 F120.00
G01 X136.6502 Y-89.2706 F120.00
M5
G00 X136.6829 Y-89.2304
G01 F60.00
M03 S5000.0
G01 F120.00
G01 X138.7171 Y-89.2304 F120.00
G01 X138.6664 Y-89.1902 F120.00
G01 X136.7336 Y-89.1902 F120.00
M5
G00 X139.3203 Y-88.2505
G01 F60.00
M03 S5000.0
G01 F120.00
G01 X139.3203 Y-87.8495 F120.00
M5
G00 X139.3605 Y-87.7728
G01 F60.00
M03 S5000.0
G01 F120.00
G01 X139.3605 Y-88.3272 F120.00
G01 X139.4007 Y-88.3829 F120.00
G01 X139.4007 Y-87.7171 F120.00
G01 X139.4409 Y-87.6743 F120.00
G01 X139.4409 Y-88.4257 F120.00
G01 X139.4811 Y-88.4603 F120.00
G01 X139.4811 Y-87.6397 F120.00
G01 X139.5213 Y-87.6114 F120.00
G01 X139.5213 Y-88.4886 F120.00
G01 X139.5615 Y-88.5119 F120.00
G01 X139.5615 Y-87.5881 F120.00
G01 X139.6017 Y-87.5694 F120.00
G01 X139.6017 Y-88.5306 F120.00
G01 X139.6419 Y-88.5452 F120.00
G01 X139.6419 Y-87.5548 F120.00
G01 X139.6821 Y-87.5440 F120.00
G01 X139.6821 Y-88.5560 F120.00
G01 X139.7223 Y-88.5637 F120.00
G01 X139.7223 Y-87.5363 F120.00
G01 X139.7625 Y-87.5317 F120.00
G01 X139.7625 Y-88.5683 F120.00
G01 X139.8027 Y-88.5699 F120.00
G01 X139.8027 Y-87.5301 F120.00
G01 X139.8429 Y-87.5320 F120.00
G01 X139.8429 Y-88.5680 F120.00
G01 X139.8831 Y-88.5629 F120.00
G01 X139.8831 Y-87.5371 F120.00
G01 X139.9233 Y-87.5453 F120.00
G01 X139.9233 Y-88.5547 F120.00
G01 X139.9635 Y-88.5433 F120.00
G01 X139.9635 Y-87.5567 F120.00
G01 X140.0037 Y-87.5717 F120.00
G01 X140.0037 Y-88.5283 F120.00
G01 X140.0439 Y-88.5092 F120.00
G01 X140.0439 Y-87.5908 F120.00
G01 X140.0841 Y-87.6146 F120.00
G01 X140.0841 Y-88.4854 F120.00
G01 X140.1243 Y-88.4563 F120.00
G01 X140.1243 Y-87.6437 F120.00
G01 X140.1645 Y-87.6792 F120.00
G01 X140.1645 Y-88.4208 F120.00
G01 X140.2047 Y-88.3764 F120.00
G01 X140.2047 Y-87.7236 F120.00
G01 X140.2449 Y-87.7817 F120.00
G01 X140.2449 Y-88.3183 F120.00
G01 X140.2851 Y-88.2364 F120.00
G01 X140.2851 Y-87.8636 F120.00
G01 X140.3198 Y-88.0437 F120.00
G01 X140.3198 Y-88.0563 F120.00
G01 X140.3177 Y-88.0984 F120.00
G01 X140.3167 Y-88.1072 F120.00
G01 X140.3111 Y-88.1453 F120.00
G01 X140.3094 Y-88.1540 F120.00
G01 X140.2993 Y-88.1949 F120.00
G01 X140.2956 Y-88.2069 F120.00
G01 X140.2827 Y-88.2432 F120.00
G01 X140.2794 Y-88.2513 F120.00
G01 X140.2597 Y-88.2928 F120.00
G01 X140.2555 Y-88.3006 F120.00
G01 X140.2357 Y-88.3336 F120.00
G01 X140.2288 Y-88.3440 F120.00
G01 X140.2058 Y-88.3749 F120.00
G01 X140.2035 Y-88.3778 F120.00
G01 X140.2003 Y-88.3818 F120.00
G01 X140.1720 Y-88.4132 F120.00
G01 X140.1695 Y-88.4158 F120.00
G01 X140.1658 Y-88.4195 F120.00
G01 X140.1632 Y-88.4220 F120.00
G01 X140.1346 Y-88.4479 F120.00
G01 X140.1278 Y-88.4535 F120.00
G01 X140.1249 Y-88.4558 F120.00
G01 X140.0940 Y-88.4788 F120.00
G01 X140.0910 Y-88.4809 F120.00
G01 X140.0867 Y-88.4837 F120.00
G01 X140.0836 Y-88.4857 F120.00
G01 X140.0506 Y-88.5055 F120.00
G01 X140.0474 Y-88.5073 F120.00
G01 X140.0428 Y-88.5097 F120.00
G01 X140.0047 Y-88.5279 F120.00
G01 X140.0013 Y-88.5294 F120.00
G01 X139.9932 Y-88.5327 F120.00
G01 X139.9569 Y-88.5456 F120.00
G01 X139.9449 Y-88.5493 F120.00
G01 X139.9076 Y-88.5586 F120.00
G01 X139.8989 Y-88.5604 F120.00
G01 X139.8953 Y-88.5611 F120.00
G01 X139.8572 Y-88.5667 F120.00
G01 X139.8447 Y-88.5679 F120.00
G01 X139.8063 Y-88.5698 F120.00
G01 X139.8026 Y-88.5699 F120.00
G01 X139.7974 Y-88.5699 F120.00
G01 X139.7937 Y-88.5698 F120.00
G01 X139.7553 Y-88.5679 F120.00
G01 X139.7428 Y-88.5667 F120.00
G01 X139.7047 Y-88.5611 F120.00
G01 X139.6960 Y-88.5594 F120.00
G01 X139.6924 Y-88.5586 F120.00
G01 X139.6551 Y-88.5493 F120.00
G01 X139.6515 Y-88.5483 F120.00
G01 X139.6431 Y-88.5456 F120.00
G01 X139.6068 Y-88.5327 F120.00
G01 X139.6034 Y-88.5313 F120.00
G01 X139.5987 Y-88.5294 F120.00
G01 X139.5953 Y-88.5279 F120.00
G01 X139.5605 Y-88.5114 F120.00
G01 X139.5526 Y-88.5073 F120.00
G01 X139.5494 Y-88.5055 F120.00
G01 X139.5164 Y-88.4857 F120.00
G01 X139.5060 Y-88.4788 F120.00
G01 X139.4751 Y-88.4558 F120.00
G01 X139.4682 Y-88.4503 F120.00
G01 X139.4654 Y-88.4479 F120.00
G01 X139.4368 Y-88.4220 F120.00
G01 X139.4280 Y-88.4132 F120.00
G01 X139.4021 Y-88.3846 F120.00
G01 X139.3997 Y-88.3818 F120.00
G01 X139.3965 Y-88.3778 F120.00
G01 X139.3712 Y-88.3440 F120.00
G01 X139.3643 Y-88.3336 F120.00
G01 X139.3445 Y-88.3006 F120.00
G01 X139.3403 Y-88.2928 F120.00
G01 X139.3206 Y-88.2513 F120.00
G01 X139.3173 Y-88.2432 F120.00
G01 X139.3044 Y-88.2069 F120.00
G01 X139.3007 Y-88.1949 F120.00
G01 X139.2914 Y-88.1576 F120.00
G01 X139.2896 Y-88.1489 F120.00
G01 X139.2833 Y-88.1072 F120.00
G01 X139.2821 Y-88.0947 F120.00
G01 X139.2802 Y-88.0563 F120.00
G01 X139.2801 Y-88.0474 F120.00
G01 X139.2823 Y-88.0016 F120.00
G01 X139.2833 Y-87.9928 F120.00
G01 X139.2889 Y-87.9547 F120.00
G01 X139.2914 Y-87.9424 F120.00
G01 X139.3007 Y-87.9051 F120.00
G01 X139.3032 Y-87.8966 F120.00
G01 X139.3173 Y-87.8568 F120.00
G01 X139.3221 Y-87.8453 F120.00
G01 X139.3386 Y-87.8105 F120.00
G01 X139.3427 Y-87.8026 F120.00
G01 X139.3445 Y-87.7994 F120.00
G01 X139.3643 Y-87.7664 F120.00
G01 X139.3712 Y-87.7560 F120.00
G01 X139.3942 Y-87.7251 F120.00
G01 X139.3997 Y-87.7182 F120.00
G01 X139.4021 Y-87.7154 F120.00
G01 X139.4280 Y-87.6868 F120.00
G01 X139.4368 Y-87.6780 F120.00
G01 X139.4654 Y-87.6521 F120.00
G01 X139.4751 Y-87.6442 F120.00
G01 X139.5060 Y-87.6212 F120.00
G01 X139.5133 Y-87.6163 F120.00
G01 X139.5164 Y-87.6143 F120.00
G01 X139.5494 Y-87.5945 F120.00
G01 X139.5605 Y-87.5886 F120.00
G01 X139.5953 Y-87.5721 F120.00
G01 X139.5987 Y-87.5706 F120.00
G01 X139.6034 Y-87.5687 F120.00
G01 X139.6068 Y-87.5673 F120.00
G01 X139.6431 Y-87.5544 F120.00
G01 X139.6551 Y-87.5507 F120.00
G01 X139.6924 Y-87.5414 F120.00
G01 X139.7011 Y-87.5396 F120.00
G01 X139.7047 Y-87.5389 F120.00
G01 X139.7428 Y-87.5333 F120.00
G01 X139.7553 Y-87.5321 F120.00
G01 X139.7937 Y-87.5302 F120.00
G01 X139.8026 Y-87.5301 F120.00
G01 X139.8063 Y-87.5302 F120.00
G01 X139.8447 Y-87.5321 F120.00
G01 X139.8572 Y-87.5333 F120.00
G01 X139.8953 Y-87.5389 F120.00
G01 X139.9040 Y-87.5406 F120.00
G01 X139.9076 Y-87.5414 F120.00
G01 X139.9449 Y-87.5507 F120.00
G01 X139.9569 Y-87.5544 F120.00
G01 X139.9932 Y-87.5673 F120.00
G01 X139.9966 Y-87.5687 F120.00
G01 X140.0013 Y-87.5706 F120.00
G01 X140.0047 Y-87.5721 F120.00
G01 X140.0395 Y-87.5886 F120.00
G01 X140.0428 Y-87.5903 F120.00
G01 X140.0474 Y-87.5927 F120.00
G01 X140.0836 Y-87.6143 F120.00
G01 X140.0867 Y-87.6163 F120.00
G01 X140.0940 Y-87.6212 F120.00
G01 X140.1249 Y-87.6442 F120.00
G01 X140.1318 Y-87.6497 F120.00
G01 X140.1346 Y-87.6521 F120.00
G01 X140.1632 Y-87.6780 F120.00
G01 X140.1658 Y-87.6805 F120.00
G01 X140.1720 Y-87.6868 F120.00
G01 X140.1979 Y-87.7154 F120.00
G01 X140.2003 Y-87.7182 F120.00
G01 X140.2035 Y-87.7222 F120.00
G01 X140.2058 Y-87.7251 F120.00
G01 X140.2288 Y-87.7560 F120.00
G01 X140.2337 Y-87.7633 F120.00
G01 X140.2357 Y-87.7664 F120.00
G01 X140.2555 Y-87.7994 F120.00
G01 X140.2614 Y-87.8105 F120.00
G01 X140.2779 Y-87.8453 F120.00
G01 X140.2813 Y-87.8534 F120.00
G01 X140.2827 Y-87.8568 F120.00
G01 X140.2956 Y-87.8931 F120.00
G01 X140.2968 Y-87.8966 F120.00
G01 X140.2993 Y-87.9051 F120.00
G01 X140.3086 Y-87.9424 F120.00
G01 X140.3111 Y-87.9547 F120.00
G01 X140.3167 Y-87.9928 F120.00
G01 X140.3177 Y-88.0016 F120.00
G01 X140.3198 Y-88.0437 F120.00
M5
G00 X141.3098 Y-88.2492
G01 F60.00
M03 S5000.0
G01 F120.00
G01 X142.8402 Y-88.2492 F120.00
G01 X142.8849 Y-88.2894 F120.00
G01 X141.2651 Y-88.2894 F120.00
G01 X141.2367 Y-88.3296 F120.00
G01 X142.9133 Y-88.3296 F120.00
G01 X142.9314 Y-88.3698 F120.00
G01 X141.2186 Y-88.3698 F120.00
G01 X141.2084 Y-88.4100 F120.00
G01 X142.9416 Y-88.4100 F120.00
G01 X142.9450 Y-88.4502 F120.00
G01 X141.2050 Y-88.4502 F120.00
G01 X141.2050 Y-88.4904 F120.00
G01 X142.9450 Y-88.4904 F120.00
G01 X142.9450 Y-88.5306 F120.00
G01 X141.2050 Y-88.5306 F120.00
G01 X141.2050 Y-88.5708 F120.00
G01 X142.9450 Y-88.5708 F120.00
G01 X142.9450 Y-88.6110 F120.00
G01 X141.2050 Y-88.6110 F120.00
G01 X141.2050 Y-88.6512 F120.00
G01 X142.9450 Y-88.6512 F120.00
G01 X142.9450 Y-88.6914 F120.00
G01 X141.2050 Y-88.6914 F120.00
G01 X141.2050 Y-88.6998 F120.00
G01 X141.2050 Y-88.4502 F120.00
G01 X141.2060 Y-88.4286 F120.00
G01 X141.2070 Y-88.4198 F120.00
G01 X141.2086 Y-88.4084 F120.00
G01 X141.2093 Y-88.4047 F120.00
G01 X141.2111 Y-88.3961 F120.00
G01 X141.2149 Y-88.3814 F120.00
G01 X141.2175 Y-88.3729 F120.00
G01 X141.2214 Y-88.3621 F120.00
G01 X141.2227 Y-88.3586 F120.00
G01 X141.2262 Y-88.3505 F120.00
G01 X141.2328 Y-88.3368 F120.00
G01 X141.2352 Y-88.3323 F120.00
G01 X141.2370 Y-88.3291 F120.00
G01 X141.2478 Y-88.3118 F120.00
G01 X141.2568 Y-88.2995 F120.00
G01 X141.2647 Y-88.2898 F120.00
G01 X141.2724 Y-88.2813 F120.00
G01 X141.2786 Y-88.2750 F120.00
G01 X141.2898 Y-88.2647 F120.00
G01 X141.2995 Y-88.2568 F120.00
G01 X141.3088 Y-88.2499 F120.00
G01 X141.3118 Y-88.2478 F120.00
G01 X141.3161 Y-88.2449 F120.00
G01 X141.3323 Y-88.2352 F120.00
G01 X141.3505 Y-88.2262 F120.00
G01 X141.3621 Y-88.2214 F120.00
G01 X141.3814 Y-88.2149 F120.00
G01 X141.3961 Y-88.2111 F120.00
G01 X141.4084 Y-88.2086 F120.00
G01 X141.4286 Y-88.2060 F120.00
G01 X141.4532 Y-88.2048 F120.00
G01 X141.4575 Y-88.2040 F120.00
G01 X141.4610 Y-88.2029 F120.00
G01 X141.4649 Y-88.2010 F120.00
G01 X141.4680 Y-88.1990 F120.00
G01 X141.4713 Y-88.1961 F120.00
G01 X141.4741 Y-88.1928 F120.00
G01 X141.4761 Y-88.1897 F120.00
G01 X141.4779 Y-88.1857 F120.00
G01 X141.4790 Y-88.1822 F120.00
G01 X141.4798 Y-88.1779 F120.00
G01 X141.4799 Y-88.1735 F120.00
G01 X141.4792 Y-88.1685 F120.00
G01 X141.4779 Y-88.1643 F120.00
G01 X141.4761 Y-88.1603 F120.00
G01 X141.4737 Y-88.1567 F120.00
G01 X141.4702 Y-88.1529 F120.00
G01 X141.4668 Y-88.1502 F120.00
G01 X141.4630 Y-88.1480 F120.00
G01 X141.4582 Y-88.1462 F120.00
G01 X141.4532 Y-88.1452 F120.00
G01 X141.4286 Y-88.1440 F120.00
G01 X141.4084 Y-88.1414 F120.00
G01 X141.3961 Y-88.1389 F120.00
G01 X141.3814 Y-88.1351 F120.00
G01 X141.3729 Y-88.1325 F120.00
G01 X141.3539 Y-88.1253 F120.00
G01 X141.3401 Y-88.1189 F120.00
G01 X141.3323 Y-88.1148 F120.00
G01 X141.3192 Y-88.1071 F120.00
G01 X141.3118 Y-88.1022 F120.00
G01 X141.2995 Y-88.0932 F120.00
G01 X141.2926 Y-88.0877 F120.00
G01 X141.2786 Y-88.0750 F120.00
G01 X141.2647 Y-88.0602 F120.00
G01 X141.2568 Y-88.0505 F120.00
G01 X141.2478 Y-88.0382 F120.00
G01 X141.2430 Y-88.0308 F120.00
G01 X141.2328 Y-88.0132 F120.00
G01 X141.2262 Y-87.9995 F120.00
G01 X141.2227 Y-87.9914 F120.00
G01 X141.2175 Y-87.9771 F120.00
G01 X141.2149 Y-87.9686 F120.00
G01 X141.2103 Y-87.9503 F120.00
G01 X141.2087 Y-87.9416 F120.00
G01 X141.2065 Y-87.9266 F120.00
G01 X141.2057 Y-87.9178 F120.00
G01 X141.2050 Y-87.8998 F120.00
G01 X141.2050 Y-87.6483 F120.00
G01 X141.2057 Y-87.6322 F120.00
G01 X141.2065 Y-87.6234 F120.00
G01 X141.2087 Y-87.6084 F120.00
G01 X141.2103 Y-87.5997 F120.00
G01 X141.2139 Y-87.5849 F120.00
G01 X141.2164 Y-87.5764 F120.00
G01 X141.2214 Y-87.5621 F120.00
G01 X141.2247 Y-87.5539 F120.00
G01 X141.2311 Y-87.5401 F120.00
G01 X141.2352 Y-87.5323 F120.00
G01 X141.2430 Y-87.5192 F120.00
G01 X141.2478 Y-87.5118 F120.00
G01 X141.2568 Y-87.4995 F120.00
G01 X141.2623 Y-87.4926 F120.00
G01 X141.2725 Y-87.4813 F120.00
G01 X141.2786 Y-87.4750 F120.00
G01 X141.2898 Y-87.4647 F120.00
G01 X141.2966 Y-87.4590 F120.00
G01 X141.3088 Y-87.4499 F120.00
G01 X141.3161 Y-87.4449 F120.00
G01 X141.3291 Y-87.4370 F120.00
G01 X141.3401 Y-87.4311 F120.00
G01 X141.3587 Y-87.4227 F120.00
G01 X141.3764 Y-87.4164 F120.00
G01 X141.3961 Y-87.4111 F120.00
G01 X141.4084 Y-87.4086 F120.00
G01 X141.4286 Y-87.4060 F120.00
G01 X141.4458 Y-87.4051 F120.00
G01 X142.6998 Y-87.4050 F120.00
G01 X142.7178 Y-87.4057 F120.00
G01 X142.7302 Y-87.4070 F120.00
G01 X142.7503 Y-87.4103 F120.00
G01 X142.7651 Y-87.4139 F120.00
G01 X142.7771 Y-87.4175 F120.00
G01 X142.7961 Y-87.4247 F120.00
G01 X142.8132 Y-87.4328 F120.00
G01 X142.8308 Y-87.4430 F120.00
G01 X142.8412 Y-87.4499 F120.00
G01 X142.8574 Y-87.4623 F120.00
G01 X142.8687 Y-87.4725 F120.00
G01 X142.8776 Y-87.4813 F120.00
