( pcb2gcode 3.0.4 )
( Software-independent Gcode )

G94 ( Millimeters per minute feed rate. )
G21 ( Units == Millimeters. )

G90 ( Absolute coordinates. )
G00 S24000 ( RPM spindle speed. )
G01 F600.00000 ( Feedrate. )


G00 Z35.00000 (Retract to tool change height)
T1
M5      (Spindle stop.)
G04 P1.00000 (Wait for spindle to stop)
(MSG, Change tool bit to mill diameter 0.20000mm)
M0      (Temporary machine stop.)
M3 ( Spindle on clockwise. )
G04 P1.00000 (Wait for spindle to get up to speed)
G04 P0 ( dwell for no time -- G64 should not smooth over this point )
G00 Z2.00000 ( retract )

G00 X-9.84950 Y-82.21472 ( rapid move to begin. )
G01 F100.00000
( Mill infeed pass 1/1 )
G01 Z-0.10000
G04 P0 ( dwell for no time -- G64 should not smooth over this point )
G01 F600.00000
G01 X-9.84950 Y-82.21472
G01 X-9.84950 Y-81.98523
G01 X-9.87942 Y-81.75772
G01 X-9.93883 Y-81.53608
G01 X-10.02663 Y-81.32409
G01 X-10.14137 Y-81.12536
G01 X-10.28107 Y-80.94332
G01 X-10.44330 Y-80.78107
G01 X-10.62534 Y-80.64137
G01 X-10.82409 Y-80.52664
G01 X-11.03608 Y-80.43883
G01 X-11.25772 Y-80.37942
G01 X-11.48523 Y-80.34950
G01 X-11.71472 Y-80.34950
G01 X-11.94223 Y-80.37942
G01 X-12.16387 Y-80.43883
G01 X-12.37588 Y-80.52664
G01 X-12.40263 Y-80.54205
G01 X-12.57459 Y-80.64137
G01 X-12.75663 Y-80.78107
G01 X-12.91888 Y-80.94330
G01 X-13.05858 Y-81.12534
G01 X-13.17331 Y-81.32409
G01 X-13.26112 Y-81.53608
G01 X-13.32053 Y-81.75772
G01 X-13.35045 Y-81.98523
G01 X-13.35045 Y-82.21472
G01 X-13.32053 Y-82.44223
G01 X-13.26112 Y-82.66384
G01 X-13.17331 Y-82.87588
G01 X-13.05858 Y-83.07459
G01 X-12.91888 Y-83.25663
G01 X-12.75663 Y-83.41888
G01 X-12.57459 Y-83.55858
G01 X-12.37586 Y-83.67331
G01 X-12.16387 Y-83.76112
G01 X-11.94223 Y-83.82053
G01 X-11.71472 Y-83.85045
G01 X-11.48523 Y-83.85045
G01 X-11.25772 Y-83.82053
G01 X-11.03611 Y-83.76112
G01 X-10.82407 Y-83.67331
G01 X-10.62534 Y-83.55858
G01 X-10.44330 Y-83.41888
G01 X-10.28107 Y-83.25663
G01 X-10.14137 Y-83.07459
G01 X-10.02663 Y-82.87586
G01 X-9.93883 Y-82.66387
G01 X-9.87942 Y-82.44220
G01 X-9.84950 Y-82.21472
G04 P0 ( dwell for no time -- G64 should not smooth over this point )
G00 Z2.00000 ( retract )

G00 X-9.67515 Y-89.84077 ( rapid move to begin. )
G01 F100.00000
( Mill infeed pass 1/1 )
G01 Z-0.10000
G04 P0 ( dwell for no time -- G64 should not smooth over this point )
G01 F600.00000
G01 X-9.67515 Y-89.84077
G01 X-9.67670 Y-89.78285
G01 X-9.69725 Y-89.65085
G01 X-9.73885 Y-89.52390
G01 X-9.79174 Y-89.41836
G01 X-9.82501 Y-89.36731
G01 X-9.87779 Y-89.29665
G01 X-9.94475 Y-89.22819
G01 X-9.99054 Y-89.18799
G01 X-10.08036 Y-89.12362
G01 X-10.21368 Y-89.05781
G01 X-10.32023 Y-89.02349
G01 X-10.38010 Y-89.01194
G01 X-10.45843 Y-89.00091
G01 X-10.56321 Y-88.99992
G01 X-10.62394 Y-89.00490
G01 X-10.72407 Y-89.02162
G01 X-10.81637 Y-89.05062
G01 X-10.87294 Y-89.07325
G01 X-10.97014 Y-89.12362
G01 X-11.03113 Y-89.16637
G01 X-11.07957 Y-89.20343
G01 X-11.17251 Y-89.29680
G01 X-11.25130 Y-89.40470
G01 X-11.31165 Y-89.52390
G01 X-11.33059 Y-89.57714
G01 X-11.35312 Y-89.65090
G01 X-11.36745 Y-89.73307
G01 X-11.37446 Y-89.79360
G01 X-11.37459 Y-89.90345
G01 X-11.35328 Y-90.04841
G01 X-11.32379 Y-90.14226
G01 X-11.29524 Y-90.21051
G01 X-11.25112 Y-90.29446
G01 X-11.20636 Y-90.35842
G01 X-11.16900 Y-90.40658
G01 X-11.07809 Y-90.49690
G01 X-10.97014 Y-90.57564
G01 X-10.85099 Y-90.63604
G01 X-10.79432 Y-90.65613
G01 X-10.72404 Y-90.67757
G01 X-10.63817 Y-90.69235
G01 X-10.57759 Y-90.69895
G01 X-10.48010 Y-90.69916
G01 X-10.41945 Y-90.69339
G01 X-10.32646 Y-90.67759
G01 X-10.18412 Y-90.62913
G01 X-10.08041 Y-90.57554
G01 X-10.01353 Y-90.52860
G01 X-9.96565 Y-90.49090
G01 X-9.88793 Y-90.41351
G01 X-9.79918 Y-90.29459
G01 X-9.73387 Y-90.16253
G01 X-9.70009 Y-90.05814
G01 X-9.68815 Y-89.99835
G01 X-9.67632 Y-89.91646
G01 X-9.67515 Y-89.84077
G04 P0 ( dwell for no time -- G64 should not smooth over this point )
G00 Z2.00000 ( retract )

G00 X-9.67515 Y-97.84075 ( rapid move to begin. )
G01 F100.00000
( Mill infeed pass 1/1 )
G01 Z-0.10000
G04 P0 ( dwell for no time -- G64 should not smooth over this point )
G01 F600.00000
G01 X-9.67515 Y-97.84075
G01 X-9.67670 Y-97.78284
G01 X-9.69725 Y-97.65088
G01 X-9.73885 Y-97.52391
G01 X-9.79174 Y-97.41837
G01 X-9.82501 Y-97.36732
G01 X-9.87777 Y-97.29663
G01 X-9.94475 Y-97.22820
G01 X-9.99054 Y-97.18799
G01 X-10.08036 Y-97.12363
G01 X-10.21376 Y-97.05777
G01 X-10.32653 Y-97.02195
G01 X-10.39095 Y-97.01017
G01 X-10.45841 Y-97.00072
G01 X-10.56308 Y-96.99993
G01 X-10.62384 Y-97.00489
G01 X-10.72404 Y-97.02160
G01 X-10.85099 Y-97.06323
G01 X-10.89587 Y-97.08444
G01 X-10.97050 Y-97.12386
G01 X-11.07822 Y-97.20222
G01 X-11.17251 Y-97.29683
G01 X-11.25130 Y-97.40471
G01 X-11.30004 Y-97.49864
G01 X-11.33059 Y-97.57717
G01 X-11.35312 Y-97.65091
G01 X-11.36745 Y-97.73308
G01 X-11.37446 Y-97.79361
G01 X-11.37459 Y-97.90346
G01 X-11.35328 Y-98.04842
G01 X-11.32308 Y-98.14415
G01 X-11.28980 Y-98.22160
G01 X-11.25112 Y-98.29447
G01 X-11.17695 Y-98.39726
G01 X-11.07804 Y-98.49686
G01 X-10.97017 Y-98.57570
G01 X-10.85099 Y-98.63602
G01 X-10.80593 Y-98.65223
G01 X-10.72404 Y-98.67755
G01 X-10.63827 Y-98.69233
G01 X-10.57769 Y-98.69896
G01 X-10.48010 Y-98.69917
G01 X-10.41945 Y-98.69338
G01 X-10.32646 Y-98.67760
G01 X-10.18401 Y-98.62909
G01 X-10.08041 Y-98.57555
G01 X-10.01353 Y-98.52861
G01 X-9.96565 Y-98.49091
G01 X-9.88787 Y-98.41347
G01 X-9.79918 Y-98.29460
G01 X-9.73387 Y-98.16254
G01 X-9.70009 Y-98.05812
G01 X-9.68815 Y-97.99833
G01 X-9.67632 Y-97.91644
G01 X-9.67515 Y-97.84075
G04 P0 ( dwell for no time -- G64 should not smooth over this point )
G00 Z2.00000 ( retract )

G00 X-11.46948 Y-108.21756 ( rapid move to begin. )
G01 F100.00000
( Mill infeed pass 1/1 )
G01 Z-0.10000
G04 P0 ( dwell for no time -- G64 should not smooth over this point )
G01 F600.00000
G01 X-11.46948 Y-108.21756
G01 X-11.46948 Y-108.09237
G01 X-11.50187 Y-107.97144
G01 X-11.56448 Y-107.86300
G01 X-11.65302 Y-107.77449
G01 X-11.76143 Y-107.71187
G01 X-11.88238 Y-107.67949
G01 X-12.00758 Y-107.67949
G01 X-12.12851 Y-107.71187
G01 X-12.23694 Y-107.77449
G01 X-12.32546 Y-107.86300
G01 X-12.38807 Y-107.97144
G01 X-12.42046 Y-108.09237
G01 X-12.42046 Y-108.21756
G01 X-12.38807 Y-108.33852
G01 X-12.32546 Y-108.44693
G01 X-12.23694 Y-108.53547
G01 X-12.12851 Y-108.59808
G01 X-12.00758 Y-108.63047
G01 X-11.88238 Y-108.63047
G01 X-11.76143 Y-108.59808
G01 X-11.65302 Y-108.53547
G01 X-11.56448 Y-108.44693
G01 X-11.50187 Y-108.33852
G01 X-11.46948 Y-108.21756
G04 P0 ( dwell for no time -- G64 should not smooth over this point )
G00 Z2.00000 ( retract )

G00 X-11.46948 Y-113.99756 ( rapid move to begin. )
G01 F100.00000
( Mill infeed pass 1/1 )
G01 Z-0.10000
G04 P0 ( dwell for no time -- G64 should not smooth over this point )
G01 F600.00000
G01 X-11.46948 Y-113.99756
G01 X-11.46948 Y-113.87239
G01 X-11.50187 Y-113.75144
G01 X-11.56448 Y-113.64300
G01 X-11.65302 Y-113.55448
G01 X-11.76143 Y-113.49187
G01 X-11.88238 Y-113.45949
G01 X-12.00758 Y-113.45949
G01 X-12.12851 Y-113.49187
G01 X-12.23694 Y-113.55448
G01 X-12.32546 Y-113.64300
G01 X-12.38807 Y-113.75144
G01 X-12.42046 Y-113.87239
G01 X-12.42046 Y-113.99756
G01 X-12.38807 Y-114.11852
G01 X-12.32546 Y-114.22692
G01 X-12.23694 Y-114.31547
G01 X-12.12851 Y-114.37808
G01 X-12.00758 Y-114.41046
G01 X-11.88238 Y-114.41046
G01 X-11.76143 Y-114.37808
G01 X-11.65302 Y-114.31547
G01 X-11.56448 Y-114.22692
G01 X-11.50187 Y-114.11852
G01 X-11.46948 Y-113.99756
G04 P0 ( dwell for no time -- G64 should not smooth over this point )
G00 Z2.00000 ( retract )

G00 X-11.67449 Y-125.89756 ( rapid move to begin. )
G01 F100.00000
( Mill infeed pass 1/1 )
G01 Z-0.10000
G04 P0 ( dwell for no time -- G64 should not smooth over this point )
G01 F600.00000
G01 X-11.67449 Y-125.89756
G01 X-11.67449 Y-125.77237
G01 X-11.70687 Y-125.65144
G01 X-11.76948 Y-125.54301
G01 X-11.85800 Y-125.45449
G01 X-11.96643 Y-125.39188
G01 X-12.08739 Y-125.35949
G01 X-12.21256 Y-125.35949
G01 X-12.25363 Y-125.37046
G01 X-12.33351 Y-125.39188
G01 X-12.44195 Y-125.45449
G01 X-12.53047 Y-125.54301
G01 X-12.59308 Y-125.65144
G01 X-12.62546 Y-125.77237
G01 X-12.62546 Y-125.89756
G01 X-12.59308 Y-126.01852
G01 X-12.53047 Y-126.12693
G01 X-12.44195 Y-126.21547
G01 X-12.33351 Y-126.27808
G01 X-12.21256 Y-126.31047
G01 X-12.08739 Y-126.31047
G01 X-11.96643 Y-126.27808
G01 X-11.85803 Y-126.21547
G01 X-11.76948 Y-126.12693
G01 X-11.70687 Y-126.01852
G01 X-11.67449 Y-125.89756
G04 P0 ( dwell for no time -- G64 should not smooth over this point )
G00 Z2.00000 ( retract )

G00 X-11.67449 Y-131.67756 ( rapid move to begin. )
G01 F100.00000
( Mill infeed pass 1/1 )
G01 Z-0.10000
G04 P0 ( dwell for no time -- G64 should not smooth over this point )
G01 F600.00000
G01 X-11.67449 Y-131.67756
G01 X-11.67449 Y-131.55239
G01 X-11.70687 Y-131.43144
G01 X-11.76948 Y-131.32300
G01 X-11.85800 Y-131.23448
G01 X-11.96643 Y-131.17187
G01 X-12.08739 Y-131.13949
G01 X-12.21256 Y-131.13949
G01 X-12.27306 Y-131.15567
G01 X-12.33351 Y-131.17187
G01 X-12.44195 Y-131.23448
G01 X-12.53047 Y-131.32300
G01 X-12.59308 Y-131.43144
G01 X-12.62546 Y-131.55239
G01 X-12.62546 Y-131.67756
G01 X-12.59308 Y-131.79852
G01 X-12.53047 Y-131.90692
G01 X-12.44195 Y-131.99547
G01 X-12.33351 Y-132.05808
G01 X-12.21256 Y-132.09046
G01 X-12.08739 Y-132.09046
G01 X-11.96643 Y-132.05808
G01 X-11.85803 Y-131.99547
G01 X-11.76948 Y-131.90692
G01 X-11.70687 Y-131.79854
G01 X-11.67449 Y-131.67756
G04 P0 ( dwell for no time -- G64 should not smooth over this point )
G00 Z2.00000 ( retract )

G00 X-18.84948 Y-138.31471 ( rapid move to begin. )
G01 F100.00000
( Mill infeed pass 1/1 )
G01 Z-0.10000
G04 P0 ( dwell for no time -- G64 should not smooth over this point )
G01 F600.00000
G01 X-18.84948 Y-138.31471
G01 X-18.84948 Y-138.08525
G01 X-18.87942 Y-137.85774
G01 X-18.93883 Y-137.63610
G01 X-19.02662 Y-137.42411
G01 X-19.14137 Y-137.22535
G01 X-19.28105 Y-137.04331
G01 X-19.44330 Y-136.88106
G01 X-19.62535 Y-136.74136
G01 X-19.82410 Y-136.62663
G01 X-20.03609 Y-136.53882
G01 X-20.25773 Y-136.47943
G01 X-20.48526 Y-136.44949
G01 X-20.71470 Y-136.44949
G01 X-20.94221 Y-136.47943
G01 X-21.16385 Y-136.53882
G01 X-21.37584 Y-136.62663
G01 X-21.57459 Y-136.74136
G01 X-21.75663 Y-136.88106
G01 X-21.91889 Y-137.04331
G01 X-22.05859 Y-137.22535
G01 X-22.17332 Y-137.42411
G01 X-22.26113 Y-137.63610
G01 X-22.32054 Y-137.85774
G01 X-22.35046 Y-138.08522
G01 X-22.35046 Y-138.31473
G01 X-22.32054 Y-138.54222
G01 X-22.26113 Y-138.76386
G01 X-22.17332 Y-138.97585
G01 X-22.05859 Y-139.17460
G01 X-21.91889 Y-139.35664
G01 X-21.75663 Y-139.51890
G01 X-21.57457 Y-139.65860
G01 X-21.37589 Y-139.77333
G01 X-21.16385 Y-139.86111
G01 X-20.94221 Y-139.92052
G01 X-20.71470 Y-139.95047
G01 X-20.48526 Y-139.95047
G01 X-20.25773 Y-139.92052
G01 X-20.03609 Y-139.86111
G01 X-19.82408 Y-139.77333
G01 X-19.62535 Y-139.65860
G01 X-19.44330 Y-139.51890
G01 X-19.28105 Y-139.35664
G01 X-19.14137 Y-139.17460
G01 X-19.02662 Y-138.97585
G01 X-18.93883 Y-138.76386
G01 X-18.87942 Y-138.54222
G01 X-18.84948 Y-138.31471
G04 P0 ( dwell for no time -- G64 should not smooth over this point )
G00 Z2.00000 ( retract )

G00 X-29.84948 Y-137.89053 ( rapid move to begin. )
G01 F100.00000
( Mill infeed pass 1/1 )
G01 Z-0.10000
G04 P0 ( dwell for no time -- G64 should not smooth over this point )
G01 F600.00000
G01 X-29.84948 Y-137.89053
G01 X-29.84948 Y-137.70940
G01 X-29.87780 Y-137.53056
G01 X-29.93376 Y-137.35835
G01 X-30.01598 Y-137.19698
G01 X-30.12240 Y-137.05048
G01 X-30.25047 Y-136.92241
G01 X-30.39698 Y-136.81598
G01 X-30.55834 Y-136.73376
G01 X-30.73056 Y-136.67781
G01 X-30.90942 Y-136.64949
G01 X-31.09052 Y-136.64949
G01 X-31.26939 Y-136.67781
G01 X-31.44160 Y-136.73376
G01 X-31.60297 Y-136.81598
G01 X-31.74948 Y-136.92241
G01 X-31.87752 Y-137.05048
G01 X-31.98397 Y-137.19698
G01 X-32.06619 Y-137.35835
G01 X-32.12215 Y-137.53056
G01 X-32.15044 Y-137.70940
G01 X-32.15044 Y-137.89053
G01 X-32.12215 Y-138.06940
G01 X-32.06619 Y-138.24161
G01 X-31.98397 Y-138.40297
G01 X-31.87752 Y-138.54948
G01 X-31.74948 Y-138.67755
G01 X-31.60297 Y-138.78397
G01 X-31.44160 Y-138.86619
G01 X-31.26939 Y-138.92212
G01 X-31.09050 Y-138.95047
G01 X-30.90945 Y-138.95047
G01 X-30.73056 Y-138.92212
G01 X-30.55834 Y-138.86619
G01 X-30.39698 Y-138.78397
G01 X-30.25047 Y-138.67755
G01 X-30.12240 Y-138.54948
G01 X-30.01598 Y-138.40297
G01 X-29.93376 Y-138.24161
G01 X-29.87780 Y-138.06940
G01 X-29.84948 Y-137.89053
G04 P0 ( dwell for no time -- G64 should not smooth over this point )
G00 Z2.00000 ( retract )

G00 X-40.01454 Y-134.21746 ( rapid move to begin. )
G01 F100.00000
( Mill infeed pass 1/1 )
G01 Z-0.10000
G04 P0 ( dwell for no time -- G64 should not smooth over this point )
G01 F600.00000
G01 X-40.01454 Y-134.21746
G01 X-40.10773 Y-134.16333
G01 X-40.17760 Y-134.12838
G01 X-40.35530 Y-134.06951
G01 X-40.43361 Y-134.05681
G01 X-40.51476 Y-134.05023
G01 X-48.25211 Y-134.05023
G01 X-48.32407 Y-134.05541
G01 X-48.41635 Y-134.06915
G01 X-48.48429 Y-134.12795
G01 X-48.61038 Y-134.25066
G01 X-48.77096 Y-134.36724
G01 X-48.94596 Y-134.45637
G01 X-49.13278 Y-134.51705
G01 X-49.32679 Y-134.54776
G01 X-49.52318 Y-134.54781
G01 X-49.69768 Y-134.52122
G01 X-49.83059 Y-134.48254
G01 X-49.92569 Y-134.44664
G01 X-50.07911 Y-134.36740
G01 X-50.23814 Y-134.25206
G01 X-50.36478 Y-134.13384
G01 X-50.47022 Y-134.05007
G01 X-50.56046 Y-133.99460
G01 X-50.74791 Y-133.89747
G01 X-50.77743 Y-133.74025
G01 X-50.80316 Y-133.52620
G01 X-50.81230 Y-133.31243
G01 X-50.80517 Y-133.10027
G01 X-50.78137 Y-132.88536
G01 X-50.74022 Y-132.66720
G01 X-50.69056 Y-132.47802
G01 X-50.61893 Y-132.26468
G01 X-50.68734 Y-132.14180
G01 X-50.75279 Y-132.00969
G01 X-50.85711 Y-131.75798
G01 X-50.91599 Y-131.57604
G01 X-50.94995 Y-131.44396
G01 X-50.98198 Y-131.27932
G01 X-51.00339 Y-131.10588
G01 X-51.01154 Y-130.96095
G01 X-51.01154 Y-130.83901
G01 X-51.00105 Y-130.66895
G01 X-50.98452 Y-130.53687
G01 X-50.96054 Y-130.40624
G01 X-50.83575 Y-130.23792
G01 X-50.73923 Y-130.12636
G01 X-50.62843 Y-130.01366
G01 X-50.53016 Y-129.92514
G01 X-50.41403 Y-129.83213
G01 X-50.28083 Y-129.73868
G01 X-50.17860 Y-129.67581
G01 X-50.10738 Y-129.66616
G01 X-49.94312 Y-129.65295
G01 X-49.78934 Y-129.65044
G01 X-49.65726 Y-129.65582
G01 X-49.46803 Y-129.67571
G01 X-49.33595 Y-129.69806
G01 X-49.24213 Y-129.71904
G01 X-49.14601 Y-129.79027
G01 X-49.01650 Y-129.89923
G01 X-48.90235 Y-130.00843
G01 X-48.80616 Y-130.11155
G01 X-48.58798 Y-130.20213
G01 X-48.45343 Y-130.26756
G01 X-48.33062 Y-130.34485
G01 X-48.25762 Y-130.40116
G01 X-48.17563 Y-130.47563
G01 X-47.31279 Y-131.33832
G01 X-47.23029 Y-131.41096
G01 X-47.14142 Y-131.47578
G01 X-47.03987 Y-131.49202
G01 X-46.95940 Y-131.49849
G01 X-26.06094 Y-131.49951
G01 X-25.95525 Y-131.49209
G01 X-25.85244 Y-131.47614
G01 X-25.76463 Y-131.41162
G01 X-25.67400 Y-131.33131
G01 X-22.33652 Y-127.99190
G01 X-22.28882 Y-127.93614
G01 X-22.22011 Y-127.84196
G01 X-22.14703 Y-127.71636
G01 X-22.09702 Y-127.60881
G01 X-21.88259 Y-127.09114
G01 X-21.95369 Y-126.96558
G01 X-21.98562 Y-126.89573
G01 X-22.03448 Y-126.73289
G01 X-22.04972 Y-126.59106
G01 X-22.04759 Y-122.91967
G01 X-22.02971 Y-122.80943
G01 X-21.94106 Y-122.70727
G01 X-21.84863 Y-122.61253
G01 X-21.79997 Y-122.55012
G01 X-21.73337 Y-122.45360
G01 X-21.68767 Y-122.37027
G01 X-21.64411 Y-122.27875
G01 X-21.58287 Y-122.09216
G01 X-21.55295 Y-121.90689
G01 X-21.55097 Y-121.87110
G01 X-21.55171 Y-121.70174
G01 X-21.56819 Y-121.58622
G01 X-21.59214 Y-121.47433
G01 X-21.62768 Y-121.36422
G01 X-21.66710 Y-121.27057
G01 X-21.73233 Y-121.14571
G01 X-21.79082 Y-121.06206
G01 X-21.86936 Y-120.96389
G01 X-21.98704 Y-120.84815
G01 X-22.14571 Y-120.73235
G01 X-22.32100 Y-120.64360
G01 X-22.49029 Y-120.58747
G01 X-22.60378 Y-120.56534
G01 X-22.70451 Y-120.55168
G01 X-22.89816 Y-120.55216
G01 X-23.07014 Y-120.57819
G01 X-23.18025 Y-120.60906
G01 X-23.27916 Y-120.64312
G01 X-23.45404 Y-120.73265
G01 X-23.61287 Y-120.84820
G01 X-23.73138 Y-120.96471
G01 X-23.80578 Y-121.05168
G01 X-23.85315 Y-121.09971
G01 X-23.91998 Y-121.16107
G01 X-23.99755 Y-121.22368
G01 X-24.08200 Y-121.27946
G01 X-24.11756 Y-122.21695
G01 X-24.18830 Y-122.26503
G01 X-24.30006 Y-122.35424
G01 X-24.35795 Y-122.40910
G01 X-24.48442 Y-122.55167
G01 X-24.59562 Y-122.66737
G01 X-24.62978 Y-122.70938
G01 X-24.64759 Y-122.81967
G01 X-24.64969 Y-127.22695
G01 X-24.64482 Y-127.30244
G01 X-24.62109 Y-127.40338
G01 X-24.58233 Y-127.62941
G01 X-24.52173 Y-127.79977
G01 X-24.43857 Y-127.94993
G01 X-24.67156 Y-128.51021
G01 X-24.72191 Y-128.61097
G01 X-24.76979 Y-128.69106
G01 X-24.85645 Y-128.80917
G01 X-24.92452 Y-128.88476
G01 X-26.17870 Y-130.13870
G01 X-26.26351 Y-130.21313
G01 X-26.34956 Y-130.27596
G01 X-26.46008 Y-130.29296
G01 X-26.55721 Y-130.29949
G01 X-46.41592 Y-130.29992
G01 X-46.51752 Y-130.29458
G01 X-46.64455 Y-130.27617
G01 X-46.72265 Y-130.21935
G01 X-46.80614 Y-130.14731
G01 X-48.47863 Y-128.47569
G01 X-48.55645 Y-128.40459
G01 X-48.66438 Y-128.32415
G01 X-48.76379 Y-128.30813
G01 X-48.90294 Y-128.29997
G01 X-50.51004 Y-128.30002
G01 X-50.63087 Y-128.30729
G01 X-50.73864 Y-128.32377
G01 X-50.83285 Y-128.39355
G01 X-50.91708 Y-128.46863
G01 X-52.13130 Y-129.68285
G01 X-52.19531 Y-129.75354
G01 X-52.25566 Y-129.83167
G01 X-52.27560 Y-129.86151
G01 X-52.28261 Y-129.89674
G01 X-52.29518 Y-129.99469
G01 X-52.29996 Y-130.09997
G01 X-52.29996 Y-137.80292
G01 X-52.30486 Y-137.90922
G01 X-52.32401 Y-138.04148
G01 X-52.38256 Y-138.12236
G01 X-52.46861 Y-138.22002
G01 X-55.07991 Y-140.83132
G01 X-55.15060 Y-140.89535
G01 X-55.25855 Y-140.97561
G01 X-55.39175 Y-140.99520
G01 X-55.49705 Y-140.99997
G01 X-97.50291 Y-140.99997
G01 X-97.63383 Y-140.99266
G01 X-97.74160 Y-140.97617
G01 X-97.84442 Y-140.89939
G01 X-97.92003 Y-140.83132
G01 X-99.23151 Y-139.51981
G01 X-99.28762 Y-139.45852
G01 X-99.37622 Y-139.34161
G01 X-99.39626 Y-139.19629
G01 X-99.39996 Y-139.10290
G01 X-99.40001 Y-135.28987
G01 X-99.40588 Y-135.18241
G01 X-99.42445 Y-135.06155
G01 X-99.47690 Y-134.98782
G01 X-99.54101 Y-134.91218
G01 X-102.17565 Y-132.27576
G01 X-102.26470 Y-132.19544
G01 X-102.36130 Y-132.12376
G01 X-102.48830 Y-132.10532
G01 X-102.58987 Y-132.09999
G01 X-106.03599 Y-132.09935
G01 X-106.13731 Y-132.09224
G01 X-106.24161 Y-132.07622
G01 X-106.32667 Y-132.01381
G01 X-106.41981 Y-131.93151
G01 X-108.82423 Y-129.52717
G01 X-108.91163 Y-129.42941
G01 X-108.97617 Y-129.34160
G01 X-108.99347 Y-129.22562
G01 X-108.99992 Y-129.11300
G01 X-109.00002 Y-126.08987
G01 X-109.00472 Y-125.99467
G01 X-109.01732 Y-125.89673
G01 X-109.02433 Y-125.86150
G01 X-109.04427 Y-125.83165
G01 X-109.10462 Y-125.75352
G01 X-109.17571 Y-125.67569
G01 X-115.22421 Y-119.62717
G01 X-115.30923 Y-119.53255
G01 X-115.37590 Y-119.44149
G01 X-115.39506 Y-119.30924
G01 X-115.39996 Y-119.20294
G01 X-115.39996 Y-92.59705
G01 X-115.39518 Y-92.49174
G01 X-115.37595 Y-92.35841
G01 X-115.31756 Y-92.27777
G01 X-115.23130 Y-92.17990
G01 X-112.51271 Y-89.46170
G01 X-112.43989 Y-89.39677
G01 X-112.34134 Y-89.32436
G01 X-112.26423 Y-89.31097
G01 X-112.18376 Y-89.30282
G01 X-112.10291 Y-89.29997
G01 X-88.15973 Y-89.30079
G01 X-88.06300 Y-89.30792
G01 X-87.93070 Y-89.33040
G01 X-87.81309 Y-89.36256
G01 X-87.71299 Y-89.39878
G01 X-87.22341 Y-89.60157
G01 X-84.39596 Y-92.42903
G01 X-84.35435 Y-92.53695
G01 X-84.27172 Y-92.72049
G01 X-84.22130 Y-92.81739
G01 X-84.15946 Y-92.92435
G01 X-84.10568 Y-93.00842
G01 X-84.00038 Y-93.15392
G01 X-83.93159 Y-93.23771
G01 X-83.81236 Y-93.36606
G01 X-83.67333 Y-93.49387
G01 X-83.59918 Y-93.55407
G01 X-83.46276 Y-93.65280
G01 X-83.28491 Y-93.76164
G01 X-83.11168 Y-93.84993
G01 X-83.04696 Y-93.87881
G01 X-82.52456 Y-93.85887
G01 X-82.41783 Y-93.71518
G01 X-82.35049 Y-93.64246
G01 X-82.26876 Y-93.56705
G01 X-82.18684 Y-93.50205
G01 X-82.04783 Y-93.36319
G01 X-81.93320 Y-93.20543
G01 X-81.88577 Y-93.11701
G01 X-81.84328 Y-93.02907
G01 X-81.78260 Y-92.84223
G01 X-81.75197 Y-92.64820
G01 X-81.75070 Y-92.48391
G01 X-81.76088 Y-92.38267
G01 X-81.77554 Y-92.29372
G01 X-81.80061 Y-92.19639
G01 X-81.84348 Y-92.07094
G01 X-81.88346 Y-91.98757
G01 X-81.93231 Y-91.89570
G01 X-82.00439 Y-91.79362
G01 X-82.06152 Y-91.72217
G01 X-82.18710 Y-91.59822
G01 X-82.34033 Y-91.48605
G01 X-82.52085 Y-91.39326
G01 X-82.70780 Y-91.33286
G01 X-82.90376 Y-91.30185
G01 X-83.10734 Y-91.29857
G01 X-83.16903 Y-91.29304
G01 X-83.24427 Y-91.23733
G01 X-83.29883 Y-91.19011
G01 X-83.77868 Y-90.71023
G01 X-83.85316 Y-90.62159
G01 X-83.92804 Y-90.49545
G01 X-83.95803 Y-90.42662
G01 X-84.02118 Y-90.18532
G01 X-84.04173 Y-89.98323
G01 X-84.24752 Y-89.77744
G01 X-84.44452 Y-89.69190
G01 X-84.55971 Y-89.63464
G01 X-84.70871 Y-89.55123
G01 X-84.89095 Y-89.43251
G01 X-85.01409 Y-89.33998
G01 X-85.10810 Y-89.26157
G01 X-85.25442 Y-89.12370
G01 X-85.35707 Y-89.01323
G01 X-85.43570 Y-88.91943
G01 X-85.55356 Y-88.76073
G01 X-85.62189 Y-88.65664
G01 X-85.68793 Y-88.54476
G01 X-85.85143 Y-88.50180
G01 X-85.92336 Y-88.47498
G01 X-86.07296 Y-88.39446
G01 X-86.12951 Y-88.35217
G01 X-86.18409 Y-88.30490
G01 X-86.34678 Y-88.14331
G01 X-86.41767 Y-88.08705
G01 X-86.49603 Y-88.03782
G01 X-86.54675 Y-88.01407
G01 X-86.63202 Y-87.98146
G01 X-86.69006 Y-87.96731
G01 X-86.77634 Y-87.95253
G01 X-86.84998 Y-87.94971
G01 X-93.82713 Y-87.94971
G01 X-93.94778 Y-87.93871
G01 X-94.09408 Y-87.90010
G01 X-94.16396 Y-87.87173
G01 X-94.32304 Y-87.78466
G01 X-94.49766 Y-87.83343
G01 X-94.62393 Y-87.86035
G01 X-94.73632 Y-87.87844
G01 X-94.84737 Y-87.89091
G01 X-94.95778 Y-87.89800
G01 X-95.16103 Y-87.89711
G01 X-95.30325 Y-87.88588
G01 X-95.41585 Y-87.87072
G01 X-95.61176 Y-87.83119
G01 X-95.74130 Y-87.79584
G01 X-95.90772 Y-87.73983
G01 X-96.04003 Y-87.68659
G01 X-96.18933 Y-87.61750
G01 X-96.32044 Y-87.54895
G01 X-96.49365 Y-87.63843
G01 X-96.62763 Y-87.69843
G01 X-96.75603 Y-87.74857
G01 X-96.91846 Y-87.80175
G01 X-97.03766 Y-87.83343
G01 X-97.24528 Y-87.87399
G01 X-97.35765 Y-87.88809
G01 X-97.49778 Y-87.89800
G01 X-97.70103 Y-87.89711
G01 X-97.84325 Y-87.88588
G01 X-98.03718 Y-87.85634
G01 X-98.18978 Y-87.82154
G01 X-98.32295 Y-87.78298
G01 X-98.52905 Y-87.70803
G01 X-98.67154 Y-87.64534
G01 X-98.86044 Y-87.54895
G01 X-99.03365 Y-87.63843
G01 X-99.16763 Y-87.69843
G01 X-99.29603 Y-87.74857
G01 X-99.45846 Y-87.80175
G01 X-99.57766 Y-87.83343
G01 X-99.78528 Y-87.87399
G01 X-99.89765 Y-87.88809
G01 X-100.03778 Y-87.89800
G01 X-100.24103 Y-87.89711
G01 X-100.38325 Y-87.88588
G01 X-100.57718 Y-87.85634
G01 X-100.72978 Y-87.82154
G01 X-100.86295 Y-87.78298
G01 X-101.06905 Y-87.70803
G01 X-101.21154 Y-87.64534
G01 X-101.40044 Y-87.54895
G01 X-101.57365 Y-87.63843
G01 X-101.70763 Y-87.69843
G01 X-101.83603 Y-87.74857
G01 X-101.99846 Y-87.80175
G01 X-102.11766 Y-87.83343
G01 X-102.32528 Y-87.87399
G01 X-102.43765 Y-87.88809
G01 X-102.57778 Y-87.89800
G01 X-102.78103 Y-87.89711
G01 X-102.92325 Y-87.88588
G01 X-103.11718 Y-87.85634
G01 X-103.26978 Y-87.82154
G01 X-103.40295 Y-87.78298
G01 X-103.60905 Y-87.70803
G01 X-103.75154 Y-87.64534
G01 X-103.94044 Y-87.54895
G01 X-104.11365 Y-87.63843
G01 X-104.24763 Y-87.69843
G01 X-104.37603 Y-87.74857
G01 X-104.49993 Y-87.79017
G01 X-104.61979 Y-87.82408
G01 X-104.78393 Y-87.86035
G01 X-104.89632 Y-87.87844
G01 X-105.08875 Y-87.89665
G01 X-105.22952 Y-87.89972
G01 X-105.43333 Y-87.88898
G01 X-105.57585 Y-87.87072
G01 X-105.77176 Y-87.83119
G01 X-105.94295 Y-87.78298
G01 X-106.14905 Y-87.70803
G01 X-106.29154 Y-87.64534
G01 X-106.48044 Y-87.54895
G01 X-106.65365 Y-87.63843
G01 X-106.78763 Y-87.69843
G01 X-106.91603 Y-87.74857
G01 X-107.03993 Y-87.79017
G01 X-107.15979 Y-87.82408
G01 X-107.28915 Y-87.85360
G01 X-107.40528 Y-87.87399
G01 X-107.54737 Y-87.89091
G01 X-107.73911 Y-87.89980
G01 X-107.89197 Y-87.89546
G01 X-108.00325 Y-87.88588
G01 X-108.11585 Y-87.87072
G01 X-108.31176 Y-87.83119
G01 X-108.48295 Y-87.78298
G01 X-108.68905 Y-87.70803
G01 X-108.83154 Y-87.64534
G01 X-109.02044 Y-87.54895
G01 X-109.19365 Y-87.63843
G01 X-109.37467 Y-87.71760
G01 X-109.57993 Y-87.79017
G01 X-109.73766 Y-87.83343
G01 X-109.94528 Y-87.87399
G01 X-110.08737 Y-87.89091
G01 X-110.19778 Y-87.89800
G01 X-110.30952 Y-87.89972
G01 X-110.51333 Y-87.88898
G01 X-110.62460 Y-87.87547
G01 X-110.73718 Y-87.85634
G01 X-110.85176 Y-87.83119
G01 X-110.98130 Y-87.79584
G01 X-111.10431 Y-87.75560
G01 X-111.22905 Y-87.70803
G01 X-111.40863 Y-87.62789
G01 X-111.45628 Y-87.47509
G01 X-111.51018 Y-87.25182
G01 X-111.53240 Y-87.12314
G01 X-111.55130 Y-86.95797
G01 X-111.55836 Y-86.83622
G01 X-111.55714 Y-86.63338
G01 X-111.54403 Y-86.46737
G01 X-111.52082 Y-86.30641
G01 X-111.58373 Y-86.21626
G01 X-111.68302 Y-86.02294
G01 X-111.75922 Y-85.77943
G01 X-111.80212 Y-85.72213
G01 X-111.85943 Y-85.67920
G01 X-111.93085 Y-85.65294
G01 X-111.98000 Y-85.64971
G01 X-113.71439 Y-85.65091
G01 X-113.72909 Y-85.65294
G01 X-113.80052 Y-85.67920
G01 X-113.85785 Y-85.72213
G01 X-113.90075 Y-85.77943
G01 X-113.92701 Y-85.85086
G01 X-113.93021 Y-85.89996
G01 X-113.93021 Y-87.59995
G01 X-113.92701 Y-87.64910
G01 X-113.90075 Y-87.72053
G01 X-113.85782 Y-87.77783
G01 X-113.80052 Y-87.82075
G01 X-113.73209 Y-87.84615
G01 X-113.61561 Y-87.85852
G01 X-113.54573 Y-87.87112
G01 X-113.37748 Y-87.92840
G01 X-113.30761 Y-87.96337
G01 X-113.21332 Y-88.01824
G01 X-113.25323 Y-88.15647
G01 X-113.28007 Y-88.22845
G01 X-113.36059 Y-88.37806
G01 X-113.45013 Y-88.48910
G01 X-116.51080 Y-91.54988
G01 X-116.56325 Y-91.59824
G01 X-116.69625 Y-91.70322
G01 X-116.78210 Y-91.76149
G01 X-117.02518 Y-91.90510
G01 X-117.21908 Y-92.00713
G01 X-117.40666 Y-92.09999
G01 X-117.69950 Y-92.22768
G01 X-117.40666 Y-92.09999
G01 X-117.21908 Y-92.00713
G01 X-116.94489 Y-91.85966
G01 X-116.78210 Y-91.76149
G01 X-116.69625 Y-91.70322
G01 X-116.60161 Y-91.63101
G01 X-116.51080 Y-91.54988
G01 X-113.45013 Y-88.48910
G01 X-113.36059 Y-88.37806
G01 X-113.28007 Y-88.22845
G01 X-113.25323 Y-88.15647
G01 X-113.21332 Y-88.01824
G01 X-113.08579 Y-87.97409
G01 X-112.94637 Y-87.93790
G01 X-112.85587 Y-87.92083
G01 X-112.72125 Y-87.90485
G01 X-112.59996 Y-87.89995
G01 X-111.98000 Y-87.89995
G01 X-111.83715 Y-87.88296
G01 X-111.69430 Y-87.83193
G01 X-111.55148 Y-87.74692
G01 X-111.40863 Y-87.62789
G01 X-111.45628 Y-87.47509
G01 X-111.51018 Y-87.25182
G01 X-111.53240 Y-87.12314
G01 X-111.55130 Y-86.95797
G01 X-111.55836 Y-86.83622
G01 X-111.55714 Y-86.63338
G01 X-111.54403 Y-86.46737
G01 X-111.52082 Y-86.30641
G01 X-111.41099 Y-86.24707
G01 X-111.33111 Y-86.19559
G01 X-111.23187 Y-86.12411
G01 X-111.15696 Y-86.06109
G01 X-111.00530 Y-85.91240
G01 X-110.88099 Y-85.82081
G01 X-110.81030 Y-85.78052
G01 X-110.71168 Y-85.73196
G01 X-110.54706 Y-85.67908
G01 X-110.37647 Y-85.65149
G01 X-110.29204 Y-85.64984
G01 X-110.20355 Y-85.65180
G01 X-110.16306 Y-85.65672
G01 X-110.03286 Y-85.67898
G01 X-109.96908 Y-85.69762
G01 X-109.84620 Y-85.74235
G01 X-109.71445 Y-85.81083
G01 X-109.66304 Y-85.84580
G01 X-109.57447 Y-85.91220
G01 X-109.45295 Y-86.03394
G01 X-109.23937 Y-86.33394
G01 X-109.18074 Y-86.39947
G01 X-109.01991 Y-86.55436
G01 X-109.02044 Y-87.54895
G01 X-109.01991 Y-86.55436
G01 X-108.90358 Y-86.44466
G01 X-108.78704 Y-86.31725
G01 X-108.65186 Y-86.12058
G01 X-108.58900 Y-86.03600
G01 X-108.51480 Y-85.95911
G01 X-108.44696 Y-85.89767
G01 X-108.32555 Y-85.81073
G01 X-108.17168 Y-85.73196
G01 X-108.00706 Y-85.67908
G01 X-107.85738 Y-85.65411
G01 X-107.75204 Y-85.64984
G01 X-107.66355 Y-85.65180
G01 X-107.49286 Y-85.67898
G01 X-107.32809 Y-85.73211
G01 X-107.17445 Y-85.81083
G01 X-107.03447 Y-85.91220
G01 X-106.91295 Y-86.03394
G01 X-106.69937 Y-86.33394
G01 X-106.64074 Y-86.39947
G01 X-106.47991 Y-86.55436
G01 X-106.48044 Y-87.54895
G01 X-106.47991 Y-86.55436
G01 X-106.36358 Y-86.44466
G01 X-106.24704 Y-86.31725
G01 X-106.11186 Y-86.12058
G01 X-106.04900 Y-86.03600
G01 X-105.92530 Y-85.91240
G01 X-105.78555 Y-85.81073
G01 X-105.63168 Y-85.73196
G01 X-105.51197 Y-85.69175
G01 X-105.39787 Y-85.66594
G01 X-105.29645 Y-85.65149
G01 X-105.18812 Y-85.64994
G01 X-105.10684 Y-85.65358
G01 X-104.97745 Y-85.67384
G01 X-104.88908 Y-85.69762
G01 X-104.78809 Y-85.73211
G01 X-104.63445 Y-85.81083
G01 X-104.49447 Y-85.91220
G01 X-104.37295 Y-86.03394
G01 X-104.15937 Y-86.33394
G01 X-104.10074 Y-86.39947
G01 X-103.93991 Y-86.55436
G01 X-103.94044 Y-87.54895
G01 X-103.93991 Y-86.55436
G01 X-103.82358 Y-86.44466
G01 X-103.70704 Y-86.31725
G01 X-103.57186 Y-86.12058
G01 X-103.50900 Y-86.03600
G01 X-103.38530 Y-85.91240
G01 X-103.26099 Y-85.82081
G01 X-103.16899 Y-85.76953
G01 X-103.09168 Y-85.73196
G01 X-102.92706 Y-85.67908
G01 X-102.75340 Y-85.65142
G01 X-102.58355 Y-85.65180
G01 X-102.46267 Y-85.66925
G01 X-102.41286 Y-85.67898
G01 X-102.34908 Y-85.69762
G01 X-102.24809 Y-85.73211
G01 X-102.09445 Y-85.81083
G01 X-101.95447 Y-85.91220
G01 X-101.83295 Y-86.03394
G01 X-101.61937 Y-86.33394
G01 X-101.56074 Y-86.39947
G01 X-101.39991 Y-86.55436
G01 X-101.40044 Y-87.54895
G01 X-101.39991 Y-86.55436
G01 X-101.28358 Y-86.44466
G01 X-101.16704 Y-86.31725
G01 X-101.03186 Y-86.12058
G01 X-100.96719 Y-86.03379
G01 X-100.84530 Y-85.91240
G01 X-100.70555 Y-85.81073
G01 X-100.55168 Y-85.73196
G01 X-100.38706 Y-85.67908
G01 X-100.21645 Y-85.65149
G01 X-100.04355 Y-85.65180
G01 X-99.87286 Y-85.67898
G01 X-99.70809 Y-85.73211
G01 X-99.59214 Y-85.78977
G01 X-99.52265 Y-85.83204
G01 X-99.41447 Y-85.91220
G01 X-99.35112 Y-85.97306
G01 X-99.29295 Y-86.03394
G01 X-99.26435 Y-86.07074
G01 X-99.07937 Y-86.33394
G01 X-99.02074 Y-86.39947
G01 X-98.85991 Y-86.55436
G01 X-98.86044 Y-87.54895
G01 X-98.85991 Y-86.55436
G01 X-98.74358 Y-86.44466
G01 X-98.62704 Y-86.31725
G01 X-98.49186 Y-86.12058
G01 X-98.42719 Y-86.03379
G01 X-98.30530 Y-85.91240
G01 X-98.16555 Y-85.81073
G01 X-98.01168 Y-85.73196
G01 X-97.89197 Y-85.69175
G01 X-97.77787 Y-85.66594
G01 X-97.67645 Y-85.65149
G01 X-97.50355 Y-85.65180
G01 X-97.33286 Y-85.67898
G01 X-97.16809 Y-85.73211
G01 X-97.07335 Y-85.77859
G01 X-96.98265 Y-85.83204
G01 X-96.87447 Y-85.91220
G01 X-96.79326 Y-85.99112
G01 X-96.73888 Y-86.05162
G01 X-96.53937 Y-86.33394
G01 X-96.48074 Y-86.39947
G01 X-96.31991 Y-86.55436
G01 X-96.32044 Y-87.54895
G01 X-96.31991 Y-86.55436
G01 X-96.20358 Y-86.44466
G01 X-96.08704 Y-86.31725
G01 X-95.95186 Y-86.12058
G01 X-95.88719 Y-86.03379
G01 X-95.76530 Y-85.91240
G01 X-95.62555 Y-85.81073
G01 X-95.47168 Y-85.73196
G01 X-95.35197 Y-85.69175
G01 X-95.23787 Y-85.66594
G01 X-95.13645 Y-85.65149
G01 X-94.96355 Y-85.65180
G01 X-94.79286 Y-85.67898
G01 X-94.62809 Y-85.73211
G01 X-94.53335 Y-85.77859
G01 X-94.44265 Y-85.83204
G01 X-94.33447 Y-85.91220
G01 X-94.21237 Y-86.03460
G01 X-94.11074 Y-86.17443
G01 X-94.03190 Y-86.32830
G01 X-93.99271 Y-86.44489
G01 X-93.97087 Y-86.53374
G01 X-93.95154 Y-86.66350
G01 X-93.95194 Y-86.83638
G01 X-93.97882 Y-87.00714
G01 X-94.00483 Y-87.09337
G01 X-94.04661 Y-87.20264
G01 X-94.09446 Y-87.29655
G01 X-94.16863 Y-87.41659
G01 X-94.24183 Y-87.55532
G01 X-94.32304 Y-87.78466
G01 X-94.16396 Y-87.87173
G01 X-94.09408 Y-87.90010
G01 X-93.94778 Y-87.93871
G01 X-93.82713 Y-87.94971
G01 X-86.84998 Y-87.94971
G01 X-86.77634 Y-87.95253
G01 X-86.73707 Y-87.95822
G01 X-86.63202 Y-87.98146
G01 X-86.49603 Y-88.03782
G01 X-86.37350 Y-88.11938
G01 X-86.18409 Y-88.30490
G01 X-86.12951 Y-88.35217
G01 X-86.07296 Y-88.39446
G01 X-85.92336 Y-88.47498
G01 X-85.85143 Y-88.50180
G01 X-85.68793 Y-88.54476
G01 X-85.62189 Y-88.65664
G01 X-85.55356 Y-88.76073
G01 X-85.43570 Y-88.91943
G01 X-85.35707 Y-89.01323
G01 X-85.25442 Y-89.12370
G01 X-85.10810 Y-89.26157
G01 X-85.01409 Y-89.33998
G01 X-84.89095 Y-89.43251
G01 X-84.70871 Y-89.55123
G01 X-84.55971 Y-89.63464
G01 X-84.44452 Y-89.69190
G01 X-84.24752 Y-89.77744
G01 X-84.04173 Y-89.98323
G01 X-84.02118 Y-90.18532
G01 X-83.95803 Y-90.42662
G01 X-83.92804 Y-90.49545
G01 X-83.85316 Y-90.62159
G01 X-83.77868 Y-90.71023
G01 X-83.29883 Y-91.19011
G01 X-83.24427 Y-91.23733
G01 X-83.16903 Y-91.29304
G01 X-83.10734 Y-91.29857
G01 X-82.90376 Y-91.30185
G01 X-82.70780 Y-91.33286
G01 X-82.52085 Y-91.39326
G01 X-82.34033 Y-91.48605
G01 X-82.18710 Y-91.59822
G01 X-82.06152 Y-91.72217
G01 X-82.00439 Y-91.79362
G01 X-81.93231 Y-91.89570
G01 X-81.88346 Y-91.98757
G01 X-81.84348 Y-92.07094
G01 X-81.80061 Y-92.19639
G01 X-81.77912 Y-92.27480
G01 X-81.75192 Y-92.45173
G01 X-81.75197 Y-92.64820
G01 X-81.78260 Y-92.84223
G01 X-81.84328 Y-93.02907
G01 X-81.93241 Y-93.20418
G01 X-82.04783 Y-93.36319
G01 X-82.18684 Y-93.50205
G01 X-82.26876 Y-93.56705
G01 X-82.35049 Y-93.64246
G01 X-82.41783 Y-93.71518
G01 X-82.52456 Y-93.85887
G01 X-82.42453 Y-93.97545
G01 X-82.33236 Y-94.06285
G01 X-82.24958 Y-94.12900
G01 X-82.08786 Y-94.24749
G01 X-81.97734 Y-94.35551
G01 X-81.90439 Y-94.44363
G01 X-81.83828 Y-94.53700
G01 X-81.78349 Y-94.63753
G01 X-81.73571 Y-94.74142
G01 X-81.68263 Y-94.90773
G01 X-81.65202 Y-95.10174
G01 X-81.65197 Y-95.29818
G01 X-81.68275 Y-95.49219
G01 X-81.74338 Y-95.67908
G01 X-81.83264 Y-95.85404
G01 X-81.94813 Y-96.01294
G01 X-82.05740 Y-96.12445
G01 X-82.11925 Y-96.17723
G01 X-82.24587 Y-96.26737
G01 X-82.38547 Y-96.34014
G01 X-82.51785 Y-96.39541
G01 X-82.64823 Y-96.46049
G01 X-82.81948 Y-96.58063
G01 X-82.96073 Y-96.52305
G01 X-83.08465 Y-96.46470
G01 X-83.24183 Y-96.37900
G01 X-83.32890 Y-96.32513
G01 X-83.41384 Y-96.26755
G01 X-83.55516 Y-96.15912
G01 X-83.63556 Y-96.08932
G01 X-83.74531 Y-95.98259
G01 X-83.81681 Y-95.90476
G01 X-83.92171 Y-95.77631
G01 X-83.97995 Y-95.69620
G01 X-84.07909 Y-95.54169
G01 X-84.13355 Y-95.44487
G01 X-84.21455 Y-95.27984
G01 X-84.29596 Y-95.07903
G01 X-84.41960 Y-94.95539
G01 X-84.51953 Y-94.86433
G01 X-84.57757 Y-94.81696
G01 X-84.70713 Y-94.72392
G01 X-84.74228 Y-94.57865
G01 X-84.76695 Y-94.50454
G01 X-84.85100 Y-94.33723
G01 X-84.89740 Y-94.27286
G01 X-84.95013 Y-94.21084
G01 X-88.40113 Y-90.75984
G01 X-88.45566 Y-90.71259
G01 X-88.51744 Y-90.66642
G01 X-88.61233 Y-90.65237
G01 X-111.63715 Y-90.65024
G01 X-111.70911 Y-90.65539
G01 X-111.78546 Y-90.66642
G01 X-111.88226 Y-90.74135
G01 X-113.15277 Y-92.01084
G01 X-113.24230 Y-92.12189
G01 X-113.32282 Y-92.27149
G01 X-113.34967 Y-92.34348
G01 X-113.38820 Y-92.48262
G01 X-113.68000 Y-92.60347
G01 X-113.77713 Y-92.65458
G01 X-113.85894 Y-92.72102
G01 X-113.92539 Y-92.80284
G01 X-113.98995 Y-92.93253
G01 X-113.98995 Y-94.59996
G01 X-113.97913 Y-94.71586
G01 X-113.94662 Y-94.83176
G01 X-113.82282 Y-94.84667
G01 X-113.74873 Y-94.85086
G01 X-111.98000 Y-94.85023
G01 X-111.93090 Y-94.84703
G01 X-111.85943 Y-94.82074
G01 X-111.80212 Y-94.77781
G01 X-111.75922 Y-94.72051
G01 X-111.72603 Y-94.62183
G01 X-111.70852 Y-94.54985
G01 X-111.66120 Y-94.42465
G01 X-111.62623 Y-94.35478
G01 X-111.52102 Y-94.19166
G01 X-111.53829 Y-94.08058
G01 X-111.55130 Y-93.95798
G01 X-111.55981 Y-93.75488
G01 X-111.55714 Y-93.63339
G01 X-111.54861 Y-93.51129
G01 X-111.52082 Y-93.30639
G01 X-111.40863 Y-93.24574
G01 X-111.31990 Y-93.18762
G01 X-111.22026 Y-93.11541
G01 X-111.15691 Y-93.06121
G01 X-111.00535 Y-92.91236
G01 X-110.86550 Y-92.81076
G01 X-110.71157 Y-92.73212
G01 X-110.60370 Y-92.69534
G01 X-110.50149 Y-92.67000
G01 X-110.37645 Y-92.65148
G01 X-110.26812 Y-92.64993
G01 X-110.18684 Y-92.65356
G01 X-110.03281 Y-92.67878
G01 X-109.94485 Y-92.70535
G01 X-109.86802 Y-92.73215
G01 X-109.71445 Y-92.81084
G01 X-109.57447 Y-92.91218
G01 X-109.50147 Y-92.98280
G01 X-109.43982 Y-93.05044
G01 X-109.23937 Y-93.33393
G01 X-109.18077 Y-93.39943
G01 X-109.01991 Y-93.55437
G01 X-109.02011 Y-93.94566
G01 X-108.87411 Y-94.08561
G01 X-108.80617 Y-94.15910
G01 X-108.58689 Y-94.46593
G01 X-108.46555 Y-94.58785
G01 X-108.36266 Y-94.66420
G01 X-108.27244 Y-94.71830
G01 X-108.17160 Y-94.76783
G01 X-108.00716 Y-94.82125
G01 X-107.83640 Y-94.84794
G01 X-107.66355 Y-94.84853
G01 X-107.49289 Y-94.82089
G01 X-107.42997 Y-94.80266
G01 X-107.32832 Y-94.76791
G01 X-107.17435 Y-94.68929
G01 X-107.03465 Y-94.58754
G01 X-106.91270 Y-94.46626
G01 X-106.85189 Y-94.38475
G01 X-106.71621 Y-94.18683
G01 X-106.59632 Y-94.05544
G01 X-106.48011 Y-93.94566
G01 X-106.47991 Y-93.55437
G01 X-106.36348 Y-93.44457
G01 X-106.24704 Y-93.31726
G01 X-106.11806 Y-93.12940
G01 X-106.04732 Y-93.03367
G01 X-105.96645 Y-92.95089
G01 X-105.90577 Y-92.89672
G01 X-105.78550 Y-92.81076
G01 X-105.69731 Y-92.76362
G01 X-105.62362 Y-92.72908
G01 X-105.50074 Y-92.68833
G01 X-105.42149 Y-92.67000
G01 X-105.29645 Y-92.65148
G01 X-105.18812 Y-92.64993
G01 X-105.10684 Y-92.65356
G01 X-104.95281 Y-92.67878
G01 X-104.86485 Y-92.70535
G01 X-104.78802 Y-92.73215
G01 X-104.63445 Y-92.81084
G01 X-104.49447 Y-92.91218
G01 X-104.42147 Y-92.98280
G01 X-104.35982 Y-93.05044
G01 X-104.15937 Y-93.33393
G01 X-104.10077 Y-93.39943
G01 X-103.93991 Y-93.55437
G01 X-103.94011 Y-93.94566
G01 X-103.79411 Y-94.08561
G01 X-103.72617 Y-94.15910
G01 X-103.50689 Y-94.46593
G01 X-103.38555 Y-94.58785
G01 X-103.28266 Y-94.66420
G01 X-103.19244 Y-94.71830
G01 X-103.09160 Y-94.76783
G01 X-102.92716 Y-94.82125
G01 X-102.75640 Y-94.84794
G01 X-102.58355 Y-94.84853
G01 X-102.41289 Y-94.82089
G01 X-102.34997 Y-94.80266
G01 X-102.24832 Y-94.76791
G01 X-102.09435 Y-94.68929
G01 X-101.95465 Y-94.58754
G01 X-101.83270 Y-94.46626
G01 X-101.77189 Y-94.38475
G01 X-101.63621 Y-94.18683
G01 X-101.51632 Y-94.05544
G01 X-101.40011 Y-93.94566
G01 X-101.39991 Y-93.55437
G01 X-101.28348 Y-93.44457
G01 X-101.16704 Y-93.31726
G01 X-101.03806 Y-93.12940
G01 X-100.96732 Y-93.03367
G01 X-100.84535 Y-92.91236
G01 X-100.70550 Y-92.81076
G01 X-100.55157 Y-92.73212
G01 X-100.42074 Y-92.68833
G01 X-100.34149 Y-92.67000
G01 X-100.21645 Y-92.65148
G01 X-100.10812 Y-92.64993
G01 X-100.02684 Y-92.65356
G01 X-99.87281 Y-92.67878
G01 X-99.70832 Y-92.73202
G01 X-99.61340 Y-92.77855
G01 X-99.52265 Y-92.83202
G01 X-99.41447 Y-92.91218
G01 X-99.34147 Y-92.98280
G01 X-99.27982 Y-93.05044
G01 X-99.07937 Y-93.33393
G01 X-99.02077 Y-93.39943
G01 X-98.85991 Y-93.55437
G01 X-98.85955 Y-94.48300
G01 X-98.75948 Y-94.53885
G01 X-98.62648 Y-94.60553
G01 X-98.48988 Y-94.66572
G01 X-98.37076 Y-94.71124
G01 X-98.25519 Y-94.74924
G01 X-98.06164 Y-94.79928
G01 X-97.95173 Y-94.82010
G01 X-97.81859 Y-94.83799
G01 X-97.61993 Y-94.84965
G01 X-97.51315 Y-94.84853
G01 X-97.40764 Y-94.84233
G01 X-97.26212 Y-94.82544
G01 X-97.07155 Y-94.78876
G01 X-96.96012 Y-94.75968
G01 X-96.84559 Y-94.72389
G01 X-96.68422 Y-94.66329
G01 X-96.54315 Y-94.60073
G01 X-96.31955 Y-94.48305
G01 X-96.21950 Y-94.53890
G01 X-96.08653 Y-94.60555
G01 X-95.94991 Y-94.66575
G01 X-95.83078 Y-94.71127
G01 X-95.71521 Y-94.74929
G01 X-95.52166 Y-94.79933
G01 X-95.41176 Y-94.82016
G01 X-95.27859 Y-94.83801
G01 X-95.17145 Y-94.84652
G01 X-94.97315 Y-94.84858
G01 X-94.86764 Y-94.84236
G01 X-94.74978 Y-94.82940
G01 X-94.64077 Y-94.81185
G01 X-94.50145 Y-94.78150
G01 X-94.38694 Y-94.74998
G01 X-94.23564 Y-94.69877
G01 X-94.21257 Y-94.59913
G01 X-94.17310 Y-94.47091
G01 X-94.13015 Y-94.37012
G01 X-94.03569 Y-94.17952
G01 X-94.00483 Y-94.09336
G01 X-93.97882 Y-94.00715
G01 X-93.95809 Y-93.88671
G01 X-93.95194 Y-93.83639
G01 X-93.94996 Y-93.77009
G01 X-93.95453 Y-93.63928
G01 X-93.97907 Y-93.49288
G01 X-94.03193 Y-93.32826
G01 X-94.08202 Y-93.22676
G01 X-94.12266 Y-93.15625
G01 X-94.21240 Y-93.03461
G01 X-94.27935 Y-92.96481
G01 X-94.33848 Y-92.90891
G01 X-94.44265 Y-92.83202
G01 X-94.51217 Y-92.78978
G01 X-94.62832 Y-92.73202
G01 X-94.79281 Y-92.67878
G01 X-94.92151 Y-92.65694
G01 X-95.02812 Y-92.64993
G01 X-95.13645 Y-92.65148
G01 X-95.26149 Y-92.67000
G01 X-95.34074 Y-92.68833
G01 X-95.46362 Y-92.72908
G01 X-95.53731 Y-92.76362
G01 X-95.62550 Y-92.81076
G01 X-95.66078 Y-92.83446
G01 X-95.76535 Y-92.91236
G01 X-95.82359 Y-92.96776
G01 X-95.89568 Y-93.04462
G01 X-96.08704 Y-93.31726
G01 X-96.20348 Y-93.44457
G01 X-96.31991 Y-93.55437
G01 X-96.31955 Y-94.48305
G01 X-96.31991 Y-93.55437
G01 X-96.48077 Y-93.39943
G01 X-96.53937 Y-93.33393
G01 X-96.75300 Y-93.03398
G01 X-96.87447 Y-92.91218
G01 X-97.01445 Y-92.81084
G01 X-97.16802 Y-92.73215
G01 X-97.26771 Y-92.69801
G01 X-97.37114 Y-92.67132
G01 X-97.48684 Y-92.65356
G01 X-97.56812 Y-92.64993
G01 X-97.67645 Y-92.65148
G01 X-97.80149 Y-92.67000
G01 X-97.88074 Y-92.68833
G01 X-98.01157 Y-92.73212
G01 X-98.09994 Y-92.77518
G01 X-98.17970 Y-92.81998
G01 X-98.30535 Y-92.91236
G01 X-98.42732 Y-93.03367
G01 X-98.49806 Y-93.12940
G01 X-98.62704 Y-93.31726
G01 X-98.74348 Y-93.44457
G01 X-98.85991 Y-93.55437
G01 X-98.85955 Y-94.48300
G01 X-99.00184 Y-94.56047
G01 X-99.32516 Y-94.71873
G01 X-99.47748 Y-94.79887
G01 X-99.80128 Y-94.98630
G01 X-99.96659 Y-94.91797
G01 X-100.05188 Y-94.88736
G01 X-100.18571 Y-94.85521
G01 X-100.38714 Y-94.82127
G01 X-100.55157 Y-94.76783
G01 X-100.70550 Y-94.68912
G01 X-100.84555 Y-94.58785
G01 X-100.92313 Y-94.51246
G01 X-100.98416 Y-94.44426
G01 X-101.18617 Y-94.15910
G01 X-101.25411 Y-94.08561
G01 X-101.40011 Y-93.94566
G01 X-101.39991 Y-93.55437
G01 X-101.56077 Y-93.39943
G01 X-101.61937 Y-93.33393
G01 X-101.80438 Y-93.07076
G01 X-101.83300 Y-93.03398
G01 X-101.89935 Y-92.96481
G01 X-101.95848 Y-92.90891
G01 X-102.06265 Y-92.83202
G01 X-102.13217 Y-92.78978
G01 X-102.24832 Y-92.73202
G01 X-102.41281 Y-92.67878
G01 X-102.54151 Y-92.65694
G01 X-102.64812 Y-92.64993
G01 X-102.77738 Y-92.65412
G01 X-102.88149 Y-92.67000
G01 X-102.96074 Y-92.68833
G01 X-103.09157 Y-92.73212
G01 X-103.17994 Y-92.77518
G01 X-103.25970 Y-92.81998
G01 X-103.36577 Y-92.89672
G01 X-103.42645 Y-92.95089
G01 X-103.50732 Y-93.03367
G01 X-103.57806 Y-93.12940
G01 X-103.70704 Y-93.31726
G01 X-103.82348 Y-93.44457
G01 X-103.93991 Y-93.55437
G01 X-103.94011 Y-93.94566
G01 X-104.05632 Y-94.05544
G01 X-104.17621 Y-94.18683
G01 X-104.31189 Y-94.38475
G01 X-104.37270 Y-94.46626
G01 X-104.49465 Y-94.58754
G01 X-104.63435 Y-94.68929
G01 X-104.78832 Y-94.76791
G01 X-104.88997 Y-94.80266
G01 X-104.95289 Y-94.82089
G01 X-105.12355 Y-94.84853
G01 X-105.29640 Y-94.84794
G01 X-105.46716 Y-94.82125
G01 X-105.63160 Y-94.76783
G01 X-105.73244 Y-94.71830
G01 X-105.82266 Y-94.66420
G01 X-105.92555 Y-94.58785
G01 X-106.04689 Y-94.46593
G01 X-106.26617 Y-94.15910
G01 X-106.33411 Y-94.08561
G01 X-106.48011 Y-93.94566
G01 X-106.47991 Y-93.55437
G01 X-106.64077 Y-93.39943
G01 X-106.69937 Y-93.33393
G01 X-106.89982 Y-93.05044
G01 X-106.96147 Y-92.98280
G01 X-107.03447 Y-92.91218
G01 X-107.17445 Y-92.81084
G01 X-107.32802 Y-92.73215
G01 X-107.40485 Y-92.70535
G01 X-107.49281 Y-92.67878
G01 X-107.64684 Y-92.65356
G01 X-107.72812 Y-92.64993
G01 X-107.83645 Y-92.65148
G01 X-107.96149 Y-92.67000
G01 X-108.04074 Y-92.68833
G01 X-108.16362 Y-92.72908
G01 X-108.23731 Y-92.76362
G01 X-108.32550 Y-92.81076
G01 X-108.44577 Y-92.89672
G01 X-108.50645 Y-92.95089
G01 X-108.58732 Y-93.03367
G01 X-108.65806 Y-93.12940
G01 X-108.78704 Y-93.31726
G01 X-108.90348 Y-93.44457
G01 X-109.01991 Y-93.55437
G01 X-109.02011 Y-93.94566
G01 X-109.13632 Y-94.05544
G01 X-109.25621 Y-94.18683
G01 X-109.39189 Y-94.38475
G01 X-109.45270 Y-94.46626
G01 X-109.57465 Y-94.58754
G01 X-109.71435 Y-94.68929
G01 X-109.79679 Y-94.73339
G01 X-109.89283 Y-94.77682
G01 X-109.99430 Y-94.81010
G01 X-110.08343 Y-94.83080
G01 X-110.20355 Y-94.84853
G01 X-110.31996 Y-94.84987
G01 X-110.41127 Y-94.84398
G01 X-110.54716 Y-94.82125
G01 X-110.71160 Y-94.76783
G01 X-110.83355 Y-94.70710
G01 X-110.90266 Y-94.66420
G01 X-111.00558 Y-94.58785
G01 X-111.14845 Y-94.44805
G01 X-111.25414 Y-94.35760
G01 X-111.32742 Y-94.30614
G01 X-111.52102 Y-94.19166
G01 X-111.53829 Y-94.08058
G01 X-111.55130 Y-93.95798
G01 X-111.55981 Y-93.75488
G01 X-111.55714 Y-93.63339
G01 X-111.54861 Y-93.51129
G01 X-111.52082 Y-93.30639
G01 X-111.58373 Y-93.21625
G01 X-111.68300 Y-93.02300
G01 X-111.75922 Y-92.77942
G01 X-111.80212 Y-92.72214
G01 X-111.85943 Y-92.67922
G01 X-111.93088 Y-92.65293
G01 X-111.97997 Y-92.64973
G01 X-112.89707 Y-92.64957
G01 X-112.98736 Y-92.64142
G01 X-113.05726 Y-92.62880
G01 X-113.22541 Y-92.57154
G01 X-113.29529 Y-92.53657
G01 X-113.38820 Y-92.48262
G01 X-113.68000 Y-92.60347
G01 X-113.77713 Y-92.65458
G01 X-113.85894 Y-92.72102
G01 X-113.92539 Y-92.80284
G01 X-113.98995 Y-92.93253
G01 X-113.98995 Y-94.59996
G01 X-113.97913 Y-94.71586
G01 X-113.94662 Y-94.83176
G01 X-114.00849 Y-94.98208
G01 X-114.04116 Y-95.11800
G01 X-114.04972 Y-95.22450
G01 X-114.04972 Y-98.78990
G01 X-114.03448 Y-98.93170
G01 X-113.98561 Y-99.09454
G01 X-113.95368 Y-99.16439
G01 X-113.79846 Y-99.39906
G01 X-113.73793 Y-99.46891
G01 X-113.52709 Y-99.67435
G01 X-113.25048 Y-99.87981
G01 X-113.15597 Y-99.94257
G01 X-112.86400 Y-100.12126
G01 X-112.52638 Y-100.29998
G01 X-112.89295 Y-100.49523
G01 X-113.20507 Y-100.69050
G01 X-113.30697 Y-100.76035
G01 X-113.57202 Y-100.96454
G01 X-113.77139 Y-101.16871
G01 X-113.82838 Y-101.23858
G01 X-113.96656 Y-101.46200
G01 X-113.99597 Y-101.53188
G01 X-114.03750 Y-101.68293
G01 X-114.04972 Y-101.81003
G01 X-114.04972 Y-104.02550
G01 X-114.03448 Y-104.16730
G01 X-113.98561 Y-104.33009
G01 X-113.93831 Y-104.43169
G01 X-113.97497 Y-104.64996
G01 X-113.97497 Y-106.34995
G01 X-113.93875 Y-106.56692
G01 X-113.82564 Y-106.58704
G01 X-113.75023 Y-106.59577
G01 X-113.65000 Y-106.60022
G01 X-111.94998 Y-106.60022
G01 X-111.90085 Y-106.59702
G01 X-111.82943 Y-106.57075
G01 X-111.77213 Y-106.52783
G01 X-111.72920 Y-106.47053
G01 X-111.69600 Y-106.37177
G01 X-111.67845 Y-106.29964
G01 X-111.63126 Y-106.17482
G01 X-111.59631 Y-106.10494
G01 X-111.49108 Y-105.94175
G01 X-111.52018 Y-105.72067
G01 X-111.52981 Y-105.50487
G01 X-111.52646 Y-105.37063
G01 X-111.51711 Y-105.24609
G01 X-111.49074 Y-105.05648
G01 X-111.36618 Y-104.98821
G01 X-111.19026 Y-104.86540
G01 X-111.12692 Y-104.81119
G01 X-110.97533 Y-104.66235
G01 X-110.83563 Y-104.56057
G01 X-110.68158 Y-104.48214
G01 X-110.57378 Y-104.44533
G01 X-110.47149 Y-104.41998
G01 X-110.34645 Y-104.40149
G01 X-110.23665 Y-104.39997
G01 X-110.14526 Y-104.40510
G01 X-110.00281 Y-104.42877
G01 X-109.91488 Y-104.45534
G01 X-109.83830 Y-104.48199
G01 X-109.72209 Y-104.53977
G01 X-109.65260 Y-104.58204
G01 X-109.54434 Y-104.66205
G01 X-109.46327 Y-104.74112
G01 X-109.40888 Y-104.80162
G01 X-109.20937 Y-105.08391
G01 X-109.15080 Y-105.14942
G01 X-108.99014 Y-105.30444
G01 X-108.98991 Y-105.69547
G01 X-108.83457 Y-105.84508
G01 X-108.77503 Y-105.91051
G01 X-108.55689 Y-106.21592
G01 X-108.43556 Y-106.33784
G01 X-108.33271 Y-106.41414
G01 X-108.24236 Y-106.46834
G01 X-108.14158 Y-106.51782
G01 X-108.03599 Y-106.55389
G01 X-107.95748 Y-106.57520
G01 X-107.80640 Y-106.59811
G01 X-107.63350 Y-106.59852
G01 X-107.46286 Y-106.57088
G01 X-107.39992 Y-106.55264
G01 X-107.29835 Y-106.51790
G01 X-107.20419 Y-106.47175
G01 X-107.12479 Y-106.42623
G01 X-107.00457 Y-106.33761
G01 X-106.88265 Y-106.21620
G01 X-106.82187 Y-106.13469
G01 X-106.67846 Y-105.92709
G01 X-106.56647 Y-105.80540
G01 X-106.44991 Y-105.69547
G01 X-106.45014 Y-105.30444
G01 X-106.33363 Y-105.19451
G01 X-106.20948 Y-105.05757
G01 X-106.08806 Y-104.87939
G01 X-106.01732 Y-104.78369
G01 X-105.93650 Y-104.70098
G01 X-105.87585 Y-104.64676
G01 X-105.76007 Y-104.56344
G01 X-105.68865 Y-104.52448
G01 X-105.60158 Y-104.48214
G01 X-105.47074 Y-104.43832
G01 X-105.39149 Y-104.41998
G01 X-105.26645 Y-104.40149
G01 X-105.15665 Y-104.39997
G01 X-105.06526 Y-104.40510
G01 X-104.92281 Y-104.42877
G01 X-104.83488 Y-104.45534
G01 X-104.75830 Y-104.48199
G01 X-104.64209 Y-104.53977
G01 X-104.57260 Y-104.58204
G01 X-104.46434 Y-104.66205
G01 X-104.38327 Y-104.74112
G01 X-104.32888 Y-104.80162
G01 X-104.12937 Y-105.08391
G01 X-104.07080 Y-105.14942
G01 X-103.91014 Y-105.30444
G01 X-103.90991 Y-105.69547
G01 X-103.75457 Y-105.84508
G01 X-103.69503 Y-105.91051
G01 X-103.47689 Y-106.21592
G01 X-103.35556 Y-106.33784
G01 X-103.25271 Y-106.41414
G01 X-103.16236 Y-106.46834
G01 X-103.06158 Y-106.51782
G01 X-102.95599 Y-106.55389
G01 X-102.87748 Y-106.57520
G01 X-102.72640 Y-106.59811
G01 X-102.55350 Y-106.59852
G01 X-102.38286 Y-106.57088
G01 X-102.31992 Y-106.55264
G01 X-102.21835 Y-106.51790
G01 X-102.12419 Y-106.47175
G01 X-102.04479 Y-106.42623
G01 X-101.92457 Y-106.33761
G01 X-101.80265 Y-106.21620
G01 X-101.74187 Y-106.13469
G01 X-101.59846 Y-105.92709
G01 X-101.48647 Y-105.80540
G01 X-101.36991 Y-105.69547
G01 X-101.37014 Y-105.30444
G01 X-101.25363 Y-105.19451
G01 X-101.12948 Y-105.05757
G01 X-100.99427 Y-104.85989
G01 X-100.93011 Y-104.77612
G01 X-100.85650 Y-104.70098
G01 X-100.79585 Y-104.64676
G01 X-100.68007 Y-104.56344
G01 X-100.60865 Y-104.52448
G01 X-100.52196 Y-104.48232
G01 X-100.49097 Y-104.47106
G01 X-100.18437 Y-104.37594
G01 X-100.10431 Y-104.34145
G01 X-99.92595 Y-104.24731
G01 X-99.69758 Y-104.33276
G01 X-99.21454 Y-104.49194
G01 X-99.00083 Y-104.58219
G01 X-98.82953 Y-104.66832
G01 X-98.67236 Y-104.58844
G01 X-98.53570 Y-104.52771
G01 X-98.40507 Y-104.47708
G01 X-98.26570 Y-104.43113
G01 X-98.14124 Y-104.39700
G01 X-98.02224 Y-104.37056
G01 X-97.90589 Y-104.35054
G01 X-97.75905 Y-104.33350
G01 X-97.56494 Y-104.32509
G01 X-97.40700 Y-104.33007
G01 X-97.21175 Y-104.35090
G01 X-97.06085 Y-104.37810
G01 X-96.85953 Y-104.42951
G01 X-96.67457 Y-104.49194
G01 X-96.46085 Y-104.58221
G01 X-96.28953 Y-104.66837
G01 X-96.07701 Y-104.56291
G01 X-95.86505 Y-104.47711
G01 X-95.68260 Y-104.41854
G01 X-95.48224 Y-104.37058
G01 X-95.33241 Y-104.34587
G01 X-95.21905 Y-104.33355
G01 X-95.10630 Y-104.32669
G01 X-94.90043 Y-104.32816
G01 X-94.75311 Y-104.34025
G01 X-94.63800 Y-104.35618
G01 X-94.52088 Y-104.37812
G01 X-94.40089 Y-104.40667
G01 X-94.28880 Y-104.43878
G01 X-94.17714 Y-104.53751
G01 X-94.03416 Y-104.68242
G01 X-93.92662 Y-104.80838
G01 X-93.83381 Y-104.93220
G01 X-93.89749 Y-105.17696
G01 X-93.90958 Y-105.26385
G01 X-93.92024 Y-105.38714
G01 X-93.92172 Y-105.58615
G01 X-93.94902 Y-105.75709
G01 X-94.00196 Y-105.92163
G01 X-94.04707 Y-106.01368
G01 X-94.08095 Y-106.07540
G01 X-94.17013 Y-106.20019
G01 X-94.25875 Y-106.29440
G01 X-94.33802 Y-106.36380
G01 X-94.44447 Y-106.43908
G01 X-94.59835 Y-106.51790
G01 X-94.72436 Y-106.56014
G01 X-94.83858 Y-106.58508
G01 X-94.93350 Y-106.59852
G01 X-95.10640 Y-106.59811
G01 X-95.27711 Y-106.57111
G01 X-95.44158 Y-106.51782
G01 X-95.59548 Y-106.43913
G01 X-95.71760 Y-106.35183
G01 X-95.79527 Y-106.28051
G01 X-95.85689 Y-106.21592
G01 X-96.07503 Y-105.91051
G01 X-96.13457 Y-105.84508
G01 X-96.28991 Y-105.69547
G01 X-96.28953 Y-104.66837
G01 X-96.28991 Y-105.69547
G01 X-96.40647 Y-105.80540
G01 X-96.51846 Y-105.92709
G01 X-96.66187 Y-106.13469
G01 X-96.72265 Y-106.21620
G01 X-96.84457 Y-106.33761
G01 X-96.96479 Y-106.42623
G01 X-97.04419 Y-106.47175
G01 X-97.13835 Y-106.51790
G01 X-97.30286 Y-106.57088
G01 X-97.47350 Y-106.59852
G01 X-97.64640 Y-106.59811
G01 X-97.81711 Y-106.57111
G01 X-97.98158 Y-106.51782
G01 X-98.13548 Y-106.43913
G01 X-98.25760 Y-106.35183
G01 X-98.33527 Y-106.28051
G01 X-98.39689 Y-106.21592
G01 X-98.61503 Y-105.91051
G01 X-98.67457 Y-105.84508
G01 X-98.82991 Y-105.69547
G01 X-98.82953 Y-104.66832
G01 X-98.82991 Y-105.69547
G01 X-98.94647 Y-105.80540
G01 X-99.05846 Y-105.92709
G01 X-99.20187 Y-106.13469
G01 X-99.26265 Y-106.21620
G01 X-99.38457 Y-106.33761
G01 X-99.50479 Y-106.42623
G01 X-99.58419 Y-106.47175
G01 X-99.67835 Y-106.51790
G01 X-99.84286 Y-106.57088
G01 X-100.01350 Y-106.59852
G01 X-100.18640 Y-106.59811
G01 X-100.33748 Y-106.57520
G01 X-100.41599 Y-106.55389
G01 X-100.52158 Y-106.51782
G01 X-100.62236 Y-106.46834
G01 X-100.71271 Y-106.41414
G01 X-100.81556 Y-106.33784
G01 X-100.93689 Y-106.21592
G01 X-101.15503 Y-105.91051
G01 X-101.21457 Y-105.84508
G01 X-101.36991 Y-105.69547
G01 X-101.37014 Y-105.30444
G01 X-101.53080 Y-105.14942
G01 X-101.58937 Y-105.08391
G01 X-101.78888 Y-104.80162
G01 X-101.84327 Y-104.74112
G01 X-101.92434 Y-104.66205
G01 X-102.03260 Y-104.58204
G01 X-102.10209 Y-104.53977
G01 X-102.21830 Y-104.48199
G01 X-102.31764 Y-104.44805
G01 X-102.39597 Y-104.42598
G01 X-102.55355 Y-104.40198
G01 X-102.64205 Y-104.39982
G01 X-102.74738 Y-104.40411
G01 X-102.85149 Y-104.41998
G01 X-102.93074 Y-104.43832
G01 X-103.06158 Y-104.48214
G01 X-103.14865 Y-104.52448
G01 X-103.22007 Y-104.56344
G01 X-103.33585 Y-104.64676
G01 X-103.39650 Y-104.70098
G01 X-103.47732 Y-104.78369
G01 X-103.54806 Y-104.87939
G01 X-103.66948 Y-105.05757
G01 X-103.79363 Y-105.19451
G01 X-103.91014 Y-105.30444
G01 X-103.90991 Y-105.69547
G01 X-104.02647 Y-105.80540
G01 X-104.13846 Y-105.92709
G01 X-104.28187 Y-106.13469
G01 X-104.34265 Y-106.21620
G01 X-104.46457 Y-106.33761
G01 X-104.58479 Y-106.42623
G01 X-104.66419 Y-106.47175
G01 X-104.75835 Y-106.51790
G01 X-104.85992 Y-106.55264
G01 X-104.92286 Y-106.57088
G01 X-105.09350 Y-106.59852
G01 X-105.26640 Y-106.59811
G01 X-105.41748 Y-106.57520
G01 X-105.49599 Y-106.55389
G01 X-105.60158 Y-106.51782
G01 X-105.70236 Y-106.46834
G01 X-105.79271 Y-106.41414
G01 X-105.89556 Y-106.33784
G01 X-106.01689 Y-106.21592
G01 X-106.23503 Y-105.91051
G01 X-106.29457 Y-105.84508
G01 X-106.44991 Y-105.69547
G01 X-106.45014 Y-105.30444
G01 X-106.61080 Y-105.14942
G01 X-106.66937 Y-105.08391
G01 X-106.86888 Y-104.80162
G01 X-106.92327 Y-104.74112
G01 X-107.00434 Y-104.66205
G01 X-107.11260 Y-104.58204
G01 X-107.18209 Y-104.53977
G01 X-107.29830 Y-104.48199
G01 X-107.37488 Y-104.45534
G01 X-107.46281 Y-104.42877
G01 X-107.60526 Y-104.40510
G01 X-107.69665 Y-104.39997
G01 X-107.80645 Y-104.40149
G01 X-107.93149 Y-104.41998
G01 X-108.01074 Y-104.43832
G01 X-108.14158 Y-104.48214
G01 X-108.22865 Y-104.52448
G01 X-108.30007 Y-104.56344
G01 X-108.41585 Y-104.64676
G01 X-108.47650 Y-104.70098
G01 X-108.55732 Y-104.78369
G01 X-108.62806 Y-104.87939
G01 X-108.74948 Y-105.05757
G01 X-108.87363 Y-105.19451
G01 X-108.99014 Y-105.30444
G01 X-108.98991 Y-105.69547
G01 X-109.10647 Y-105.80540
G01 X-109.21846 Y-105.92709
G01 X-109.36187 Y-106.13469
G01 X-109.42265 Y-106.21620
G01 X-109.54457 Y-106.33761
G01 X-109.68447 Y-106.43908
G01 X-109.76680 Y-106.48338
G01 X-109.86276 Y-106.52679
G01 X-109.96436 Y-106.56014
G01 X-110.05349 Y-106.58081
G01 X-110.17350 Y-106.59852
G01 X-110.28844 Y-106.59994
G01 X-110.36964 Y-106.59554
G01 X-110.51711 Y-106.57111
G01 X-110.68158 Y-106.51782
G01 X-110.80360 Y-106.45706
G01 X-110.87271 Y-106.41414
G01 X-110.97556 Y-106.33784
G01 X-111.11846 Y-106.19803
G01 X-111.22420 Y-106.10756
G01 X-111.29748 Y-106.05607
G01 X-111.49108 Y-105.94175
G01 X-111.52018 Y-105.72067
G01 X-111.52981 Y-105.50487
G01 X-111.52646 Y-105.37063
G01 X-111.51711 Y-105.24609
G01 X-111.49074 Y-105.05648
G01 X-111.55374 Y-104.96626
G01 X-111.65305 Y-104.77287
G01 X-111.72920 Y-104.52943
G01 X-111.77213 Y-104.47210
G01 X-111.82943 Y-104.42920
G01 X-111.90083 Y-104.40294
G01 X-111.94998 Y-104.39974
G01 X-113.65000 Y-104.39974
G01 X-113.78594 Y-104.40878
G01 X-113.93831 Y-104.43169
G01 X-113.97497 Y-104.64996
G01 X-113.97497 Y-106.34995
G01 X-113.93875 Y-106.56692
G01 X-113.98249 Y-106.66230
G01 X-114.00852 Y-106.73215
G01 X-114.04116 Y-106.86796
G01 X-114.04972 Y-106.97449
G01 X-114.04972 Y-110.77550
G01 X-114.03448 Y-110.91730
G01 X-113.98561 Y-111.08012
G01 X-113.94350 Y-111.17141
G01 X-113.97459 Y-111.28568
G01 X-113.98495 Y-111.39998
G01 X-113.98495 Y-113.09998
G01 X-113.94408 Y-113.32690
G01 X-113.82368 Y-113.34369
G01 X-113.74916 Y-113.34938
G01 X-111.96999 Y-113.35022
G01 X-111.92084 Y-113.34702
G01 X-111.84944 Y-113.32073
G01 X-111.79212 Y-113.27783
G01 X-111.74922 Y-113.22053
G01 X-111.71602 Y-113.12185
G01 X-111.69849 Y-113.04976
G01 X-111.65127 Y-112.92482
G01 X-111.61632 Y-112.85494
G01 X-111.51101 Y-112.69165
G01 X-111.52829 Y-112.58057
G01 X-111.54129 Y-112.45809
G01 X-111.54983 Y-112.25487
G01 X-111.54713 Y-112.13325
G01 X-111.53862 Y-112.01141
G01 X-111.51081 Y-111.80641
G01 X-111.40108 Y-111.74715
G01 X-111.32120 Y-111.69566
G01 X-111.22178 Y-111.62406
G01 X-111.14678 Y-111.56117
G01 X-110.99534 Y-111.41238
G01 X-110.85564 Y-111.31057
G01 X-110.70157 Y-111.23214
G01 X-110.59377 Y-111.19536
G01 X-110.49148 Y-111.16998
G01 X-110.36646 Y-111.15149
G01 X-110.25664 Y-111.14999
G01 X-110.16525 Y-111.15510
G01 X-110.02280 Y-111.17880
G01 X-109.93492 Y-111.20534
G01 X-109.85808 Y-111.23211
G01 X-109.70444 Y-111.31083
G01 X-109.56446 Y-111.41217
G01 X-109.49141 Y-111.48281
G01 X-109.42979 Y-111.55048
G01 X-109.22936 Y-111.83394
G01 X-109.17073 Y-111.89947
G01 X-109.00990 Y-112.05436
G01 X-109.01010 Y-112.44567
G01 X-108.86418 Y-112.58558
G01 X-108.79621 Y-112.65906
G01 X-108.57706 Y-112.96604
G01 X-108.45557 Y-113.08784
G01 X-108.35275 Y-113.16414
G01 X-108.26238 Y-113.21834
G01 X-108.16157 Y-113.26785
G01 X-107.99718 Y-113.32126
G01 X-107.82639 Y-113.34793
G01 X-107.65352 Y-113.34852
G01 X-107.53500 Y-113.33109
G01 X-107.43104 Y-113.30607
G01 X-107.31834 Y-113.26790
G01 X-107.22410 Y-113.22172
G01 X-107.14470 Y-113.17618
G01 X-107.02456 Y-113.08761
G01 X-106.90267 Y-112.96622
G01 X-106.82812 Y-112.86518
G01 X-106.70620 Y-112.68685
G01 X-106.58631 Y-112.55545
G01 X-106.47010 Y-112.44567
G01 X-106.46990 Y-112.05436
G01 X-106.35354 Y-111.94461
G01 X-106.23703 Y-111.81725
G01 X-106.10099 Y-111.61941
G01 X-106.03731 Y-111.53369
G01 X-105.95649 Y-111.45093
G01 X-105.89581 Y-111.39673
G01 X-105.78004 Y-111.31342
G01 X-105.70861 Y-111.27445
G01 X-105.62157 Y-111.23214
G01 X-105.49073 Y-111.18832
G01 X-105.41148 Y-111.16998
G01 X-105.28644 Y-111.15149
G01 X-105.17664 Y-111.14999
G01 X-105.08525 Y-111.15510
G01 X-104.94280 Y-111.17880
G01 X-104.85492 Y-111.20534
G01 X-104.77808 Y-111.23211
G01 X-104.62444 Y-111.31083
G01 X-104.48446 Y-111.41217
G01 X-104.41141 Y-111.48281
G01 X-104.34979 Y-111.55048
G01 X-104.14936 Y-111.83394
G01 X-104.09073 Y-111.89947
G01 X-103.92990 Y-112.05436
G01 X-103.93010 Y-112.44567
G01 X-103.78418 Y-112.58558
G01 X-103.71621 Y-112.65906
G01 X-103.49706 Y-112.96604
G01 X-103.37557 Y-113.08784
G01 X-103.27275 Y-113.16414
G01 X-103.18238 Y-113.21834
G01 X-103.08157 Y-113.26785
G01 X-102.91718 Y-113.32126
G01 X-102.74639 Y-113.34793
G01 X-102.57352 Y-113.34852
G01 X-102.45500 Y-113.33109
G01 X-102.35104 Y-113.30607
G01 X-102.23834 Y-113.26790
G01 X-102.14410 Y-113.22172
G01 X-102.06470 Y-113.17618
G01 X-101.94456 Y-113.08761
G01 X-101.82267 Y-112.96622
G01 X-101.74812 Y-112.86518
G01 X-101.62620 Y-112.68685
G01 X-101.50631 Y-112.55545
G01 X-101.39010 Y-112.44567
G01 X-101.38990 Y-112.05436
G01 X-101.27354 Y-111.94461
G01 X-101.15703 Y-111.81725
G01 X-101.02099 Y-111.61941
G01 X-100.95731 Y-111.53369
G01 X-100.83534 Y-111.41235
G01 X-100.69564 Y-111.31057
G01 X-100.54157 Y-111.23214
G01 X-100.41073 Y-111.18832
G01 X-100.33148 Y-111.16998
G01 X-100.20644 Y-111.15149
G01 X-100.09664 Y-111.14999
G01 X-100.00525 Y-111.15510
G01 X-99.86280 Y-111.17880
G01 X-99.69808 Y-111.23211
G01 X-99.60332 Y-111.27859
G01 X-99.51266 Y-111.33201
G01 X-99.40446 Y-111.41217
G01 X-99.33141 Y-111.48281
G01 X-99.26979 Y-111.55048
G01 X-99.06936 Y-111.83394
G01 X-99.01073 Y-111.89947
G01 X-98.84990 Y-112.05436
G01 X-98.85010 Y-112.44567
G01 X-98.70418 Y-112.58558
G01 X-98.63621 Y-112.65906
G01 X-98.41706 Y-112.96604
G01 X-98.29557 Y-113.08784
G01 X-98.19275 Y-113.16414
G01 X-98.10238 Y-113.21834
G01 X-98.00157 Y-113.26785
G01 X-97.83718 Y-113.32126
G01 X-97.66639 Y-113.34793
G01 X-97.49352 Y-113.34852
G01 X-97.39857 Y-113.33508
G01 X-97.32283 Y-113.32103
G01 X-97.18417 Y-113.27727
G01 X-97.08686 Y-113.23343
G01 X-97.00446 Y-113.18911
G01 X-96.87891 Y-113.09916
G01 X-96.81877 Y-113.04440
G01 X-96.73025 Y-112.95012
G01 X-96.54620 Y-112.68685
G01 X-96.42631 Y-112.55545
G01 X-96.31010 Y-112.44567
G01 X-96.30990 Y-112.05436
G01 X-96.19354 Y-111.94461
G01 X-96.07703 Y-111.81725
G01 X-95.94099 Y-111.61941
G01 X-95.87731 Y-111.53369
G01 X-95.79649 Y-111.45093
G01 X-95.73581 Y-111.39673
G01 X-95.62004 Y-111.31342
G01 X-95.46157 Y-111.23214
G01 X-95.33073 Y-111.18832
G01 X-95.25148 Y-111.16998
G01 X-95.12644 Y-111.15149
G01 X-95.04204 Y-111.14984
G01 X-94.95357 Y-111.15197
G01 X-94.79604 Y-111.17598
G01 X-94.61808 Y-111.23211
G01 X-94.50221 Y-111.28974
G01 X-94.43266 Y-111.33201
G01 X-94.32446 Y-111.41217
G01 X-94.26939 Y-111.46475
G01 X-94.20239 Y-111.53463
G01 X-94.11273 Y-111.65619
G01 X-94.07209 Y-111.72665
G01 X-94.02532 Y-111.82111
G01 X-93.96906 Y-111.99287
G01 X-93.94453 Y-112.13932
G01 X-93.93995 Y-112.27008
G01 X-93.94194 Y-112.33638
G01 X-93.94808 Y-112.38669
G01 X-93.96881 Y-112.50712
G01 X-94.02220 Y-112.67156
G01 X-94.10081 Y-112.82550
G01 X-94.20206 Y-112.96561
G01 X-94.32456 Y-113.08761
G01 X-94.42380 Y-113.16175
G01 X-94.46446 Y-113.18911
G01 X-94.52410 Y-113.22172
G01 X-94.64417 Y-113.27727
G01 X-94.78283 Y-113.32103
G01 X-94.95352 Y-113.34852
G01 X-95.12639 Y-113.34793
G01 X-95.26680 Y-113.32718
G01 X-95.36848 Y-113.29995
G01 X-95.46157 Y-113.26785
G01 X-95.61549 Y-113.18913
G01 X-95.75557 Y-113.08784
G01 X-95.87706 Y-112.96604
G01 X-96.09621 Y-112.65906
G01 X-96.16418 Y-112.58558
G01 X-96.31010 Y-112.44567
G01 X-96.30990 Y-112.05436
G01 X-96.47073 Y-111.89947
G01 X-96.52936 Y-111.83394
G01 X-96.72979 Y-111.55048
G01 X-96.79141 Y-111.48281
G01 X-96.86446 Y-111.41217
G01 X-96.97266 Y-111.33201
G01 X-97.06332 Y-111.27859
G01 X-97.15808 Y-111.23211
G01 X-97.32280 Y-111.17880
G01 X-97.46525 Y-111.15510
G01 X-97.58204 Y-111.14984
G01 X-97.66644 Y-111.15149
G01 X-97.83713 Y-111.17895
G01 X-97.99357 Y-111.22906
G01 X-98.08861 Y-111.27445
G01 X-98.16004 Y-111.31342
G01 X-98.29534 Y-111.41235
G01 X-98.41731 Y-111.53369
G01 X-98.48099 Y-111.61941
G01 X-98.61703 Y-111.81725
G01 X-98.73354 Y-111.94461
G01 X-98.84990 Y-112.05436
G01 X-98.85010 Y-112.44567
G01 X-98.96631 Y-112.55545
G01 X-99.08620 Y-112.68685
G01 X-99.20812 Y-112.86518
G01 X-99.28267 Y-112.96622
G01 X-99.40456 Y-113.08761
G01 X-99.52470 Y-113.17618
G01 X-99.60410 Y-113.22172
G01 X-99.69834 Y-113.26790
G01 X-99.81104 Y-113.30607
G01 X-99.91500 Y-113.33109
G01 X-100.03352 Y-113.34852
G01 X-100.20639 Y-113.34793
G01 X-100.37718 Y-113.32126
G01 X-100.54157 Y-113.26785
G01 X-100.64238 Y-113.21834
G01 X-100.73275 Y-113.16414
G01 X-100.83557 Y-113.08784
G01 X-100.95706 Y-112.96604
G01 X-101.17621 Y-112.65906
G01 X-101.24418 Y-112.58558
G01 X-101.39010 Y-112.44567
G01 X-101.38990 Y-112.05436
G01 X-101.55073 Y-111.89947
G01 X-101.60936 Y-111.83394
G01 X-101.80979 Y-111.55048
G01 X-101.87141 Y-111.48281
G01 X-101.94446 Y-111.41217
G01 X-102.05266 Y-111.33201
G01 X-102.12221 Y-111.28974
G01 X-102.23808 Y-111.23211
G01 X-102.33773 Y-111.19803
G01 X-102.41604 Y-111.17598
G01 X-102.57357 Y-111.15197
G01 X-102.66204 Y-111.14984
G01 X-102.76737 Y-111.15411
G01 X-102.87148 Y-111.16998
G01 X-102.95073 Y-111.18832
G01 X-103.08157 Y-111.23214
G01 X-103.16861 Y-111.27445
G01 X-103.24004 Y-111.31342
G01 X-103.35581 Y-111.39673
G01 X-103.41649 Y-111.45093
G01 X-103.49731 Y-111.53369
G01 X-103.56099 Y-111.61941
G01 X-103.69703 Y-111.81725
G01 X-103.81354 Y-111.94461
G01 X-103.92990 Y-112.05436
G01 X-103.93010 Y-112.44567
G01 X-104.04631 Y-112.55545
G01 X-104.16620 Y-112.68685
G01 X-104.28812 Y-112.86518
G01 X-104.36267 Y-112.96622
G01 X-104.48456 Y-113.08761
G01 X-104.60470 Y-113.17618
G01 X-104.68410 Y-113.22172
G01 X-104.77834 Y-113.26790
G01 X-104.89104 Y-113.30607
G01 X-104.99500 Y-113.33109
G01 X-105.11352 Y-113.34852
G01 X-105.28639 Y-113.34793
G01 X-105.45718 Y-113.32126
G01 X-105.62157 Y-113.26785
G01 X-105.72238 Y-113.21834
G01 X-105.81275 Y-113.16414
G01 X-105.91557 Y-113.08784
G01 X-106.03706 Y-112.96604
G01 X-106.25621 Y-112.65906
G01 X-106.32418 Y-112.58558
G01 X-106.47010 Y-112.44567
G01 X-106.46990 Y-112.05436
G01 X-106.63073 Y-111.89947
G01 X-106.68936 Y-111.83394
G01 X-106.88979 Y-111.55048
G01 X-106.95141 Y-111.48281
G01 X-107.02446 Y-111.41217
G01 X-107.16444 Y-111.31083
G01 X-107.31808 Y-111.23211
G01 X-107.39492 Y-111.20534
G01 X-107.48280 Y-111.17880
G01 X-107.62525 Y-111.15510
G01 X-107.71664 Y-111.14999
G01 X-107.82644 Y-111.15149
G01 X-107.95148 Y-111.16998
G01 X-108.03073 Y-111.18832
G01 X-108.16157 Y-111.23214
G01 X-108.24861 Y-111.27445
G01 X-108.32004 Y-111.31342
G01 X-108.43581 Y-111.39673
G01 X-108.49649 Y-111.45093
G01 X-108.57731 Y-111.53369
G01 X-108.64099 Y-111.61941
G01 X-108.77703 Y-111.81725
G01 X-108.89354 Y-111.94461
G01 X-109.00990 Y-112.05436
G01 X-109.01010 Y-112.44567
G01 X-109.12631 Y-112.55545
G01 X-109.24620 Y-112.68685
G01 X-109.36812 Y-112.86518
G01 X-109.44267 Y-112.96622
G01 X-109.56456 Y-113.08761
G01 X-109.70446 Y-113.18911
G01 X-109.78686 Y-113.23343
G01 X-109.88417 Y-113.27727
G01 X-109.99557 Y-113.31351
G01 X-110.07500 Y-113.33109
G01 X-110.19352 Y-113.34852
G01 X-110.30995 Y-113.34989
G01 X-110.40126 Y-113.34397
G01 X-110.53718 Y-113.32126
G01 X-110.70157 Y-113.26785
G01 X-110.82364 Y-113.20704
G01 X-110.89275 Y-113.16414
G01 X-110.99557 Y-113.08784
G01 X-111.12968 Y-112.95593
G01 X-111.23421 Y-112.86546
G01 X-111.31564 Y-112.80722
G01 X-111.51101 Y-112.69165
G01 X-111.52829 Y-112.58057
G01 X-111.54129 Y-112.45809
G01 X-111.54983 Y-112.25487
G01 X-111.54713 Y-112.13325
G01 X-111.53862 Y-112.01141
G01 X-111.51081 Y-111.80641
G01 X-111.57373 Y-111.71626
G01 X-111.67302 Y-111.52294
G01 X-111.74922 Y-111.27943
G01 X-111.79212 Y-111.22213
G01 X-111.84942 Y-111.17920
G01 X-111.92084 Y-111.15294
G01 X-111.96999 Y-111.14971
G01 X-113.73014 Y-111.15035
G01 X-113.94350 Y-111.17141
G01 X-113.97459 Y-111.28568
G01 X-113.98495 Y-111.39998
G01 X-113.98495 Y-113.09998
G01 X-113.94408 Y-113.32690
G01 X-113.98249 Y-113.41230
G01 X-114.00852 Y-113.48215
G01 X-114.04116 Y-113.61796
G01 X-114.04972 Y-113.72449
G01 X-114.04972 Y-118.73715
G01 X-114.04454 Y-118.80911
G01 X-114.03351 Y-118.88546
G01 X-113.97631 Y-118.96250
G01 X-113.94009 Y-119.00177
G01 X-107.86947 Y-125.07239
G01 X-107.80292 Y-125.14783
G01 X-107.73698 Y-125.24852
G01 X-107.69393 Y-125.34859
G01 X-107.68057 Y-125.38469
G01 X-107.65214 Y-125.52926
G01 X-107.64973 Y-128.63716
G01 X-107.64455 Y-128.70912
G01 X-107.63353 Y-128.78544
G01 X-107.57633 Y-128.86251
G01 X-107.54011 Y-128.90177
G01 X-105.80175 Y-130.64010
G01 X-105.74727 Y-130.68729
G01 X-105.68545 Y-130.73352
G01 X-105.56381 Y-130.74901
G01 X-102.07512 Y-130.75008
G01 X-102.02483 Y-130.75229
G01 X-101.89869 Y-130.77726
G01 X-101.76051 Y-130.83141
G01 X-101.64784 Y-130.90291
G01 X-101.57232 Y-130.96956
G01 X-98.21861 Y-134.32582
G01 X-98.13705 Y-134.44858
G01 X-98.08592 Y-134.56991
G01 X-98.05859 Y-134.68751
G01 X-98.05041 Y-134.76757
G01 X-98.04973 Y-138.63714
G01 X-98.04454 Y-138.70907
G01 X-98.03352 Y-138.78545
G01 X-97.97622 Y-138.86264
G01 X-97.94010 Y-138.90175
G01 X-97.30177 Y-139.54011
G01 X-97.24721 Y-139.58733
G01 X-97.18544 Y-139.63353
G01 X-97.09057 Y-139.64757
G01 X-97.03713 Y-139.64973
G01 X-55.96281 Y-139.64973
G01 X-55.89083 Y-139.64455
G01 X-55.81448 Y-139.63353
G01 X-55.73744 Y-139.57633
G01 X-55.69817 Y-139.54011
G01 X-53.75985 Y-137.60176
G01 X-53.71260 Y-137.54722
G01 X-53.66643 Y-137.48542
G01 X-53.65238 Y-137.39058
G01 X-53.65022 Y-137.33714
G01 X-53.65022 Y-129.60294
G01 X-53.64715 Y-129.52933
G01 X-53.63943 Y-129.47769
G01 X-53.61319 Y-129.36748
G01 X-53.56323 Y-129.24841
G01 X-53.49851 Y-129.14983
G01 X-53.45319 Y-129.09593
G01 X-52.24715 Y-127.88913
G01 X-52.19991 Y-127.83457
G01 X-52.15761 Y-127.77805
G01 X-52.07710 Y-127.62845
G01 X-52.05025 Y-127.55646
G01 X-52.01172 Y-127.41735
G01 X-51.43364 Y-127.17950
G01 X-51.33410 Y-127.14747
G01 X-51.24568 Y-127.12586
G01 X-51.10021 Y-127.10447
G01 X-51.00707 Y-127.10003
G01 X-48.39580 Y-127.10003
G01 X-48.29420 Y-127.10533
G01 X-48.19555 Y-127.11857
G01 X-48.04292 Y-127.15519
G01 X-47.80629 Y-127.24117
G01 X-47.62686 Y-127.29103
G01 X-47.57401 Y-127.41260
G01 X-47.50101 Y-127.53177
G01 X-47.43172 Y-127.61316
G01 X-46.20472 Y-128.84010
G01 X-46.15013 Y-128.88737
G01 X-46.08841 Y-128.93352
G01 X-45.99352 Y-128.94757
G01 X-27.05396 Y-128.94970
G01 X-26.98200 Y-128.94455
G01 X-26.90565 Y-128.93352
G01 X-26.82861 Y-128.87632
G01 X-26.21573 Y-128.26649
G01 X-26.12142 Y-128.15054
G01 X-26.10991 Y-128.07300
G01 X-26.10610 Y-128.00188
G01 X-26.10837 Y-127.79314
G01 X-26.11101 Y-127.76515
G01 X-26.13486 Y-127.66424
G01 X-26.14807 Y-127.58727
G01 X-26.15022 Y-127.51176
G01 X-26.15022 Y-122.87288
G01 X-26.15541 Y-122.80092
G01 X-26.16900 Y-122.70938
G01 X-26.23791 Y-122.62922
G01 X-26.35005 Y-122.51408
G01 X-26.41273 Y-122.43265
G01 X-26.48985 Y-122.31314
G01 X-26.55627 Y-122.17893
G01 X-26.61649 Y-121.99511
G01 X-26.64809 Y-121.79821
G01 X-26.64898 Y-121.62495
G01 X-26.64085 Y-121.53382
G01 X-26.63699 Y-121.39237
G01 X-26.64441 Y-121.29506
G01 X-26.66546 Y-121.16582
G01 X-25.93458 Y-120.43468
G01 X-25.94946 Y-120.34617
G01 X-25.96209 Y-120.23512
G01 X-25.96066 Y-120.09780
G01 X-25.95165 Y-119.99821
G01 X-25.95175 Y-119.80575
G01 X-25.98317 Y-119.60786
G01 X-26.04403 Y-119.42115
G01 X-26.08243 Y-119.33987
G01 X-26.13341 Y-119.24637
G01 X-26.19320 Y-119.15907
G01 X-26.24997 Y-119.08592
G01 X-26.36206 Y-118.97070
G01 X-26.43082 Y-118.89113
G01 X-26.44453 Y-118.79903
G01 X-26.44969 Y-118.72709
G01 X-26.44898 Y-118.24614
G01 X-26.42968 Y-118.10934
G01 X-26.34812 Y-118.01569
G01 X-26.24804 Y-117.91297
G01 X-26.21426 Y-117.86954
G01 X-26.13267 Y-117.75402
G01 X-26.04349 Y-117.57901
G01 X-25.98276 Y-117.39220
G01 X-25.96178 Y-117.27350
G01 X-25.95124 Y-117.18529
G01 X-25.95195 Y-117.00175
G01 X-25.96691 Y-116.89370
G01 X-25.98345 Y-116.80792
G01 X-26.01271 Y-116.70883
G01 X-26.04400 Y-116.62115
G01 X-26.07451 Y-116.55572
G01 X-26.13689 Y-116.43929
G01 X-26.23361 Y-116.30528
G01 X-26.25477 Y-116.27960
G01 X-26.38723 Y-116.14836
G01 X-26.51299 Y-116.05481
G01 X-26.62736 Y-115.98880
G01 X-26.72119 Y-115.94412
G01 X-26.90773 Y-115.88267
G01 X-27.10176 Y-115.85219
G01 X-27.29818 Y-115.85252
G01 X-27.37232 Y-115.86169
G01 X-27.49228 Y-115.88239
G01 X-27.67887 Y-115.94379
G01 X-27.85398 Y-116.03271
G01 X-28.01293 Y-116.14813
G01 X-28.15154 Y-116.28725
G01 X-28.26752 Y-116.44579
G01 X-28.35619 Y-116.62105
G01 X-28.39663 Y-116.73792
G01 X-28.42472 Y-116.84610
G01 X-28.44829 Y-117.00172
G01 X-28.44793 Y-117.19819
G01 X-28.42159 Y-117.37012
G01 X-28.38202 Y-117.50675
G01 X-28.35583 Y-117.57876
G01 X-28.31230 Y-117.67028
G01 X-28.26658 Y-117.75359
G01 X-28.22020 Y-117.82232
G01 X-28.14994 Y-117.91396
G01 X-28.03790 Y-118.02925
G01 X-27.96899 Y-118.10939
G01 X-27.95540 Y-118.20088
G01 X-27.95022 Y-118.27286
G01 X-27.95096 Y-118.75402
G01 X-27.97029 Y-118.89069
G01 X-28.05182 Y-118.98422
G01 X-28.15190 Y-119.08696
G01 X-28.25962 Y-119.23395
G01 X-28.29957 Y-119.30477
G01 X-28.35665 Y-119.42084
G01 X-28.41176 Y-119.58772
G01 X-28.43201 Y-119.68744
G01 X-28.44656 Y-119.78813
G01 X-28.45012 Y-119.88980
G01 X-28.44829 Y-119.99821
G01 X-28.41756 Y-120.19229
G01 X-28.35677 Y-120.37916
G01 X-28.26764 Y-120.55424
G01 X-28.15213 Y-120.71320
G01 X-28.01314 Y-120.85206
G01 X-27.85413 Y-120.96745
G01 X-27.67913 Y-121.05676
G01 X-27.49226 Y-121.11739
G01 X-27.29823 Y-121.14822
G01 X-27.09843 Y-121.14771
G01 X-26.95195 Y-121.13699
G01 X-26.86262 Y-121.13941
G01 X-26.79917 Y-121.14339
G01 X-26.66546 Y-121.16582
G01 X-25.93458 Y-120.43468
G01 X-25.82632 Y-120.45371
G01 X-25.73725 Y-120.46029
G01 X-25.62003 Y-120.46288
G01 X-25.50153 Y-120.45180
G01 X-25.38088 Y-120.44992
G01 X-25.30179 Y-120.45229
G01 X-25.25411 Y-120.45790
G01 X-25.10773 Y-120.48266
G01 X-24.99435 Y-120.51741
G01 X-24.92097 Y-120.54357
G01 X-24.87621 Y-120.56435
G01 X-24.74591 Y-120.63268
G01 X-24.58683 Y-120.74792
G01 X-24.44830 Y-120.88716
G01 X-24.34512 Y-121.02465
G01 X-24.24114 Y-121.14400
G01 X-24.16750 Y-121.21164
G01 X-24.08200 Y-121.27946
G01 X-24.11756 Y-122.21695
G01 X-24.02551 Y-122.29292
G01 X-23.95663 Y-122.35696
G01 X-23.90794 Y-122.40948
G01 X-23.85760 Y-122.47001
G01 X-23.74995 Y-122.61398
G01 X-23.63791 Y-122.72922
G01 X-23.56900 Y-122.80938
G01 X-23.55541 Y-122.90092
G01 X-23.55023 Y-122.97286
G01 X-23.55023 Y-127.14303
G01 X-23.55236 Y-127.19621
G01 X-23.56641 Y-127.29134
G01 X-23.61266 Y-127.35316
G01 X-23.65983 Y-127.40764
G01 X-23.96684 Y-127.71465
G01 X-24.07223 Y-127.80048
G01 X-24.21571 Y-127.87968
G01 X-24.28691 Y-127.90731
G01 X-24.43857 Y-127.94993
G04 P0 ( dwell for no time -- G64 should not smooth over this point )
G00 Z2.00000 ( retract )

G00 X-21.88259 Y-127.09114 ( rapid move to begin. )
G01 F100.00000
( Mill infeed pass 1/1 )
G01 Z-0.10000
G04 P0 ( dwell for no time -- G64 should not smooth over this point )
G01 F600.00000
G01 X-21.88259 Y-127.09114
G01 X-21.77863 Y-127.06355
G01 X-21.70449 Y-127.03886
G01 X-21.53718 Y-126.95481
G01 X-21.47284 Y-126.90841
G01 X-21.41084 Y-126.85570
G01 X-18.15984 Y-123.60471
G01 X-18.11260 Y-123.55017
G01 X-18.06642 Y-123.48837
G01 X-18.05237 Y-123.39353
G01 X-18.05022 Y-123.34009
G01 X-18.05022 Y-116.26284
G01 X-18.05540 Y-116.19088
G01 X-18.06640 Y-116.11450
G01 X-18.12372 Y-116.03731
G01 X-18.15984 Y-115.99819
G01 X-25.79818 Y-108.35983
G01 X-25.89419 Y-108.28028
G01 X-25.91411 Y-108.26554
G01 X-25.99186 Y-108.25401
G01 X-26.06280 Y-108.25023
G01 X-26.22711 Y-108.25023
G01 X-26.29907 Y-108.25541
G01 X-26.39081 Y-108.26905
G01 X-26.47024 Y-108.33837
G01 X-26.58604 Y-108.45137
G01 X-26.73183 Y-108.55810
G01 X-26.82957 Y-108.61236
G01 X-26.92111 Y-108.65599
G01 X-27.10773 Y-108.71723
G01 X-27.30176 Y-108.74799
G01 X-27.42035 Y-108.75000
G01 X-27.53198 Y-108.74390
G01 X-27.69223 Y-108.71726
G01 X-27.81766 Y-108.67850
G01 X-27.91217 Y-108.64118
G01 X-28.05421 Y-108.56760
G01 X-28.21270 Y-108.45155
G01 X-28.26993 Y-108.39778
G01 X-28.35192 Y-108.31302
G01 X-28.44509 Y-108.18708
G01 X-28.46731 Y-108.15404
G01 X-28.52040 Y-108.05442
G01 X-28.55599 Y-107.97883
G01 X-28.58926 Y-107.88503
G01 X-28.61689 Y-107.79211
G01 X-28.66150 Y-107.51144
G01 X-28.67956 Y-107.43072
G01 X-28.71783 Y-107.30426
G01 X-28.78700 Y-107.13961
G01 X-28.68423 Y-106.97263
G01 X-28.58507 Y-106.83316
G01 X-28.45304 Y-106.67225
G01 X-28.32241 Y-106.53575
G01 X-28.19091 Y-106.48620
G01 X-28.06899 Y-106.44746
G01 X-27.89642 Y-106.40362
G01 X-27.70478 Y-106.37022
G01 X-27.54004 Y-106.35430
G01 X-27.43557 Y-106.35028
G01 X-27.27161 Y-106.35361
G01 X-27.17781 Y-106.36077
G01 X-27.04250 Y-106.37787
G01 X-26.90841 Y-106.40266
G01 X-26.77179 Y-106.43586
G01 X-26.64123 Y-106.47530
G01 X-26.49523 Y-106.52811
G01 X-26.32866 Y-106.60014
G01 X-26.07291 Y-106.60035
G01 X-25.52853 Y-106.82768
G01 X-25.45327 Y-106.86621
G01 X-25.37133 Y-106.91528
G01 X-25.28487 Y-106.97690
G01 X-25.20921 Y-107.04104
G01 X-16.87569 Y-115.37274
G01 X-16.81318 Y-115.44041
G01 X-16.72375 Y-115.55834
G01 X-16.70811 Y-115.65791
G01 X-16.69995 Y-115.79705
G01 X-16.69995 Y-123.80587
G01 X-16.70811 Y-123.94496
G01 X-16.72413 Y-124.04438
G01 X-16.80460 Y-124.15228
G01 X-16.87569 Y-124.23010
G01 X-25.16981 Y-132.52422
G01 X-25.24847 Y-132.59598
G01 X-25.35548 Y-132.67591
G01 X-25.46602 Y-132.69308
G01 X-25.59409 Y-132.69996
G01 X-47.42011 Y-132.69976
G01 X-47.51269 Y-132.69453
G01 X-47.62138 Y-132.67931
G01 X-47.74642 Y-132.64975
G01 X-47.85592 Y-132.61310
G01 X-48.35750 Y-132.40565
G01 X-48.47794 Y-132.28140
G01 X-48.57530 Y-132.19196
G01 X-48.72874 Y-132.06692
G01 X-48.86031 Y-131.97340
G01 X-50.61893 Y-132.26468
G01 X-50.69056 Y-132.47802
G01 X-50.74022 Y-132.66720
G01 X-50.78137 Y-132.88536
G01 X-50.80517 Y-133.10027
G01 X-50.81230 Y-133.31243
G01 X-50.80316 Y-133.52620
G01 X-50.77743 Y-133.74025
G01 X-50.74791 Y-133.89747
G01 X-50.83661 Y-134.03986
G01 X-50.87159 Y-134.10974
G01 X-50.93046 Y-134.28751
G01 X-50.94314 Y-134.36580
G01 X-50.94972 Y-134.44687
G01 X-50.94972 Y-138.29998
G01 X-50.95233 Y-138.37361
G01 X-50.96448 Y-138.44628
G01 X-50.98109 Y-138.51804
G01 X-51.02015 Y-138.61796
G01 X-51.03697 Y-138.65436
G01 X-51.09965 Y-138.75070
G01 X-51.11881 Y-138.77694
G01 X-51.16945 Y-138.83046
G01 X-54.48403 Y-142.14447
G01 X-54.54494 Y-142.19705
G01 X-54.64544 Y-142.26322
G01 X-54.78174 Y-142.31938
G01 X-54.92634 Y-142.34739
G01 X-54.99998 Y-142.35024
G01 X-97.99999 Y-142.35024
G01 X-98.07360 Y-142.34739
G01 X-98.11284 Y-142.34173
G01 X-98.21800 Y-142.31877
G01 X-98.35397 Y-142.26223
G01 X-98.47632 Y-142.18041
G01 X-98.52333 Y-142.13756
G01 X-100.53948 Y-140.12123
G01 X-100.58132 Y-140.07706
G01 X-100.66280 Y-139.95428
G01 X-100.71721 Y-139.82418
G01 X-100.74347 Y-139.70305
G01 X-100.75023 Y-139.59995
G01 X-100.75023 Y-135.76577
G01 X-100.75541 Y-135.69378
G01 X-100.76643 Y-135.61743
G01 X-100.82361 Y-135.54037
G01 X-102.80110 Y-133.55983
G01 X-102.85561 Y-133.51266
G01 X-102.91743 Y-133.46641
G01 X-103.01256 Y-133.45234
G01 X-103.06577 Y-133.45020
G01 X-106.55433 Y-133.44888
G01 X-106.68926 Y-133.42633
G01 X-106.71806 Y-133.41886
G01 X-106.80841 Y-133.38368
G01 X-106.85400 Y-133.36227
G01 X-106.92941 Y-133.31480
G01 X-106.97640 Y-133.28053
G01 X-107.02311 Y-133.23776
G01 X-110.13047 Y-130.13047
G01 X-110.18054 Y-130.07642
G01 X-110.20426 Y-130.04470
G01 X-110.26964 Y-129.94013
G01 X-110.31925 Y-129.81816
G01 X-110.33662 Y-129.74005
G01 X-110.34924 Y-129.64030
G01 X-110.35021 Y-126.56576
G01 X-110.35539 Y-126.49378
G01 X-110.36641 Y-126.41743
G01 X-110.42361 Y-126.34036
G01 X-116.53102 Y-120.23103
G01 X-116.65020 Y-120.13110
G01 X-116.73503 Y-120.07040
G01 X-116.99744 Y-119.90984
G01 X-117.14405 Y-119.83270
G01 X-117.43501 Y-119.69184
G01 X-117.69950 Y-119.57472
G01 X-117.69950 Y-76.70048
G01 X-5.70048 Y-76.70048
G01 X-5.70048 Y-144.59948
G01 X-117.69950 Y-144.59948
G01 X-117.69950 Y-119.57472
G04 P0 ( dwell for no time -- G64 should not smooth over this point )
G00 Z2.00000 ( retract )

G00 X-103.00920 Y-118.86349 ( rapid move to begin. )
G01 F100.00000
( Mill infeed pass 1/1 )
G01 Z-0.10000
G04 P0 ( dwell for no time -- G64 should not smooth over this point )
G01 F600.00000
G01 X-103.00920 Y-118.86349
G01 X-103.09825 Y-118.91081
G01 X-103.19038 Y-118.96839
G01 X-103.31479 Y-119.05851
G01 X-103.37291 Y-119.10893
G01 X-103.52858 Y-119.26100
G01 X-103.83229 Y-119.47741
G01 X-103.89767 Y-119.53738
G01 X-104.04433 Y-119.68998
G01 X-104.43564 Y-119.68988
G01 X-104.58779 Y-119.84807
G01 X-104.65324 Y-119.90713
G01 X-104.93567 Y-120.10682
G01 X-104.99645 Y-120.16090
G01 X-105.07791 Y-120.24434
G01 X-105.17910 Y-120.38444
G01 X-105.24618 Y-120.51325
G01 X-105.28354 Y-120.61170
G01 X-105.31552 Y-120.72435
G01 X-105.33813 Y-120.87355
G01 X-105.33848 Y-121.04644
G01 X-105.31821 Y-121.18119
G01 X-105.29162 Y-121.28320
G01 X-105.25797 Y-121.38162
G01 X-105.17925 Y-121.53557
G01 X-105.07747 Y-121.67530
G01 X-104.95619 Y-121.79724
G01 X-104.87204 Y-121.85998
G01 X-104.67402 Y-121.99595
G01 X-104.54547 Y-122.11362
G01 X-104.43564 Y-122.22988
G01 X-104.04433 Y-122.22998
G01 X-103.93450 Y-122.34631
G01 X-103.81004 Y-122.46072
G01 X-103.53722 Y-122.65226
G01 X-103.44326 Y-122.74111
G01 X-103.37435 Y-122.82073
G01 X-103.22619 Y-123.03465
G01 X-103.18030 Y-123.09500
G01 X-103.11987 Y-123.16031
G01 X-102.96991 Y-123.30435
G01 X-102.96991 Y-123.69549
G01 X-102.81454 Y-123.84512
G01 X-102.75502 Y-123.91052
G01 X-102.55416 Y-124.19427
G01 X-102.49313 Y-124.26246
G01 X-102.41619 Y-124.33724
G01 X-102.33204 Y-124.39998
G01 X-102.13402 Y-124.53595
G01 X-102.00547 Y-124.65362
G01 X-101.89564 Y-124.76988
G01 X-101.50433 Y-124.76998
G01 X-101.39450 Y-124.88631
G01 X-101.27004 Y-125.00072
G01 X-101.06255 Y-125.14379
G01 X-100.98370 Y-125.20265
G01 X-100.86234 Y-125.32459
G01 X-100.77182 Y-125.44753
G01 X-100.71507 Y-125.54976
G01 X-100.68020 Y-125.62327
G01 X-100.62894 Y-125.78283
G01 X-100.60156 Y-125.95322
G01 X-100.59983 Y-126.03457
G01 X-100.60319 Y-126.13988
G01 X-100.62892 Y-126.29713
G01 X-100.68190 Y-126.46165
G01 X-100.72640 Y-126.55232
G01 X-100.78015 Y-126.64458
G01 X-100.86224 Y-126.75547
G01 X-100.98858 Y-126.88100
G01 X-101.29229 Y-127.09741
G01 X-101.35767 Y-127.15738
G01 X-101.50433 Y-127.30998
G01 X-101.89564 Y-127.30988
G01 X-102.04779 Y-127.46807
G01 X-102.11324 Y-127.52713
G01 X-102.39567 Y-127.72682
G01 X-102.45645 Y-127.78090
G01 X-102.53021 Y-127.85618
G01 X-102.60097 Y-127.94938
G01 X-102.73702 Y-128.14724
G01 X-102.85358 Y-128.27465
G01 X-102.96991 Y-128.38435
G01 X-102.96991 Y-128.77549
G01 X-103.08629 Y-128.88552
G01 X-103.18939 Y-128.99603
G01 X-103.23943 Y-129.06240
G01 X-103.38225 Y-129.26967
G01 X-103.45248 Y-129.34826
G01 X-103.54756 Y-129.43583
G01 X-103.66452 Y-129.51902
G01 X-103.73638 Y-129.55806
G01 X-103.81873 Y-129.59806
G01 X-103.98286 Y-129.65100
G01 X-104.14992 Y-129.67800
G01 X-104.25677 Y-129.68003
G01 X-104.34819 Y-129.67571
G01 X-104.49713 Y-129.65110
G01 X-104.66157 Y-129.59781
G01 X-104.78360 Y-129.53705
G01 X-104.85271 Y-129.49415
G01 X-104.93760 Y-129.43182
G01 X-105.01522 Y-129.36055
G01 X-105.09429 Y-129.27437
G01 X-105.17925 Y-129.15557
G01 X-105.25797 Y-129.00162
G01 X-105.29162 Y-128.90320
G01 X-105.31100 Y-128.83711
G01 X-105.33602 Y-128.68557
G01 X-105.34011 Y-128.57879
G01 X-105.33813 Y-128.49355
G01 X-105.31552 Y-128.34435
G01 X-105.29139 Y-128.25606
G01 X-105.25786 Y-128.15834
G01 X-105.19866 Y-128.03932
G01 X-105.15606 Y-127.96998
G01 X-105.07021 Y-127.85618
G01 X-104.99645 Y-127.78090
G01 X-104.93567 Y-127.72682
G01 X-104.65324 Y-127.52713
G01 X-104.58779 Y-127.46807
G01 X-104.43564 Y-127.30988
G01 X-104.04433 Y-127.30998
G01 X-103.89767 Y-127.15738
G01 X-103.83229 Y-127.09741
G01 X-103.54766 Y-126.89571
G01 X-103.46940 Y-126.82520
G01 X-103.40285 Y-126.75611
G01 X-103.38225 Y-126.72967
G01 X-103.23943 Y-126.52240
G01 X-103.18939 Y-126.45603
G01 X-103.08629 Y-126.34552
G01 X-102.96991 Y-126.23549
G01 X-102.96991 Y-125.84435
G01 X-103.11987 Y-125.70031
G01 X-103.18030 Y-125.63500
G01 X-103.22619 Y-125.57465
G01 X-103.37435 Y-125.36073
G01 X-103.40295 Y-125.32396
G01 X-103.46003 Y-125.26409
G01 X-103.53722 Y-125.19226
G01 X-103.81004 Y-125.00072
G01 X-103.93450 Y-124.88631
G01 X-104.04433 Y-124.76998
G01 X-104.43564 Y-124.76988
G01 X-104.58779 Y-124.92807
G01 X-104.65324 Y-124.98713
G01 X-104.95599 Y-125.20298
G01 X-105.07791 Y-125.32434
G01 X-105.17910 Y-125.46444
G01 X-105.25639 Y-125.61499
G01 X-105.28354 Y-125.69170
G01 X-105.31552 Y-125.80435
G01 X-105.33813 Y-125.95355
G01 X-105.33848 Y-126.12644
G01 X-105.31821 Y-126.26119
G01 X-105.29876 Y-126.34021
G01 X-105.26569 Y-126.44031
G01 X-105.22192 Y-126.53604
G01 X-105.17925 Y-126.61557
G01 X-105.10976 Y-126.71402
G01 X-105.07747 Y-126.75530
G01 X-105.01522 Y-126.82055
G01 X-104.93752 Y-126.89169
G01 X-104.67402 Y-127.07595
G01 X-104.54547 Y-127.19362
G01 X-104.43564 Y-127.30988
G01 X-104.04433 Y-127.30998
G01 X-103.93450 Y-127.42631
G01 X-103.81004 Y-127.54072
G01 X-103.53722 Y-127.73226
G01 X-103.44326 Y-127.82111
G01 X-103.37435 Y-127.90073
G01 X-103.22619 Y-128.11465
G01 X-103.18030 Y-128.17500
G01 X-103.11987 Y-128.24031
G01 X-102.96991 Y-128.38435
G01 X-102.96991 Y-128.77549
G01 X-102.81454 Y-128.92512
G01 X-102.75502 Y-128.99052
G01 X-102.55416 Y-129.27427
G01 X-102.49313 Y-129.34246
G01 X-102.41555 Y-129.41785
G01 X-102.31271 Y-129.49415
G01 X-102.24360 Y-129.53705
G01 X-102.12157 Y-129.59781
G01 X-102.01599 Y-129.63390
G01 X-101.93747 Y-129.65519
G01 X-101.78640 Y-129.67805
G01 X-101.69125 Y-129.68011
G01 X-101.58607 Y-129.67500
G01 X-101.44286 Y-129.65100
G01 X-101.30283 Y-129.60683
G01 X-101.19638 Y-129.55806
G01 X-101.12452 Y-129.51902
G01 X-100.98853 Y-129.42108
G01 X-100.92940 Y-129.36520
G01 X-100.85686 Y-129.28884
G01 X-100.76082 Y-129.15549
G01 X-100.68190 Y-129.00165
G01 X-100.65028 Y-128.90939
G01 X-100.62292 Y-128.80774
G01 X-100.60174 Y-128.66642
G01 X-100.60154 Y-128.49352
G01 X-100.61650 Y-128.38880
G01 X-100.63926 Y-128.28608
G01 X-100.68020 Y-128.16327
G01 X-100.72666 Y-128.06713
G01 X-100.77182 Y-127.98753
G01 X-100.84878 Y-127.88151
G01 X-100.90326 Y-127.82111
G01 X-100.99722 Y-127.73226
G01 X-101.27004 Y-127.54072
G01 X-101.39450 Y-127.42631
G01 X-101.50433 Y-127.30998
G01 X-101.89564 Y-127.30988
G01 X-102.00547 Y-127.19362
G01 X-102.13402 Y-127.07595
G01 X-102.39752 Y-126.89169
G01 X-102.49313 Y-126.80246
G01 X-102.53689 Y-126.75593
G01 X-102.56955 Y-126.71387
G01 X-102.75502 Y-126.45052
G01 X-102.81454 Y-126.38512
G01 X-102.96991 Y-126.23549
G01 X-102.96991 Y-125.84435
G01 X-102.85358 Y-125.73465
G01 X-102.73702 Y-125.60724
G01 X-102.54657 Y-125.33579
G01 X-102.47359 Y-125.25776
G01 X-102.41599 Y-125.20298
G01 X-102.37654 Y-125.17239
G01 X-102.11324 Y-124.98713
G01 X-102.04779 Y-124.92807
G01 X-101.89564 Y-124.76988
G01 X-101.50433 Y-124.76998
G01 X-101.35767 Y-124.61738
G01 X-101.29229 Y-124.55741
G01 X-100.98858 Y-124.34100
G01 X-100.86224 Y-124.21547
G01 X-100.78015 Y-124.10458
G01 X-100.72640 Y-124.01232
G01 X-100.68190 Y-123.92165
G01 X-100.62892 Y-123.75713
G01 X-100.60174 Y-123.58642
G01 X-100.60154 Y-123.41352
G01 X-100.61650 Y-123.30880
G01 X-100.63926 Y-123.20608
G01 X-100.68020 Y-123.08327
G01 X-100.76082 Y-122.92444
G01 X-100.86234 Y-122.78459
G01 X-100.98370 Y-122.66265
G01 X-101.06255 Y-122.60379
G01 X-101.27004 Y-122.46072
G01 X-101.39450 Y-122.34631
G01 X-101.50433 Y-122.22998
G01 X-101.89564 Y-122.22988
G01 X-102.00547 Y-122.11362
G01 X-102.13402 Y-121.99595
G01 X-102.33204 Y-121.85998
G01 X-102.41619 Y-121.79724
G01 X-102.53689 Y-121.67593
G01 X-102.75502 Y-121.37052
G01 X-102.81454 Y-121.30512
G01 X-102.96991 Y-121.15549
G01 X-102.96991 Y-120.76435
G01 X-102.85358 Y-120.65465
G01 X-102.73702 Y-120.52724
G01 X-102.60097 Y-120.32938
G01 X-102.53732 Y-120.24370
G01 X-102.39920 Y-120.10278
G01 X-102.30984 Y-119.99864
G01 X-102.25820 Y-119.92580
G01 X-102.14174 Y-119.72887
G01 X-102.04720 Y-119.71393
G01 X-101.91172 Y-119.69897
G01 X-101.69605 Y-119.69018
G01 X-101.57192 Y-119.69336
G01 X-101.44987 Y-119.70245
G01 X-101.25642 Y-119.72917
G01 X-101.19938 Y-119.83507
G01 X-101.14797 Y-119.91548
G01 X-101.06867 Y-120.02544
G01 X-101.01129 Y-120.09293
G01 X-100.86234 Y-120.24459
G01 X-100.77182 Y-120.36753
G01 X-100.72666 Y-120.44713
G01 X-100.68211 Y-120.53834
G01 X-100.63926 Y-120.66608
G01 X-100.62056 Y-120.74525
G01 X-100.60156 Y-120.87322
G01 X-100.59991 Y-120.97857
G01 X-100.60319 Y-121.05988
G01 X-100.62292 Y-121.18774
G01 X-100.64312 Y-121.26653
G01 X-100.68190 Y-121.38165
G01 X-100.72640 Y-121.47232
G01 X-100.76082 Y-121.53549
G01 X-100.84210 Y-121.64977
G01 X-100.92940 Y-121.74520
G01 X-101.00766 Y-121.81571
G01 X-101.29229 Y-122.01741
G01 X-101.35767 Y-122.07738
G01 X-101.50433 Y-122.22998
G01 X-101.89564 Y-122.22988
G01 X-102.04779 Y-122.38807
G01 X-102.11324 Y-122.44713
G01 X-102.37654 Y-122.63239
G01 X-102.41599 Y-122.66298
G01 X-102.47359 Y-122.71776
G01 X-102.54657 Y-122.79579
G01 X-102.73702 Y-123.06724
G01 X-102.85358 Y-123.19465
G01 X-102.96991 Y-123.30435
G01 X-102.96991 Y-123.69549
G01 X-103.08629 Y-123.80552
G01 X-103.18939 Y-123.91603
G01 X-103.39693 Y-124.20877
G01 X-103.52383 Y-124.33717
G01 X-103.83229 Y-124.55741
G01 X-103.89767 Y-124.61738
G01 X-104.04433 Y-124.76998
G01 X-104.43564 Y-124.76988
G01 X-104.54547 Y-124.65362
G01 X-104.67402 Y-124.53595
G01 X-104.87204 Y-124.39998
G01 X-104.95619 Y-124.33724
G01 X-105.03313 Y-124.26246
G01 X-105.09429 Y-124.19437
G01 X-105.17925 Y-124.07557
G01 X-105.25797 Y-123.92162
G01 X-105.31100 Y-123.75711
G01 X-105.33848 Y-123.58644
G01 X-105.33813 Y-123.41355
G01 X-105.32009 Y-123.28934
G01 X-105.31100 Y-123.24283
G01 X-105.29139 Y-123.17606
G01 X-105.25786 Y-123.07834
G01 X-105.19866 Y-122.95932
G01 X-105.15606 Y-122.88998
G01 X-105.07791 Y-122.78434
G01 X-105.01359 Y-122.71776
G01 X-104.95599 Y-122.66298
G01 X-104.91654 Y-122.63239
G01 X-104.65324 Y-122.44713
G01 X-104.58779 Y-122.38807
G01 X-104.43564 Y-122.22988
G01 X-104.04433 Y-122.22998
G01 X-103.89767 Y-122.07738
G01 X-103.83229 Y-122.01741
G01 X-103.54766 Y-121.81571
G01 X-103.46940 Y-121.74520
G01 X-103.40285 Y-121.67611
G01 X-103.38225 Y-121.64967
G01 X-103.23943 Y-121.44240
G01 X-103.18939 Y-121.37603
G01 X-103.08629 Y-121.26552
G01 X-102.96991 Y-121.15549
G01 X-102.96991 Y-120.76435
G01 X-103.11987 Y-120.62031
G01 X-103.18030 Y-120.55500
G01 X-103.22619 Y-120.49465
G01 X-103.37435 Y-120.28073
G01 X-103.40295 Y-120.24396
G01 X-103.46003 Y-120.18409
G01 X-103.53722 Y-120.11226
G01 X-103.81004 Y-119.92072
G01 X-103.93450 Y-119.80631
G01 X-104.04433 Y-119.68998
G01 X-104.43564 Y-119.68988
G01 X-104.54547 Y-119.57362
G01 X-104.67402 Y-119.45595
G01 X-104.87204 Y-119.31998
G01 X-104.95654 Y-119.25691
G01 X-105.07747 Y-119.13530
G01 X-105.17925 Y-118.99557
G01 X-105.25797 Y-118.84162
G01 X-105.29876 Y-118.72021
G01 X-105.31821 Y-118.64119
G01 X-105.33848 Y-118.50644
G01 X-105.34011 Y-118.41879
G01 X-105.33813 Y-118.33355
G01 X-105.32009 Y-118.20934
G01 X-105.31100 Y-118.16283
G01 X-105.29139 Y-118.09606
G01 X-105.25786 Y-117.99834
G01 X-105.17910 Y-117.84444
G01 X-105.07791 Y-117.70434
G01 X-104.95535 Y-117.58237
G01 X-104.81555 Y-117.48074
G01 X-104.66165 Y-117.40192
G01 X-104.54197 Y-117.36174
G01 X-104.45299 Y-117.34028
G01 X-104.32645 Y-117.32148
G01 X-104.23043 Y-117.31988
G01 X-104.15355 Y-117.32189
G01 X-103.99604 Y-117.34597
G01 X-103.81832 Y-117.40203
G01 X-103.66452 Y-117.48094
G01 X-103.53714 Y-117.57215
G01 X-103.38533 Y-117.71848
G01 X-103.28002 Y-117.80906
G01 X-103.19759 Y-117.86700
G01 X-103.00882 Y-117.97815
G01 X-102.99267 Y-118.08178
G01 X-102.97931 Y-118.20421
G01 X-102.97016 Y-118.40746
G01 X-102.97250 Y-118.52913
G01 X-102.98065 Y-118.65089
G01 X-103.00920 Y-118.86349
G01 X-102.94621 Y-118.95369
G01 X-102.84692 Y-119.14703
G01 X-102.77075 Y-119.39052
G01 X-102.72785 Y-119.44784
G01 X-102.67052 Y-119.49074
G01 X-102.57179 Y-119.52397
G01 X-102.49975 Y-119.54147
G01 X-102.37481 Y-119.58869
G01 X-102.30494 Y-119.62364
G01 X-102.14174 Y-119.72887
G01 X-102.04720 Y-119.71393
G01 X-101.91172 Y-119.69897
G01 X-101.69605 Y-119.69018
G01 X-101.57192 Y-119.69336
G01 X-101.44987 Y-119.70245
G01 X-101.25642 Y-119.72917
G01 X-101.16631 Y-119.66623
G01 X-100.97291 Y-119.56692
G01 X-100.72945 Y-119.49074
G01 X-100.67212 Y-119.44782
G01 X-100.62920 Y-119.39052
G01 X-100.60293 Y-119.31909
G01 X-100.59973 Y-119.26999
G01 X-100.60093 Y-117.53555
G01 X-100.60293 Y-117.52085
G01 X-100.62922 Y-117.44945
G01 X-100.67212 Y-117.39212
G01 X-100.72945 Y-117.34922
G01 X-100.80085 Y-117.32293
G01 X-100.84997 Y-117.31973
G01 X-102.54997 Y-117.31973
G01 X-102.59909 Y-117.32293
G01 X-102.67052 Y-117.34919
G01 X-102.72782 Y-117.39212
G01 X-102.77075 Y-117.44945
G01 X-102.80397 Y-117.54815
G01 X-102.82147 Y-117.62019
G01 X-102.86869 Y-117.74513
G01 X-102.90364 Y-117.81500
G01 X-103.00882 Y-117.97815
G04 P0 ( dwell for no time -- G64 should not smooth over this point )
G00 Z2.00000 ( retract )

G00 X-92.68182 Y-119.81878 ( rapid move to begin. )
G01 F100.00000
( Mill infeed pass 1/1 )
G01 Z-0.10000
G04 P0 ( dwell for no time -- G64 should not smooth over this point )
G01 F600.00000
G01 X-92.68182 Y-119.81878
G01 X-92.78966 Y-120.00225
G01 X-92.84077 Y-120.07693
G01 X-92.93922 Y-120.19277
G01 X-93.07790 Y-120.33430
G01 X-93.14847 Y-120.42915
G01 X-93.19233 Y-120.49765
G01 X-93.24046 Y-120.59133
G01 X-93.28309 Y-120.70037
G01 X-93.31120 Y-120.79280
G01 X-93.33442 Y-120.93197
G01 X-93.33990 Y-121.02333
G01 X-93.33848 Y-121.13644
G01 X-93.31100 Y-121.30710
G01 X-93.25796 Y-121.47161
G01 X-93.21092 Y-121.56742
G01 X-93.17097 Y-121.63829
G01 X-93.09431 Y-121.74433
G01 X-93.03317 Y-121.81241
G01 X-92.93757 Y-121.90166
G01 X-92.67407 Y-122.08591
G01 X-92.54544 Y-122.20364
G01 X-92.43561 Y-122.31987
G01 X-92.04423 Y-122.32013
G01 X-91.93445 Y-122.43636
G01 X-91.81011 Y-122.55066
G01 X-91.53844 Y-122.74136
G01 X-91.46008 Y-122.81405
G01 X-91.38182 Y-122.90092
G01 X-91.18032 Y-123.18500
G01 X-91.11987 Y-123.25033
G01 X-90.96996 Y-123.39432
G01 X-90.96991 Y-123.78548
G01 X-91.08647 Y-123.89541
G01 X-91.19846 Y-124.01710
G01 X-91.39028 Y-124.29015
G01 X-91.46998 Y-124.37575
G01 X-91.52398 Y-124.42695
G01 X-91.56869 Y-124.46152
G01 X-91.83229 Y-124.64740
G01 X-91.89767 Y-124.70737
G01 X-92.04423 Y-124.86013
G01 X-92.43561 Y-124.85987
G01 X-92.51349 Y-124.94329
G01 X-92.64209 Y-125.06790
G01 X-92.70536 Y-125.11621
G01 X-92.93566 Y-125.27681
G01 X-92.99645 Y-125.33089
G01 X-93.07790 Y-125.41430
G01 X-93.17915 Y-125.55444
G01 X-93.24046 Y-125.67133
G01 X-93.28309 Y-125.78037
G01 X-93.31334 Y-125.88281
G01 X-93.33795 Y-126.04356
G01 X-93.33848 Y-126.21644
G01 X-93.31821 Y-126.35118
G01 X-93.29164 Y-126.45316
G01 X-93.25796 Y-126.55161
G01 X-93.17925 Y-126.70556
G01 X-93.07750 Y-126.84529
G01 X-92.95619 Y-126.96723
G01 X-92.87209 Y-127.02995
G01 X-92.67407 Y-127.16591
G01 X-92.54544 Y-127.28364
G01 X-92.43561 Y-127.39987
G01 X-92.04423 Y-127.40013
G01 X-91.93445 Y-127.51636
G01 X-91.81011 Y-127.63066
G01 X-91.53844 Y-127.82136
G01 X-91.44222 Y-127.91219
G01 X-91.40308 Y-127.95405
G01 X-91.36645 Y-128.00137
G01 X-91.22617 Y-128.20467
G01 X-91.18032 Y-128.26500
G01 X-91.11987 Y-128.33032
G01 X-90.96996 Y-128.47432
G01 X-90.96991 Y-128.86548
G01 X-90.81456 Y-129.01511
G01 X-90.75505 Y-129.08051
G01 X-90.55419 Y-129.36421
G01 X-90.49317 Y-129.43241
G01 X-90.41555 Y-129.50784
G01 X-90.31268 Y-129.58417
G01 X-90.22241 Y-129.63832
G01 X-90.12157 Y-129.68780
G01 X-89.95713 Y-129.74109
G01 X-89.80964 Y-129.76555
G01 X-89.70448 Y-129.77010
G01 X-89.61352 Y-129.76852
G01 X-89.44288 Y-129.74089
G01 X-89.27832 Y-129.68790
G01 X-89.11446 Y-129.60287
G01 X-89.00938 Y-129.52725
G01 X-88.94822 Y-129.47360
G01 X-88.86209 Y-129.38562
G01 X-88.80156 Y-129.30500
G01 X-88.76095 Y-129.24541
G01 X-88.68195 Y-129.09166
G01 X-88.62902 Y-128.92710
G01 X-88.60174 Y-128.75641
G01 X-88.60153 Y-128.58351
G01 X-88.62894 Y-128.41282
G01 X-88.68210 Y-128.24836
G01 X-88.76062 Y-128.09436
G01 X-88.84167 Y-127.98080
G01 X-88.90222 Y-127.91219
G01 X-88.98370 Y-127.83264
G01 X-89.07210 Y-127.76705
G01 X-89.27011 Y-127.63066
G01 X-89.39445 Y-127.51636
G01 X-89.50423 Y-127.40013
G01 X-89.89561 Y-127.39987
G01 X-89.97349 Y-127.48329
G01 X-90.10209 Y-127.60790
G01 X-90.16536 Y-127.65621
G01 X-90.39566 Y-127.81681
G01 X-90.47359 Y-127.88776
G01 X-90.54568 Y-127.96462
G01 X-90.60806 Y-128.04940
G01 X-90.72950 Y-128.22758
G01 X-90.85352 Y-128.36439
G01 X-90.96996 Y-128.47432
G01 X-90.96991 Y-128.86548
G01 X-91.08647 Y-128.97541
G01 X-91.19846 Y-129.09710
G01 X-91.39028 Y-129.37015
G01 X-91.48822 Y-129.47360
G01 X-91.54938 Y-129.52725
G01 X-91.66434 Y-129.60929
G01 X-91.81832 Y-129.68790
G01 X-91.94430 Y-129.73012
G01 X-92.05858 Y-129.75509
G01 X-92.15352 Y-129.76852
G01 X-92.32642 Y-129.76812
G01 X-92.47740 Y-129.74521
G01 X-92.55591 Y-129.72392
G01 X-92.66157 Y-129.68780
G01 X-92.76241 Y-129.63832
G01 X-92.85268 Y-129.58417
G01 X-92.95555 Y-129.50784
G01 X-93.03317 Y-129.43241
G01 X-93.09431 Y-129.36433
G01 X-93.17925 Y-129.24556
G01 X-93.22192 Y-129.16606
G01 X-93.25796 Y-129.09161
G01 X-93.31100 Y-128.92710
G01 X-93.33848 Y-128.75644
G01 X-93.34011 Y-128.66878
G01 X-93.33442 Y-128.55197
G01 X-93.31120 Y-128.41280
G01 X-93.25769 Y-128.24844
G01 X-93.20368 Y-128.13876
G01 X-93.14847 Y-128.04915
G01 X-93.07021 Y-127.94618
G01 X-92.99645 Y-127.87089
G01 X-92.93566 Y-127.81681
G01 X-92.70536 Y-127.65621
G01 X-92.64209 Y-127.60790
G01 X-92.51349 Y-127.48329
G01 X-92.43561 Y-127.39987
G01 X-92.04423 Y-127.40013
G01 X-91.89767 Y-127.24737
G01 X-91.83229 Y-127.18740
G01 X-91.52398 Y-126.96695
G01 X-91.40270 Y-126.84625
G01 X-91.34189 Y-126.76475
G01 X-91.19846 Y-126.55710
G01 X-91.08647 Y-126.43541
G01 X-90.96991 Y-126.32548
G01 X-90.96996 Y-125.93432
G01 X-90.85352 Y-125.82439
G01 X-90.72950 Y-125.68758
G01 X-90.60806 Y-125.50940
G01 X-90.54568 Y-125.42462
G01 X-90.47359 Y-125.34776
G01 X-90.39566 Y-125.27681
G01 X-90.16536 Y-125.11621
G01 X-90.10209 Y-125.06790
G01 X-89.97349 Y-124.94329
G01 X-89.89561 Y-124.85987
G01 X-89.50423 Y-124.86013
G01 X-89.35767 Y-124.70737
G01 X-89.29229 Y-124.64740
G01 X-89.02869 Y-124.46152
G01 X-88.94822 Y-124.39360
G01 X-88.85018 Y-124.29023
G01 X-88.76095 Y-124.16541
G01 X-88.72709 Y-124.10369
G01 X-88.68195 Y-124.01166
G01 X-88.62902 Y-123.84710
G01 X-88.60174 Y-123.67641
G01 X-88.60153 Y-123.50351
G01 X-88.62056 Y-123.37524
G01 X-88.64634 Y-123.27303
G01 X-88.68210 Y-123.16836
G01 X-88.76529 Y-123.00715
G01 X-88.86249 Y-122.87468
G01 X-88.98370 Y-122.75264
G01 X-89.07210 Y-122.68705
G01 X-89.27011 Y-122.55066
G01 X-89.39445 Y-122.43636
G01 X-89.50423 Y-122.32013
G01 X-89.89561 Y-122.31987
G01 X-89.97349 Y-122.40329
G01 X-90.10209 Y-122.52790
G01 X-90.16536 Y-122.57621
G01 X-90.39566 Y-122.73681
G01 X-90.47359 Y-122.80776
G01 X-90.54568 Y-122.88462
G01 X-90.60806 Y-122.96940
G01 X-90.72950 Y-123.14758
G01 X-90.85352 Y-123.28439
G01 X-90.96996 Y-123.39432
G01 X-90.96991 Y-123.78548
G01 X-90.81456 Y-123.93511
G01 X-90.75505 Y-124.00051
G01 X-90.55419 Y-124.28421
G01 X-90.47519 Y-124.37057
G01 X-90.39757 Y-124.44166
G01 X-90.13407 Y-124.62591
G01 X-90.00544 Y-124.74364
G01 X-89.89561 Y-124.85987
G01 X-89.50423 Y-124.86013
G01 X-89.39445 Y-124.97636
G01 X-89.27011 Y-125.09066
G01 X-89.07210 Y-125.22705
G01 X-88.98370 Y-125.29264
G01 X-88.86249 Y-125.41468
G01 X-88.76529 Y-125.54715
G01 X-88.72597 Y-125.61837
G01 X-88.68020 Y-125.71326
G01 X-88.62894 Y-125.87282
G01 X-88.60153 Y-126.04351
G01 X-88.60174 Y-126.21641
G01 X-88.61868 Y-126.33406
G01 X-88.62902 Y-126.38710
G01 X-88.64659 Y-126.44768
G01 X-88.68195 Y-126.55166
G01 X-88.76095 Y-126.70541
G01 X-88.86209 Y-126.84562
G01 X-88.98398 Y-126.96695
G01 X-89.29229 Y-127.18740
G01 X-89.35767 Y-127.24737
G01 X-89.50423 Y-127.40013
G01 X-89.89561 Y-127.39987
G01 X-90.00544 Y-127.28364
G01 X-90.13407 Y-127.16591
G01 X-90.39757 Y-126.98166
G01 X-90.47519 Y-126.91057
G01 X-90.55419 Y-126.82421
G01 X-90.75505 Y-126.54051
G01 X-90.81456 Y-126.47511
G01 X-90.96991 Y-126.32548
G01 X-90.96996 Y-125.93432
G01 X-91.11987 Y-125.79032
G01 X-91.18032 Y-125.72500
G01 X-91.38182 Y-125.44092
G01 X-91.46008 Y-125.35405
G01 X-91.53844 Y-125.28136
G01 X-91.81011 Y-125.09066
G01 X-91.93445 Y-124.97636
G01 X-92.04423 Y-124.86013
G01 X-92.43561 Y-124.85987
G01 X-92.54544 Y-124.74364
G01 X-92.67407 Y-124.62591
G01 X-92.87209 Y-124.48995
G01 X-92.95619 Y-124.42723
G01 X-93.07750 Y-124.30529
G01 X-93.17925 Y-124.16556
G01 X-93.25796 Y-124.01161
G01 X-93.29876 Y-123.89020
G01 X-93.31821 Y-123.81118
G01 X-93.33848 Y-123.67644
G01 X-93.34011 Y-123.58878
G01 X-93.33795 Y-123.50356
G01 X-93.31334 Y-123.34281
G01 X-93.25769 Y-123.16844
G01 X-93.19233 Y-123.03765
G01 X-93.14847 Y-122.96915
G01 X-93.07790 Y-122.87430
G01 X-92.99645 Y-122.79089
G01 X-92.91534 Y-122.72152
G01 X-92.70536 Y-122.57621
G01 X-92.64209 Y-122.52790
G01 X-92.51349 Y-122.40329
G01 X-92.43561 Y-122.31987
G01 X-92.04423 Y-122.32013
G01 X-91.89767 Y-122.16737
G01 X-91.83229 Y-122.10740
G01 X-91.52398 Y-121.88695
G01 X-91.40270 Y-121.76625
G01 X-91.34189 Y-121.68475
G01 X-91.19846 Y-121.47710
G01 X-91.08647 Y-121.35541
G01 X-90.96991 Y-121.24548
G01 X-90.96996 Y-120.85432
G01 X-90.85352 Y-120.74439
G01 X-90.72950 Y-120.60758
G01 X-90.60806 Y-120.42940
G01 X-90.53732 Y-120.33367
G01 X-90.45645 Y-120.25089
G01 X-90.37534 Y-120.18152
G01 X-90.16536 Y-120.03621
G01 X-90.10209 Y-119.98790
G01 X-89.97349 Y-119.86329
G01 X-89.89561 Y-119.77987
G01 X-89.50423 Y-119.78013
G01 X-89.35767 Y-119.62737
G01 X-89.29229 Y-119.56740
G01 X-88.98398 Y-119.34695
G01 X-88.86209 Y-119.22562
G01 X-88.76095 Y-119.08541
G01 X-88.68195 Y-118.93166
G01 X-88.62902 Y-118.76710
G01 X-88.60174 Y-118.59641
G01 X-88.60153 Y-118.42351
G01 X-88.62894 Y-118.25282
G01 X-88.68210 Y-118.08836
G01 X-88.76062 Y-117.93436
G01 X-88.86249 Y-117.79468
G01 X-88.98434 Y-117.67205
G01 X-89.09259 Y-117.59207
G01 X-89.18340 Y-117.53855
G01 X-89.27809 Y-117.49212
G01 X-89.37766 Y-117.45803
G01 X-89.45597 Y-117.43599
G01 X-89.61357 Y-117.41198
G01 X-89.78644 Y-117.41147
G01 X-89.91149 Y-117.42999
G01 X-90.01370 Y-117.45534
G01 X-90.12157 Y-117.49214
G01 X-90.27565 Y-117.57058
G01 X-90.41535 Y-117.67236
G01 X-90.56691 Y-117.82120
G01 X-90.63026 Y-117.87541
G01 X-90.80603 Y-117.99809
G01 X-90.93077 Y-118.06649
G01 X-90.93458 Y-118.08722
G01 X-90.95264 Y-118.21450
G01 X-90.96396 Y-118.33746
G01 X-90.96981 Y-118.51488
G01 X-90.96018 Y-118.73067
G01 X-90.93110 Y-118.95173
G01 X-90.73747 Y-119.06611
G01 X-90.66419 Y-119.11759
G01 X-90.55848 Y-119.20802
G01 X-90.41619 Y-119.34723
G01 X-90.33209 Y-119.40995
G01 X-90.13407 Y-119.54591
G01 X-90.00544 Y-119.66364
G01 X-89.89561 Y-119.77987
G01 X-89.50423 Y-119.78013
G01 X-89.39445 Y-119.89636
G01 X-89.27011 Y-120.01066
G01 X-88.99844 Y-120.20136
G01 X-88.90222 Y-120.29219
G01 X-88.84167 Y-120.36080
G01 X-88.76062 Y-120.47436
G01 X-88.71507 Y-120.55975
G01 X-88.67207 Y-120.65584
G01 X-88.62894 Y-120.79282
G01 X-88.60453 Y-120.93928
G01 X-88.59983 Y-121.04459
G01 X-88.60174 Y-121.13641
G01 X-88.62323 Y-121.27918
G01 X-88.64659 Y-121.36768
G01 X-88.68195 Y-121.47166
G01 X-88.72709 Y-121.56369
G01 X-88.76095 Y-121.62541
G01 X-88.85018 Y-121.75023
G01 X-88.94822 Y-121.85360
G01 X-89.02869 Y-121.92152
G01 X-89.29229 Y-122.10740
G01 X-89.35767 Y-122.16737
G01 X-89.50423 Y-122.32013
