( pcb2gcode 3.0.4 )
( Software-independent Gcode )

( This file uses only one drill bit. Forced by 'onedrill' option )

G94       (Millimeters per minute feed rate.)
G21       (Units == Millimeters.)
G91.1     (Incremental arc distance mode.)
G90       (Absolute coordinates.)
G00 S24000     (RPM spindle speed.)

G00 Z35.00000 (Retract)
T1
M5      (Spindle stop.)
G04 P1.00000
(MSG, Change tool bit to drill size 0.2mm)
M0      (Temporary machine stop.)
M3      (Spindle on clockwise.)
G0 Z2.00000
G04 P1.00000

G1 F200.00000
G0 X82.60000 Y-82.10000
G1 Z-1.00000
G1 Z2.00000
G0 X81.52500 Y-89.85000
G1 Z-1.00000
G1 Z2.00000
G0 X81.52500 Y-97.85000
G1 Z-1.00000
G1 Z2.00000
G0 X82.94500 Y-108.15500
G1 Z-1.00000
G1 Z2.00000
G0 X82.94500 Y-113.93500
G1 Z-1.00000
G1 Z2.00000
G0 X93.30000 Y-106.00000
G1 Z-1.00000
G1 Z2.00000
G0 X98.40000 Y-107.50000
G1 Z-1.00000
G1 Z2.00000
G0 X98.90000 Y-100.40000
G1 Z-1.00000
G1 Z2.00000
G0 X100.80000 Y-98.60000
G1 Z-1.00000
G1 Z2.00000
G0 X103.40000 Y-99.10000
G1 Z-1.00000
G1 Z2.00000
G0 X103.50000 Y-95.40000
G1 Z-1.00000
G1 Z2.00000
G0 X103.37500 Y-89.40000
G1 Z-1.00000
G1 Z2.00000
G0 X96.26900 Y-86.83100
G1 Z-1.00000
G1 Z2.00000
G0 X91.00000 Y-82.90000
G1 Z-1.00000
G1 Z2.00000
G0 X94.00000 Y-83.30000
G1 Z-1.00000
G1 Z2.00000
G0 X99.10000 Y-81.60000
G1 Z-1.00000
G1 Z2.00000
G0 X103.10000 Y-82.00000
G1 Z-1.00000
G1 Z2.00000
G0 X108.70000 Y-80.40000
G1 Z-1.00000
G1 Z2.00000
G0 X114.41200 Y-97.10000
G1 Z-1.00000
G1 Z2.00000
G0 X114.10000 Y-103.00000
G1 Z-1.00000
G1 Z2.00000
G0 X120.02500 Y-106.00000
G1 Z-1.00000
G1 Z2.00000
G0 X121.25000 Y-103.75000
G1 Z-1.00000
G1 Z2.00000
G0 X123.61500 Y-107.45500
G1 Z-1.00000
G1 Z2.00000
G0 X128.30000 Y-108.10000
G1 Z-1.00000
G1 Z2.00000
G0 X133.40000 Y-107.80000
G1 Z-1.00000
G1 Z2.00000
G0 X125.00000 Y-112.80000
G1 Z-1.00000
G1 Z2.00000
G0 X127.21000 Y-115.38000
G1 Z-1.00000
G1 Z2.00000
G0 X129.75000 Y-115.38000
G1 Z-1.00000
G1 Z2.00000
G0 X129.75000 Y-117.92000
G1 Z-1.00000
G1 Z2.00000
G0 X129.75000 Y-120.46000
G1 Z-1.00000
G1 Z2.00000
G0 X127.21000 Y-123.00000
G1 Z-1.00000
G1 Z2.00000
G0 X129.75000 Y-123.00000
G1 Z-1.00000
G1 Z2.00000
G0 X127.21000 Y-120.46000
G1 Z-1.00000
G1 Z2.00000
G0 X127.21000 Y-117.92000
G1 Z-1.00000
G1 Z2.00000
G0 X122.80000 Y-118.00000
G1 Z-1.00000
G1 Z2.00000
G0 X123.00400 Y-120.20000
G1 Z-1.00000
G1 Z2.00000
G0 X122.95200 Y-124.80000
G1 Z-1.00000
G1 Z2.00000
G0 X121.25200 Y-123.24800
G1 Z-1.00000
G1 Z2.00000
G0 X114.80000 Y-119.30000
G1 Z-1.00000
G1 Z2.00000
G0 X104.80000 Y-115.40000
G1 Z-1.00000
G1 Z2.00000
G0 X98.20000 Y-117.10000
G1 Z-1.00000
G1 Z2.00000
G0 X98.20000 Y-119.90000
G1 Z-1.00000
G1 Z2.00000
G0 X96.40000 Y-121.70000
G1 Z-1.00000
G1 Z2.00000
G0 X93.80000 Y-121.80000
G1 Z-1.00000
G1 Z2.00000
G0 X83.15000 Y-125.83500
G1 Z-1.00000
G1 Z2.00000
G0 X83.15000 Y-131.61500
G1 Z-1.00000
G1 Z2.00000
G0 X91.60000 Y-138.20000
G1 Z-1.00000
G1 Z2.00000
G0 X102.00000 Y-137.80000
G1 Z-1.00000
G1 Z2.00000
G0 X112.10000 Y-136.60000
G1 Z-1.00000
G1 Z2.00000
G0 X120.42500 Y-133.30000
G1 Z-1.00000
G1 Z2.00000
G0 X120.82500 Y-130.90000
G1 Z-1.00000
G1 Z2.00000
G0 X127.21000 Y-136.83000
G1 Z-1.00000
G1 Z2.00000
G0 X129.75000 Y-136.83000
G1 Z-1.00000
G1 Z2.00000
G0 X127.21000 Y-134.29000
G1 Z-1.00000
G1 Z2.00000
G0 X127.21000 Y-131.75000
G1 Z-1.00000
G1 Z2.00000
G0 X127.21000 Y-129.21000
G1 Z-1.00000
G1 Z2.00000
G0 X129.75000 Y-129.21000
G1 Z-1.00000
G1 Z2.00000
G0 X129.75000 Y-131.75000
G1 Z-1.00000
G1 Z2.00000
G0 X129.75000 Y-134.29000
G1 Z-1.00000
G1 Z2.00000
G0 X140.71000 Y-134.46000
G1 Z-1.00000
G1 Z2.00000
G0 X140.71000 Y-137.00000
G1 Z-1.00000
G1 Z2.00000
G0 X143.25000 Y-137.00000
G1 Z-1.00000
G1 Z2.00000
G0 X143.25000 Y-134.46000
G1 Z-1.00000
G1 Z2.00000
G0 X140.71000 Y-131.92000
G1 Z-1.00000
G1 Z2.00000
G0 X140.71000 Y-129.38000
G1 Z-1.00000
G1 Z2.00000
G0 X143.25000 Y-131.92000
G1 Z-1.00000
G1 Z2.00000
G0 X143.25000 Y-129.38000
G1 Z-1.00000
G1 Z2.00000
G0 X148.30000 Y-128.20000
G1 Z-1.00000
G1 Z2.00000
G0 X143.29000 Y-123.00000
G1 Z-1.00000
G1 Z2.00000
G0 X140.75000 Y-123.00000
G1 Z-1.00000
G1 Z2.00000
G0 X140.75000 Y-120.46000
G1 Z-1.00000
G1 Z2.00000
G0 X143.29000 Y-117.92000
G1 Z-1.00000
G1 Z2.00000
G0 X143.29000 Y-115.38000
G1 Z-1.00000
G1 Z2.00000
G0 X140.75000 Y-115.38000
G1 Z-1.00000
G1 Z2.00000
G0 X140.75000 Y-117.92000
G1 Z-1.00000
G1 Z2.00000
G0 X143.29000 Y-120.46000
G1 Z-1.00000
G1 Z2.00000
G0 X148.90000 Y-123.90000
G1 Z-1.00000
G1 Z2.00000
G0 X163.20000 Y-137.60000
G1 Z-1.00000
G1 Z2.00000
G0 X163.24000 Y-128.67000
G1 Z-1.00000
G1 Z2.00000
G0 X176.00000 Y-138.10000
G1 Z-1.00000
G1 Z2.00000
G0 X172.70000 Y-128.58000
G1 Z-1.00000
G1 Z2.00000
G0 X172.70000 Y-126.04000
G1 Z-1.00000
G1 Z2.00000
G0 X175.24000 Y-128.58000
G1 Z-1.00000
G1 Z2.00000
G0 X175.24000 Y-126.04000
G1 Z-1.00000
G1 Z2.00000
G0 X175.24000 Y-123.50000
G1 Z-1.00000
G1 Z2.00000
G0 X172.70000 Y-123.50000
G1 Z-1.00000
G1 Z2.00000
G0 X172.70000 Y-120.96000
G1 Z-1.00000
G1 Z2.00000
G0 X172.70000 Y-118.42000
G1 Z-1.00000
G1 Z2.00000
G0 X175.24000 Y-120.96000
G1 Z-1.00000
G1 Z2.00000
G0 X175.24000 Y-118.42000
G1 Z-1.00000
G1 Z2.00000
G0 X181.28000 Y-112.25000
G1 Z-1.00000
G1 Z2.00000
G0 X183.82000 Y-112.25000
G1 Z-1.00000
G1 Z2.00000
G0 X178.72000 Y-105.50000
G1 Z-1.00000
G1 Z2.00000
G0 X176.18000 Y-105.50000
G1 Z-1.00000
G1 Z2.00000
G0 X173.64000 Y-105.50000
G1 Z-1.00000
G1 Z2.00000
G0 X171.10000 Y-105.50000
G1 Z-1.00000
G1 Z2.00000
G0 X168.56000 Y-105.50000
G1 Z-1.00000
G1 Z2.00000
G0 X166.02000 Y-105.50000
G1 Z-1.00000
G1 Z2.00000
G0 X161.60000 Y-100.70000
G1 Z-1.00000
G1 Z2.00000
G0 X160.80000 Y-98.50000
G1 Z-1.00000
G1 Z2.00000
G0 X165.20000 Y-99.68000
G1 Z-1.00000
G1 Z2.00000
G0 X168.30000 Y-99.30000
G1 Z-1.00000
G1 Z2.00000
G0 X166.05000 Y-93.75000
G1 Z-1.00000
G1 Z2.00000
G0 X166.05000 Y-86.75000
G1 Z-1.00000
G1 Z2.00000
G0 X168.59000 Y-86.75000
G1 Z-1.00000
G1 Z2.00000
G0 X171.13000 Y-86.75000
G1 Z-1.00000
G1 Z2.00000
G0 X173.67000 Y-86.75000
G1 Z-1.00000
G1 Z2.00000
G0 X179.90000 Y-80.40000
G1 Z-1.00000
G1 Z2.00000
G0 X183.83000 Y-86.75000
G1 Z-1.00000
G1 Z2.00000
G0 X181.29000 Y-86.75000
G1 Z-1.00000
G1 Z2.00000
G0 X178.75000 Y-86.75000
G1 Z-1.00000
G1 Z2.00000
G0 X176.21000 Y-86.75000
G1 Z-1.00000
G1 Z2.00000
G0 X168.59000 Y-93.75000
G1 Z-1.00000
G1 Z2.00000
G0 X171.13000 Y-93.75000
G1 Z-1.00000
G1 Z2.00000
G0 X173.67000 Y-93.75000
G1 Z-1.00000
G1 Z2.00000
G0 X176.21000 Y-93.75000
G1 Z-1.00000
G1 Z2.00000
G0 X178.75000 Y-93.75000
G1 Z-1.00000
G1 Z2.00000
G0 X181.29000 Y-93.75000
G1 Z-1.00000
G1 Z2.00000
G0 X183.83000 Y-93.75000
G1 Z-1.00000
G1 Z2.00000
G0 X183.40000 Y-100.30000
G1 Z-1.00000
G1 Z2.00000
G0 X181.26000 Y-105.50000
G1 Z-1.00000
G1 Z2.00000
G0 X183.80000 Y-105.50000
G1 Z-1.00000
G1 Z2.00000
G0 X178.74000 Y-112.25000
G1 Z-1.00000
G1 Z2.00000
G0 X176.20000 Y-112.25000
G1 Z-1.00000
G1 Z2.00000
G0 X173.66000 Y-112.25000
G1 Z-1.00000
G1 Z2.00000
G0 X171.12000 Y-112.25000
G1 Z-1.00000
G1 Z2.00000
G0 X168.58000 Y-112.25000
G1 Z-1.00000
G1 Z2.00000
G0 X166.04000 Y-112.25000
G1 Z-1.00000
G1 Z2.00000
G0 X163.24000 Y-118.51000
G1 Z-1.00000
G1 Z2.00000
G0 X163.24000 Y-121.05000
G1 Z-1.00000
G1 Z2.00000
G0 X163.24000 Y-123.59000
G1 Z-1.00000
G1 Z2.00000
G0 X163.24000 Y-126.13000
G1 Z-1.00000
G1 Z2.00000
G0 X160.70000 Y-128.67000
G1 Z-1.00000
G1 Z2.00000
G0 X160.70000 Y-126.13000
G1 Z-1.00000
G1 Z2.00000
G0 X160.70000 Y-123.59000
G1 Z-1.00000
G1 Z2.00000
G0 X160.70000 Y-121.05000
G1 Z-1.00000
G1 Z2.00000
G0 X160.70000 Y-118.51000
G1 Z-1.00000
G1 Z2.00000
G0 X157.60000 Y-115.50000
G1 Z-1.00000
G1 Z2.00000
G0 X155.60000 Y-113.80000
G1 Z-1.00000
G1 Z2.00000
G0 X153.30000 Y-102.80000
G1 Z-1.00000
G1 Z2.00000
G0 X152.50000 Y-99.15000
G1 Z-1.00000
G1 Z2.00000
G0 X151.20600 Y-97.37100
G1 Z-1.00000
G1 Z2.00000
G0 X153.90000 Y-95.20000
G1 Z-1.00000
G1 Z2.00000
G0 X154.00000 Y-92.55000
G1 Z-1.00000
G1 Z2.00000
G0 X155.30000 Y-88.20000
G1 Z-1.00000
G1 Z2.00000
G0 X135.65000 Y-91.67000
G1 Z-1.00000
G1 Z2.00000
G0 X134.95000 Y-90.97000
G1 Z-1.00000
G1 Z2.00000
G0 X133.55000 Y-90.97000
G1 Z-1.00000
G1 Z2.00000
G0 X134.25000 Y-91.67000
G1 Z-1.00000
G1 Z2.00000
G0 X133.55000 Y-92.37000
G1 Z-1.00000
G1 Z2.00000
G0 X134.25000 Y-93.07000
G1 Z-1.00000
G1 Z2.00000
G0 X134.95000 Y-92.37000
G1 Z-1.00000
G1 Z2.00000
G0 X135.65000 Y-93.07000
G1 Z-1.00000
G1 Z2.00000
G0 X134.95000 Y-93.77000
G1 Z-1.00000
G1 Z2.00000
G0 X133.55000 Y-93.77000
G1 Z-1.00000
G1 Z2.00000
G0 X132.85000 Y-93.07000
G1 Z-1.00000
G1 Z2.00000
G0 X132.85000 Y-91.67000
G1 Z-1.00000
G1 Z2.00000
G0 X121.22500 Y-97.38000
G1 Z-1.00000
G1 Z2.00000

G00 Z35.000 ( All done -- retract )

M5      (Spindle off.)
G04 P1.000000
M9      (Coolant off.)
M2      (Program end.)

