( pcb2gcode 3.0.4 )
( Software-independent Gcode )

G94 ( Millimeters per minute feed rate. )
G21 ( Units == Millimeters. )

G90 ( Absolute coordinates. )
G00 S24000 ( RPM spindle speed. )
G01 F600.00000 ( Feedrate. )


G00 Z35.00000 (Retract to tool change height)
T1
M5      (Spindle stop.)
G04 P1.00000 (Wait for spindle to stop)
(MSG, Change tool bit to mill diameter 0.20000mm)
M0      (Temporary machine stop.)
M3 ( Spindle on clockwise. )
G04 P1.00000 (Wait for spindle to get up to speed)
G04 P0 ( dwell for no time -- G64 should not smooth over this point )
G00 Z2.00000 ( retract )

G00 X80.84950 Y-82.21472 ( rapid move to begin. )
G01 F100.00000
( Mill infeed pass 1/1 )
G01 Z-0.10000
G04 P0 ( dwell for no time -- G64 should not smooth over this point )
G01 F600.00000
G01 X80.84950 Y-82.21472
G01 X80.84950 Y-81.98523
G01 X80.87942 Y-81.75772
G01 X80.93883 Y-81.53608
G01 X81.02663 Y-81.32409
G01 X81.14137 Y-81.12536
G01 X81.28107 Y-80.94332
G01 X81.44330 Y-80.78107
G01 X81.62534 Y-80.64137
G01 X81.82409 Y-80.52664
G01 X82.03608 Y-80.43883
G01 X82.25772 Y-80.37942
G01 X82.48523 Y-80.34950
G01 X82.71472 Y-80.34950
G01 X82.94223 Y-80.37942
G01 X83.16387 Y-80.43883
G01 X83.37586 Y-80.52664
G01 X83.57459 Y-80.64137
G01 X83.75663 Y-80.78107
G01 X83.91888 Y-80.94330
G01 X83.96061 Y-80.99765
G01 X84.05858 Y-81.12534
G01 X84.17331 Y-81.32409
G01 X84.26112 Y-81.53608
G01 X84.32053 Y-81.75772
G01 X84.35045 Y-81.98523
G01 X84.35045 Y-82.21472
G01 X84.32053 Y-82.44223
G01 X84.26112 Y-82.66384
G01 X84.17331 Y-82.87588
G01 X84.05858 Y-83.07459
G01 X83.91888 Y-83.25663
G01 X83.75663 Y-83.41888
G01 X83.57459 Y-83.55858
G01 X83.37586 Y-83.67331
G01 X83.16387 Y-83.76112
G01 X82.94223 Y-83.82053
G01 X82.71472 Y-83.85045
G01 X82.48523 Y-83.85045
G01 X82.25772 Y-83.82053
G01 X82.03611 Y-83.76112
G01 X81.82407 Y-83.67331
G01 X81.62534 Y-83.55858
G01 X81.44330 Y-83.41888
G01 X81.28107 Y-83.25663
G01 X81.14137 Y-83.07459
G01 X81.02663 Y-82.87586
G01 X80.93883 Y-82.66387
G01 X80.87942 Y-82.44220
G01 X80.84950 Y-82.21472
G04 P0 ( dwell for no time -- G64 should not smooth over this point )
G00 Z2.00000 ( retract )

G00 X80.57500 Y-87.64966 ( rapid move to begin. )
G01 F100.00000
( Mill infeed pass 1/1 )
G01 Z-0.10000
G04 P0 ( dwell for no time -- G64 should not smooth over this point )
G01 F600.00000
G01 X80.57500 Y-87.64966
G01 X80.57617 Y-86.41527
G01 X80.57820 Y-86.40056
G01 X80.60449 Y-86.32909
G01 X80.64739 Y-86.27176
G01 X80.70469 Y-86.22886
G01 X80.77611 Y-86.20260
G01 X80.82524 Y-86.19940
G01 X83.05968 Y-86.20056
G01 X83.07438 Y-86.20260
G01 X83.14581 Y-86.22886
G01 X83.20311 Y-86.27176
G01 X83.24601 Y-86.32909
G01 X83.27230 Y-86.40054
G01 X83.27550 Y-86.44964
G01 X83.27431 Y-87.68405
G01 X83.27230 Y-87.69873
G01 X83.24601 Y-87.77018
G01 X83.20311 Y-87.82751
G01 X83.14581 Y-87.87041
G01 X83.07438 Y-87.89667
G01 X83.02523 Y-87.89990
G01 X80.79082 Y-87.89871
G01 X80.77611 Y-87.89667
G01 X80.70469 Y-87.87041
G01 X80.64739 Y-87.82751
G01 X80.60449 Y-87.77018
G01 X80.57820 Y-87.69871
G01 X80.57500 Y-87.64966
G04 P0 ( dwell for no time -- G64 should not smooth over this point )
G00 Z2.00000 ( retract )

G00 X80.67515 Y-89.85852 ( rapid move to begin. )
G01 F100.00000
( Mill infeed pass 1/1 )
G01 Z-0.10000
G04 P0 ( dwell for no time -- G64 should not smooth over this point )
G01 F600.00000
G01 X80.67515 Y-89.85852
G01 X80.67670 Y-89.91643
G01 X80.69722 Y-90.04838
G01 X80.73885 Y-90.17536
G01 X80.79768 Y-90.29172
G01 X80.82623 Y-90.33373
G01 X80.87777 Y-90.40264
G01 X80.95516 Y-90.48102
G01 X81.00200 Y-90.51999
G01 X81.08031 Y-90.57571
G01 X81.17108 Y-90.62288
G01 X81.22735 Y-90.64630
G01 X81.32646 Y-90.67764
G01 X81.40296 Y-90.69100
G01 X81.45841 Y-90.69855
G01 X81.56308 Y-90.69934
G01 X81.62384 Y-90.69438
G01 X81.72404 Y-90.67767
G01 X81.85099 Y-90.63604
G01 X81.89587 Y-90.61483
G01 X81.97050 Y-90.57541
G01 X82.07822 Y-90.49705
G01 X82.17251 Y-90.40244
G01 X82.25127 Y-90.29456
G01 X82.31167 Y-90.17536
G01 X82.32666 Y-90.13373
G01 X82.35312 Y-90.04836
G01 X82.36745 Y-89.96619
G01 X82.37446 Y-89.90566
G01 X82.37459 Y-89.79581
G01 X82.35328 Y-89.65085
G01 X82.31165 Y-89.52390
G01 X82.28980 Y-89.47767
G01 X82.25112 Y-89.40482
G01 X82.17261 Y-89.29670
G01 X82.07809 Y-89.20236
G01 X81.97014 Y-89.12362
G01 X81.87294 Y-89.07325
G01 X81.79432 Y-89.04315
G01 X81.72404 Y-89.02172
G01 X81.63827 Y-89.00693
G01 X81.57769 Y-89.00030
G01 X81.46773 Y-89.00043
G01 X81.32646 Y-89.02162
G01 X81.22724 Y-89.05301
G01 X81.15010 Y-89.08666
G01 X81.08041 Y-89.12372
G01 X81.01353 Y-89.17066
G01 X80.96565 Y-89.20836
G01 X80.88645 Y-89.28740
G01 X80.79918 Y-89.40467
G01 X80.73387 Y-89.53673
G01 X80.70009 Y-89.64115
G01 X80.68815 Y-89.70094
G01 X80.67632 Y-89.78283
G01 X80.67515 Y-89.85852
G04 P0 ( dwell for no time -- G64 should not smooth over this point )
G00 Z2.00000 ( retract )

G00 X80.67558 Y-97.87293 ( rapid move to begin. )
G01 F100.00000
( Mill infeed pass 1/1 )
G01 Z-0.10000
G04 P0 ( dwell for no time -- G64 should not smooth over this point )
G01 F600.00000
G01 X80.67558 Y-97.87293
G01 X80.67680 Y-97.91758
G01 X80.69727 Y-98.04839
G01 X80.72509 Y-98.13742
G01 X80.74736 Y-98.19416
G01 X80.79930 Y-98.29452
G01 X80.84843 Y-98.36422
G01 X80.88645 Y-98.41187
G01 X80.97243 Y-98.49688
G01 X81.08031 Y-98.57572
G01 X81.19951 Y-98.63602
G01 X81.25137 Y-98.65449
G01 X81.32646 Y-98.67765
G01 X81.45843 Y-98.69856
G01 X81.59204 Y-98.69818
G01 X81.72407 Y-98.67765
G01 X81.85099 Y-98.63602
G01 X81.89587 Y-98.61484
G01 X81.97050 Y-98.57542
G01 X82.07822 Y-98.49706
G01 X82.17251 Y-98.40244
G01 X82.25127 Y-98.29457
G01 X82.31167 Y-98.17537
G01 X82.32666 Y-98.13374
G01 X82.35312 Y-98.04837
G01 X82.36745 Y-97.96620
G01 X82.37446 Y-97.90567
G01 X82.37398 Y-97.78284
G01 X82.35328 Y-97.65086
G01 X82.32308 Y-97.55505
G01 X82.28983 Y-97.47773
G01 X82.25112 Y-97.40481
G01 X82.17263 Y-97.29673
G01 X82.07809 Y-97.20237
G01 X81.97014 Y-97.12363
G01 X81.85099 Y-97.06323
G01 X81.79224 Y-97.04250
G01 X81.72404 Y-97.02160
G01 X81.59206 Y-97.00103
G01 X81.45843 Y-97.00090
G01 X81.32646 Y-97.02162
G01 X81.22735 Y-97.05297
G01 X81.15003 Y-97.08670
G01 X81.08041 Y-97.12373
G01 X80.97236 Y-97.20229
G01 X80.87802 Y-97.29683
G01 X80.79918 Y-97.40468
G01 X80.73387 Y-97.53674
G01 X80.70009 Y-97.64113
G01 X80.68815 Y-97.70092
G01 X80.67779 Y-97.77306
G01 X80.67558 Y-97.87293
G04 P0 ( dwell for no time -- G64 should not smooth over this point )
G00 Z2.00000 ( retract )

G00 X76.70048 Y-102.51803 ( rapid move to begin. )
G01 F100.00000
( Mill infeed pass 1/1 )
G01 Z-0.10000
G04 P0 ( dwell for no time -- G64 should not smooth over this point )
G01 F600.00000
G01 X76.70048 Y-102.51803
G01 X76.70048 Y-76.70048
G01 X142.46045 Y-76.70048
G01 X142.63119 Y-77.34762
G01 X143.02560 Y-78.68384
G01 X143.41998 Y-79.86133
G01 X143.48986 Y-80.05585
G01 X143.91041 Y-81.13225
G01 X144.33095 Y-82.01960
G01 X144.62265 Y-82.56953
G01 X144.91861 Y-83.06440
G01 X144.97426 Y-83.14558
G01 X145.16438 Y-83.39480
G01 X145.35452 Y-83.58774
G01 X145.42440 Y-83.64830
G01 X145.65927 Y-83.80369
G01 X145.72912 Y-83.83562
G01 X145.89196 Y-83.88452
G01 X146.03379 Y-83.89973
G01 X146.58421 Y-83.89973
G01 X146.63765 Y-83.89757
G01 X146.73270 Y-83.88347
G01 X146.79430 Y-83.83748
G01 X146.84911 Y-83.79005
G01 X147.09691 Y-83.54235
G01 X147.15500 Y-83.47281
G01 X147.19554 Y-83.41451
G01 X147.27428 Y-83.25472
G01 X147.29899 Y-83.18055
G01 X147.34797 Y-82.91012
G01 X147.36925 Y-82.65973
G01 X147.38365 Y-82.41561
G01 X147.39041 Y-82.22282
G01 X147.40034 Y-81.45120
G01 X147.42544 Y-77.98666
G01 X147.42820 Y-76.70048
G01 X142.46045 Y-76.70048
G01 X188.69950 Y-76.70048
G01 X188.69950 Y-144.59948
G01 X76.70048 Y-144.59948
G01 X76.70048 Y-102.51803
G01 X77.16556 Y-102.40543
G01 X77.44516 Y-102.34516
G01 X77.55646 Y-102.31242
G01 X77.62845 Y-102.28555
G01 X77.77805 Y-102.20505
G01 X77.83457 Y-102.16276
G01 X77.88910 Y-102.11552
G01 X80.25232 Y-99.75230
G01 X80.28615 Y-99.72131
G01 X80.35674 Y-99.67951
G01 X80.43400 Y-99.65591
G01 X80.49999 Y-99.64971
G01 X87.47549 Y-99.64971
G01 X87.58210 Y-99.64113
G01 X87.71781 Y-99.60851
G01 X87.78390 Y-99.58387
G01 X87.83452 Y-99.41733
G01 X87.84458 Y-99.34745
G01 X87.84974 Y-99.27547
G01 X87.85136 Y-83.81561
G01 X87.87529 Y-83.72701
G01 X87.92131 Y-83.64766
G01 X87.95230 Y-83.61383
G01 X91.54772 Y-80.02138
G01 X91.62692 Y-79.97507
G01 X91.71564 Y-79.95181
G01 X91.76156 Y-79.94973
G01 X104.04584 Y-79.95153
G01 X104.13454 Y-79.97507
G01 X104.21371 Y-80.02135
G01 X104.24762 Y-80.05232
G01 X108.11045 Y-83.91510
G01 X108.14957 Y-83.95122
G01 X108.22709 Y-84.00872
G01 X108.30306 Y-84.01977
G01 X108.37509 Y-84.02505
G01 X108.64718 Y-84.02551
G01 X108.70959 Y-84.03331
G01 X108.82211 Y-84.07006
G01 X108.92104 Y-84.13156
G01 X109.09836 Y-84.31063
G01 X109.20451 Y-84.40613
G01 X109.25607 Y-84.40798
G01 X109.30816 Y-84.40791
G01 X109.38020 Y-84.34017
G01 X109.56491 Y-84.15371
G01 X109.61256 Y-84.11555
G01 X109.68833 Y-84.07113
G01 X109.80036 Y-84.03344
G01 X109.89998 Y-84.02472
G01 X110.84999 Y-84.02472
G01 X110.93384 Y-84.03105
G01 X110.99089 Y-84.04532
G01 X111.06206 Y-84.07019
G01 X111.16114 Y-84.13143
G01 X111.33008 Y-84.30374
G01 X111.44265 Y-84.40839
G01 X111.56033 Y-84.41012
G01 X111.83882 Y-84.13143
G01 X111.93810 Y-84.07062
G01 X112.04852 Y-84.03387
G01 X112.14486 Y-84.02475
G01 X112.83909 Y-84.02401
G01 X112.96066 Y-84.00854
G01 X113.02251 Y-83.96232
G01 X113.07702 Y-83.91510
G01 X113.37369 Y-83.62140
G01 X113.64839 Y-83.44792
G01 X113.77600 Y-83.34967
G01 X113.90363 Y-83.21878
G01 X113.97356 Y-83.13811
G01 X114.12070 Y-82.94939
G01 X114.26784 Y-82.72262
G01 X114.56223 Y-82.15478
G01 X114.63221 Y-82.00172
G01 X114.93376 Y-81.26931
G01 X115.23538 Y-80.39080
G01 X115.23510 Y-80.29971
G01 X115.48293 Y-79.86080
G01 X115.76599 Y-79.42189
G01 X116.08427 Y-78.98300
G01 X116.47259 Y-78.50294
G01 X116.84841 Y-78.07792
G01 X117.28549 Y-77.62448
G01 X117.95201 Y-76.91780
G01 X118.13609 Y-76.70048
G01 X117.95201 Y-76.91780
G01 X117.28549 Y-77.62448
G01 X116.84841 Y-78.07792
G01 X116.43782 Y-78.54409
G01 X116.08427 Y-78.98300
G01 X115.76599 Y-79.42189
G01 X115.48293 Y-79.86080
G01 X115.23510 Y-80.29971
G01 X115.23538 Y-80.39080
G01 X115.30150 Y-80.59786
G01 X115.54620 Y-81.31376
G01 X115.79098 Y-81.92864
G01 X116.03584 Y-82.44248
G01 X116.28077 Y-82.85531
G01 X116.35057 Y-82.95856
G01 X116.52324 Y-83.18574
G01 X116.69596 Y-83.35660
G01 X116.76578 Y-83.41429
G01 X116.89743 Y-83.50428
G01 X116.98440 Y-83.55317
G01 X117.09164 Y-83.62384
G01 X117.69969 Y-84.22635
G01 X117.77673 Y-84.28352
G01 X117.85310 Y-84.29455
G01 X117.92509 Y-84.29970
G01 X125.68585 Y-84.29970
G01 X125.76698 Y-84.29315
G01 X125.84529 Y-84.28045
G01 X125.95222 Y-84.25221
G01 X125.97963 Y-84.18342
G01 X126.02426 Y-84.08881
G01 X126.08606 Y-84.00661
G01 X126.14305 Y-83.94502
G01 X126.24999 Y-83.84804
G01 X126.42860 Y-83.65696
G01 X126.49848 Y-83.56691
G01 X126.63922 Y-83.36476
G01 X126.69660 Y-83.23539
G01 X126.87892 Y-82.79260
G01 X127.03955 Y-82.37896
G01 X127.17310 Y-82.02013
G01 X127.43045 Y-81.49920
G01 X127.68783 Y-80.90738
G01 X128.01293 Y-80.07642
G01 X128.28687 Y-79.29273
G01 X128.56083 Y-78.43172
G01 X128.83477 Y-77.49334
G01 X129.04076 Y-76.70048
G01 X153.35913 Y-76.70048
G01 X153.74955 Y-77.14010
G01 X154.21442 Y-77.62448
G01 X159.12544 Y-82.53547
G01 X159.24665 Y-82.64495
G01 X159.29935 Y-82.68741
G01 X159.49943 Y-82.81375
G01 X159.56930 Y-82.84566
G01 X159.73212 Y-82.89455
G01 X159.87398 Y-82.90977
G01 X180.75003 Y-82.90977
G01 X180.81361 Y-82.91251
G01 X180.95801 Y-82.94126
G01 X181.09402 Y-82.99755
G01 X181.21655 Y-83.07926
G01 X181.25608 Y-83.11535
G01 X183.72036 Y-85.57636
G01 X183.79742 Y-85.63353
G01 X183.87377 Y-85.64456
G01 X183.94576 Y-85.64971
G01 X184.68000 Y-85.64971
G01 X184.72909 Y-85.65294
G01 X184.80052 Y-85.67920
G01 X184.85785 Y-85.72213
G01 X184.90075 Y-85.77943
G01 X184.92701 Y-85.85086
G01 X184.93021 Y-85.89996
G01 X184.93021 Y-87.59995
G01 X184.92701 Y-87.64910
G01 X184.90075 Y-87.72053
G01 X184.85782 Y-87.77783
G01 X184.79745 Y-87.82268
G01 X184.73265 Y-87.85471
G01 X184.62810 Y-87.89810
G01 X184.59544 Y-88.02230
G01 X184.58023 Y-88.16414
G01 X184.58038 Y-92.34470
G01 X184.58853 Y-92.43512
G01 X184.60115 Y-92.50497
G01 X184.62772 Y-92.60223
G01 X184.69607 Y-92.62946
G01 X184.85907 Y-92.72354
G01 X184.90075 Y-92.77942
G01 X184.92701 Y-92.85084
G01 X184.93021 Y-92.89997
G01 X184.92904 Y-94.63441
G01 X184.92701 Y-94.64911
G01 X184.90075 Y-94.72054
G01 X184.85785 Y-94.77784
G01 X184.80052 Y-94.82074
G01 X184.72904 Y-94.84703
G01 X184.71434 Y-94.84906
G01 X182.94561 Y-94.84906
G01 X182.93090 Y-94.84703
G01 X182.85943 Y-94.82074
G01 X182.80212 Y-94.77781
G01 X182.75922 Y-94.72051
G01 X182.72603 Y-94.62183
G01 X182.70852 Y-94.54985
G01 X182.66120 Y-94.42465
G01 X182.62623 Y-94.35478
G01 X182.52122 Y-94.19194
G01 X182.53593 Y-94.09852
G01 X182.55331 Y-93.93276
G01 X182.55971 Y-93.72201
G01 X182.55417 Y-93.57998
G01 X182.54469 Y-93.47263
G01 X182.53050 Y-93.36387
G01 X182.50456 Y-93.22123
G01 X182.36882 Y-93.13898
G01 X182.25381 Y-93.05869
G01 X182.17581 Y-92.99550
G01 X182.09961 Y-92.92041
G01 X182.05188 Y-92.75328
G01 X182.04023 Y-92.62913
G01 X182.04236 Y-87.81763
G01 X182.06039 Y-87.70021
G01 X182.09720 Y-87.57900
G01 X182.18244 Y-87.49810
G01 X182.27878 Y-87.42065
G01 X182.35658 Y-87.36772
G01 X182.50416 Y-87.27775
G01 X182.52145 Y-87.19167
G01 X182.54502 Y-87.02474
G01 X182.55739 Y-86.85632
G01 X182.55912 Y-86.78141
G01 X182.49041 Y-86.62342
G01 X182.43225 Y-86.50910
G01 X182.37754 Y-86.41298
G01 X182.31371 Y-86.31304
G01 X182.22333 Y-86.18878
G01 X182.15290 Y-86.10321
G01 X182.04279 Y-85.98543
G01 X181.96156 Y-85.90897
G01 X181.79885 Y-85.77704
G01 X181.68643 Y-85.69963
G01 X181.60639 Y-85.65022
G01 X181.49387 Y-85.58789
G01 X181.31305 Y-85.50308
G01 X180.36791 Y-84.55820
G01 X180.25836 Y-84.51743
G01 X180.15552 Y-84.48622
G01 X180.05636 Y-84.46265
G01 X179.95989 Y-84.44583
G01 X179.85235 Y-84.43427
G01 X179.73998 Y-84.42996
G01 X158.29999 Y-84.42996
G01 X158.22323 Y-84.43204
G01 X158.10428 Y-84.44271
G01 X157.97784 Y-84.46397
G01 X157.79191 Y-84.51413
G01 X157.62529 Y-84.57738
G01 X157.49971 Y-84.50623
G01 X157.42983 Y-84.47433
G01 X157.26705 Y-84.42543
G01 X157.12521 Y-84.41022
G01 X151.92118 Y-84.41022
G01 X151.84006 Y-84.41680
G01 X151.76175 Y-84.42950
G01 X151.58405 Y-84.48838
G01 X151.51417 Y-84.52333
G01 X151.28738 Y-84.68106
G01 X150.64661 Y-84.67999
G01 X150.46528 Y-84.69135
G01 X150.30135 Y-84.72035
G01 X150.23018 Y-84.73813
G01 X150.09632 Y-84.77984
G01 X149.99868 Y-84.81769
G01 X149.81517 Y-84.75096
G01 X149.75411 Y-84.73371
G01 X149.62891 Y-84.70570
G01 X149.46981 Y-84.68507
G01 X149.35512 Y-84.67999
G01 X148.65002 Y-84.67997
G01 X148.46661 Y-84.69097
G01 X148.33963 Y-84.77087
G01 X148.24352 Y-84.84342
G01 X148.11990 Y-84.95716
G01 X148.02211 Y-85.06943
G01 X147.99107 Y-85.11040
G01 X147.93247 Y-85.19660
G01 X147.88109 Y-85.28317
G01 X147.62846 Y-85.38436
G01 X147.48761 Y-85.42731
G01 X147.36145 Y-85.45556
G01 X147.28101 Y-85.46864
G01 X147.14441 Y-85.48197
G01 X145.58566 Y-85.48426
G01 X145.57139 Y-85.46998
G01 X145.41066 Y-85.34946
G01 X145.24998 Y-85.30928
G01 X143.74995 Y-85.30938
G01 X143.59179 Y-85.34834
G01 X143.43360 Y-85.46523
G01 X143.26748 Y-85.41489
G01 X143.12549 Y-85.39968
G01 X135.37446 Y-85.40018
G01 X135.26783 Y-85.40877
G01 X135.13211 Y-85.44138
G01 X135.06607 Y-85.46602
G01 X135.01545 Y-85.63265
G01 X135.00539 Y-85.70250
G01 X135.00024 Y-85.77448
G01 X135.00024 Y-89.79548
G01 X135.00313 Y-89.84938
G01 X135.00880 Y-89.90208
G01 X135.04141 Y-90.03779
G01 X135.06607 Y-90.10388
G01 X135.06983 Y-90.10561
G01 X135.23262 Y-90.15451
G01 X135.37448 Y-90.16972
G01 X136.19998 Y-90.16972
G01 X136.24905 Y-90.17292
G01 X136.32053 Y-90.19924
G01 X136.37783 Y-90.24211
G01 X136.42073 Y-90.29941
G01 X136.44702 Y-90.37086
G01 X136.45022 Y-90.41996
G01 X136.44903 Y-94.35440
G01 X136.44702 Y-94.36910
G01 X136.42073 Y-94.44050
G01 X136.37783 Y-94.49783
G01 X136.32050 Y-94.54073
G01 X136.24911 Y-94.56702
G01 X136.19998 Y-94.57022
G01 X132.26555 Y-94.56903
G01 X132.25087 Y-94.56702
G01 X132.17942 Y-94.54073
G01 X132.12211 Y-94.49783
G01 X132.07921 Y-94.44053
G01 X132.05292 Y-94.36908
G01 X132.04972 Y-94.31995
G01 X132.04972 Y-90.41996
G01 X132.05292 Y-90.37086
G01 X132.07921 Y-90.29944
G01 X132.12211 Y-90.24211
G01 X132.17942 Y-90.19924
G01 X132.25089 Y-90.17292
G01 X132.29999 Y-90.16972
G01 X133.12549 Y-90.16972
G01 X133.23199 Y-90.16116
G01 X133.36781 Y-90.12855
G01 X133.43390 Y-90.10391
G01 X133.48449 Y-89.93729
G01 X133.49973 Y-89.79548
G01 X133.49973 Y-85.77448
G01 X133.49117 Y-85.66795
G01 X133.45851 Y-85.53206
G01 X133.43387 Y-85.46602
G01 X133.26732 Y-85.41540
G01 X133.12546 Y-85.40018
G01 X128.37447 Y-85.39985
G01 X128.26776 Y-85.40844
G01 X128.13185 Y-85.44108
G01 X128.06627 Y-85.46554
G01 X128.01544 Y-85.63262
G01 X128.00541 Y-85.70250
G01 X128.00023 Y-85.77448
G01 X127.99906 Y-86.40435
G01 X127.98910 Y-86.44641
G01 X127.95291 Y-86.55497
G01 X127.99703 Y-86.69091
G01 X128.00023 Y-86.73998
G01 X127.99906 Y-87.67435
G01 X127.98910 Y-87.71641
G01 X127.95291 Y-87.82497
G01 X127.99703 Y-87.96091
G01 X128.00023 Y-88.00998
G01 X127.99906 Y-88.94435
G01 X127.98910 Y-88.98641
G01 X127.95291 Y-89.09497
G01 X127.99703 Y-89.23091
G01 X128.00023 Y-89.27998
G01 X127.99906 Y-90.21435
G01 X127.98910 Y-90.25641
G01 X127.95291 Y-90.36497
G01 X127.99703 Y-90.50091
G01 X128.00023 Y-90.54996
G01 X127.99906 Y-91.48435
G01 X127.98910 Y-91.52641
G01 X127.95291 Y-91.63497
G01 X127.99703 Y-91.77091
G01 X128.00023 Y-91.81998
G01 X127.99906 Y-92.75435
G01 X127.98910 Y-92.79641
G01 X127.95291 Y-92.90497
G01 X127.99703 Y-93.04091
G01 X128.00023 Y-93.08998
G01 X127.99906 Y-94.02435
G01 X127.98910 Y-94.06641
G01 X127.95291 Y-94.17497
G01 X127.99703 Y-94.31091
G01 X128.00023 Y-94.35998
G01 X127.99906 Y-95.29435
G01 X127.98910 Y-95.33641
G01 X127.95291 Y-95.44497
G01 X127.99703 Y-95.58091
G01 X128.00023 Y-95.62998
G01 X127.99906 Y-96.56435
G01 X127.98910 Y-96.60641
G01 X127.95291 Y-96.71497
G01 X127.99703 Y-96.85091
G01 X128.00023 Y-96.89996
G01 X127.99906 Y-97.83435
G01 X127.98910 Y-97.87641
G01 X127.95291 Y-97.98497
G01 X127.99703 Y-98.12091
G01 X128.00023 Y-98.16998
G01 X127.99906 Y-99.10435
G01 X127.98910 Y-99.14641
G01 X127.95291 Y-99.25497
G01 X127.97518 Y-99.31662
G01 X127.99906 Y-99.40562
G01 X128.00023 Y-100.33996
G01 X127.99657 Y-100.39198
G01 X127.95291 Y-100.52497
G01 X127.97518 Y-100.58662
G01 X127.99906 Y-100.67562
G01 X128.00023 Y-101.03548
G01 X128.00879 Y-101.14199
G01 X128.04140 Y-101.27780
G01 X128.09088 Y-101.40307
G01 X128.23073 Y-101.40104
G01 X128.37447 Y-101.40973
G01 X129.24940 Y-101.41092
G01 X129.29141 Y-101.42083
G01 X129.39997 Y-101.45702
G01 X129.53586 Y-101.41293
G01 X129.58496 Y-101.40973
G01 X130.51940 Y-101.41092
G01 X130.56141 Y-101.42083
G01 X130.66997 Y-101.45702
G01 X130.80586 Y-101.41293
G01 X130.85498 Y-101.40973
G01 X131.78940 Y-101.41092
G01 X131.83141 Y-101.42083
G01 X131.93997 Y-101.45702
G01 X132.07586 Y-101.41293
G01 X132.12498 Y-101.40973
G01 X133.05940 Y-101.41092
G01 X133.10141 Y-101.42083
G01 X133.20997 Y-101.45702
G01 X133.27162 Y-101.43477
G01 X133.36057 Y-101.41092
G01 X134.29498 Y-101.40973
G01 X134.34703 Y-101.41339
G01 X134.47997 Y-101.45702
G01 X134.48002 Y-107.35495
G01 X134.47662 Y-107.43308
G01 X134.50054 Y-107.62524
G01 X134.50659 Y-107.73791
G01 X134.50679 Y-107.85218
G01 X134.49849 Y-107.99897
G01 X134.47138 Y-108.22620
G01 X134.46095 Y-108.35295
G01 X134.45376 Y-108.55556
G01 X134.45465 Y-108.64416
G01 X134.32269 Y-108.72681
G01 X134.20481 Y-108.82607
G01 X134.16544 Y-108.96702
G01 X134.15023 Y-109.10887
G01 X134.15023 Y-114.25547
G01 X134.15879 Y-114.36200
G01 X134.19143 Y-114.49789
G01 X134.21604 Y-114.56388
G01 X134.38266 Y-114.61448
G01 X134.52450 Y-114.62972
G01 X139.82324 Y-114.62888
G01 X139.93807 Y-114.61272
G01 X140.17450 Y-114.44089
G01 X140.27130 Y-114.38936
G01 X140.36459 Y-114.34905
G01 X140.49276 Y-114.30859
G01 X140.51966 Y-114.30348
G01 X140.66352 Y-114.28186
G01 X140.78143 Y-114.28011
G01 X140.88280 Y-114.28758
G01 X141.00713 Y-114.30876
G01 X141.17147 Y-114.36238
G01 X141.32537 Y-114.44084
G01 X141.56121 Y-114.61341
G01 X141.63820 Y-114.62454
G01 X141.71018 Y-114.62972
G01 X141.87581 Y-114.62972
G01 X141.94678 Y-114.62593
G01 X142.03025 Y-114.61308
G01 X142.14226 Y-114.58222
G01 X142.20985 Y-114.42459
G01 X142.26212 Y-114.35212
G01 X142.31945 Y-114.30922
G01 X142.39085 Y-114.28293
G01 X142.44000 Y-114.27973
G01 X144.14000 Y-114.27973
G01 X144.18909 Y-114.28293
G01 X144.26052 Y-114.30919
G01 X144.31782 Y-114.35212
G01 X144.36075 Y-114.40945
G01 X144.38701 Y-114.48082
G01 X144.38904 Y-114.49555
G01 X144.38904 Y-116.26439
G01 X144.38701 Y-116.27909
G01 X144.36075 Y-116.35052
G01 X144.31785 Y-116.40784
G01 X144.26052 Y-116.45074
G01 X144.16179 Y-116.48397
G01 X144.08975 Y-116.50147
G01 X143.96481 Y-116.54869
G01 X143.89494 Y-116.58364
G01 X143.73202 Y-116.68864
G01 X143.58849 Y-116.66779
G01 X143.48681 Y-116.65786
G01 X143.26362 Y-116.65049
G01 X143.14165 Y-116.65468
G01 X142.97119 Y-116.67030
G01 X142.76088 Y-116.70513
G01 X142.60944 Y-116.59398
G01 X142.44000 Y-116.50556
G01 X142.32293 Y-116.45295
G01 X142.26212 Y-116.40782
G01 X142.21201 Y-116.33899
G01 X142.14185 Y-116.17810
G01 X142.03916 Y-116.14831
G01 X141.92065 Y-116.13223
G01 X141.69184 Y-116.13081
G01 X141.56159 Y-116.14729
G01 X141.37366 Y-116.28580
G01 X141.23261 Y-116.38072
G01 X141.15504 Y-116.43980
G01 X141.01021 Y-116.57871
G01 X140.94544 Y-116.65019
G01 X140.77902 Y-116.65024
G01 X140.55451 Y-116.65003
G01 X140.41971 Y-116.50873
G01 X140.35042 Y-116.44409
G01 X140.28473 Y-116.39370
G01 X140.13167 Y-116.28953
G01 X139.94369 Y-116.14973
G01 X139.86175 Y-116.13540
G01 X139.78976 Y-116.13022
G01 X131.16413 Y-116.13022
G01 X131.08300 Y-116.13680
G01 X131.00467 Y-116.14950
G01 X130.89773 Y-116.17772
G01 X130.87048 Y-116.24607
G01 X130.77640 Y-116.40906
G01 X130.71696 Y-116.45301
G01 X130.59999 Y-116.50452
G01 X130.46593 Y-116.57211
G01 X130.39606 Y-116.61701
G01 X130.27795 Y-116.70563
G01 X130.17172 Y-116.68526
G01 X130.01785 Y-116.66436
G01 X129.91617 Y-116.65567
G01 X129.76367 Y-116.65026
G01 X129.62445 Y-116.65328
G01 X129.47449 Y-116.66517
G01 X129.32047 Y-116.68656
G01 X129.22159 Y-116.70571
G01 X129.15631 Y-116.81526
G01 X129.07444 Y-116.93398
G01 X129.01016 Y-117.01772
G01 X128.92087 Y-117.11013
G01 X128.75329 Y-117.15806
G01 X128.62913 Y-117.16972
G01 X128.17015 Y-117.16972
G01 X128.09819 Y-117.16454
G01 X128.02121 Y-117.15341
G01 X127.83368 Y-117.01422
G01 X127.67516 Y-116.90629
G01 X127.61493 Y-116.86040
G01 X127.54023 Y-116.79121
G01 X127.40536 Y-116.65011
G01 X127.01407 Y-116.65057
G01 X126.94531 Y-116.72585
G01 X126.79944 Y-116.86482
G01 X126.72743 Y-116.91932
G01 X126.59170 Y-117.01036
G01 X126.39873 Y-117.15435
G01 X126.32073 Y-117.16591
G01 X126.24979 Y-117.16972
G01 X126.12446 Y-117.16972
G01 X126.05250 Y-117.16454
G01 X125.98265 Y-117.15448
G01 X125.81606 Y-117.10386
G01 X125.79144 Y-117.03797
G01 X125.75878 Y-116.90200
G01 X125.75311 Y-116.84927
G01 X125.75022 Y-116.79550
G01 X125.75022 Y-116.37975
G01 X125.75540 Y-116.30779
G01 X125.76543 Y-116.23792
G01 X125.81433 Y-116.07508
G01 X125.84623 Y-116.00520
G01 X125.96655 Y-115.81265
G01 X126.16744 Y-115.92933
G01 X126.25334 Y-115.99306
G01 X126.34531 Y-116.07056
G01 X126.49373 Y-116.21691
G01 X126.60612 Y-116.29969
G01 X126.75969 Y-116.40467
G01 X126.83635 Y-116.46718
G01 X127.01407 Y-116.65057
G01 X127.40536 Y-116.65011
G01 X127.49144 Y-116.55704
G01 X127.62878 Y-116.42806
G01 X127.69225 Y-116.38031
G01 X127.88166 Y-116.25102
G01 X128.02121 Y-116.14559
G01 X128.08176 Y-116.13556
G01 X128.15184 Y-116.13081
G01 X128.33426 Y-116.13022
G01 X128.40777 Y-116.13540
G01 X128.47764 Y-116.14544
G01 X128.60185 Y-116.17810
G01 X128.64523 Y-116.28265
G01 X128.67726 Y-116.34744
G01 X128.72212 Y-116.40782
G01 X128.78293 Y-116.45295
G01 X128.90000 Y-116.50556
G01 X129.06944 Y-116.59398
G01 X129.22159 Y-116.70571
G01 X129.32047 Y-116.68656
G01 X129.47449 Y-116.66517
G01 X129.62445 Y-116.65328
G01 X129.76367 Y-116.65026
G01 X129.91617 Y-116.65567
G01 X130.01785 Y-116.66436
G01 X130.17172 Y-116.68526
G01 X130.27795 Y-116.70563
G01 X130.34099 Y-116.80960
G01 X130.42925 Y-116.94102
G01 X130.49484 Y-117.02275
G01 X130.57838 Y-117.11102
G01 X130.72902 Y-117.15448
G01 X130.87083 Y-117.16972
G01 X139.82324 Y-117.16888
G01 X139.93807 Y-117.15272
G01 X139.96899 Y-117.13223
G01 X140.13170 Y-117.01036
G01 X140.26744 Y-116.91932
G01 X140.33944 Y-116.86482
G01 X140.48532 Y-116.72585
G01 X140.55451 Y-116.65003
G01 X140.71595 Y-116.64970
G01 X140.94544 Y-116.65019
G01 X141.08024 Y-116.79121
G01 X141.15494 Y-116.86040
G01 X141.21516 Y-116.90629
G01 X141.37363 Y-117.01417
G01 X141.56121 Y-117.15341
G01 X141.63820 Y-117.16454
G01 X141.71018 Y-117.16972
G01 X142.16913 Y-117.16972
G01 X142.23197 Y-117.16575
G01 X142.29329 Y-117.15806
G01 X142.44211 Y-117.11788
G01 X142.45989 Y-117.11054
G01 X142.49748 Y-117.07444
G01 X142.57896 Y-116.98262
G01 X142.67950 Y-116.84076
G01 X142.76088 Y-116.70513
G01 X142.91262 Y-116.67833
G01 X143.08300 Y-116.65872
G01 X143.32135 Y-116.65047
G01 X143.48681 Y-116.65786
G01 X143.58849 Y-116.66779
G01 X143.73202 Y-116.68864
G01 X143.84934 Y-116.88765
G01 X143.90774 Y-116.96855
G01 X143.99740 Y-117.07200
G01 X144.10416 Y-117.17625
G01 X144.17015 Y-117.23146
G01 X144.25879 Y-117.24455
G01 X144.33075 Y-117.24973
G01 X147.77255 Y-117.24973
G01 X147.87905 Y-117.24117
G01 X148.01494 Y-117.20850
G01 X148.06447 Y-117.19004
G01 X148.08810 Y-117.16786
G01 X148.13156 Y-117.01729
G01 X148.14677 Y-116.87546
G01 X148.14677 Y-112.22446
G01 X148.13818 Y-112.11786
G01 X148.11817 Y-112.01959
G01 X148.04654 Y-111.94087
G01 X147.97756 Y-111.87836
G01 X147.84451 Y-111.85540
G01 X147.77255 Y-111.85022
G01 X138.10587 Y-111.85022
G01 X138.03031 Y-111.84799
G01 X137.90897 Y-111.82464
G01 X137.84214 Y-111.80234
G01 X137.75136 Y-111.76317
G01 X137.65279 Y-111.69851
G01 X137.59886 Y-111.65319
G01 X134.78304 Y-108.83778
G01 X134.71327 Y-108.77956
G01 X134.65495 Y-108.73905
G01 X134.51421 Y-108.66707
G01 X134.45465 Y-108.64416
G01 X134.45376 Y-108.55556
G01 X134.46095 Y-108.35295
G01 X134.47138 Y-108.22620
G01 X134.49849 Y-107.99897
G01 X134.50710 Y-107.83954
G01 X134.50659 Y-107.73791
G01 X134.50054 Y-107.62524
G01 X134.47662 Y-107.43308
G01 X134.48002 Y-107.35495
G01 X134.47997 Y-101.45702
G01 X134.54162 Y-101.43477
G01 X134.63057 Y-101.41092
G01 X135.56498 Y-101.40973
G01 X135.61703 Y-101.41339
G01 X135.74997 Y-101.45702
G01 X135.74997 Y-107.68206
G01 X135.76010 Y-107.84187
G01 X135.80097 Y-107.90883
G01 X135.85165 Y-107.98089
G01 X135.95363 Y-108.09915
G01 X138.17864 Y-110.32421
G01 X138.27326 Y-110.40923
G01 X138.35563 Y-110.47029
G01 X138.36437 Y-110.47585
G01 X138.44046 Y-110.48886
G01 X138.52540 Y-110.49737
G01 X138.60290 Y-110.49998
G01 X148.34019 Y-110.50077
G01 X148.43691 Y-110.50791
G01 X148.53496 Y-110.52315
G01 X148.65977 Y-110.55411
G01 X148.76633 Y-110.59074
G01 X149.21890 Y-110.77806
G01 X149.40219 Y-111.22015
G01 X149.44578 Y-111.34750
G01 X149.48065 Y-111.50016
G01 X149.49211 Y-111.59068
G01 X149.49686 Y-111.68896
G01 X149.49701 Y-117.50294
G01 X149.49424 Y-117.58270
G01 X149.48525 Y-117.66984
G01 X149.46691 Y-117.77086
G01 X149.43872 Y-117.87619
G01 X149.40216 Y-117.97980
G01 X149.28352 Y-118.26598
G01 X148.95314 Y-118.59613
G01 X148.83920 Y-118.69570
G01 X148.78639 Y-118.73619
G01 X148.64593 Y-118.82945
G01 X148.48596 Y-118.91376
G01 X148.39996 Y-118.86603
G01 X148.28977 Y-118.81432
G01 X148.12701 Y-118.76545
G01 X147.98518 Y-118.75023
G01 X144.14071 Y-118.75023
G01 X144.01559 Y-118.76067
G01 X143.93441 Y-118.81193
G01 X143.72539 Y-118.95491
G01 X143.59529 Y-119.07357
G01 X143.48529 Y-119.19001
G01 X143.09438 Y-119.19021
G01 X143.02532 Y-119.26585
G01 X142.89024 Y-119.39547
G01 X142.80726 Y-119.45910
G01 X142.67170 Y-119.55036
G01 X142.50899 Y-119.67223
G01 X142.47807 Y-119.69272
G01 X142.36324 Y-119.70888
G01 X141.71018 Y-119.70972
G01 X141.63820 Y-119.70454
G01 X141.56121 Y-119.69341
G01 X141.37363 Y-119.55417
G01 X141.21516 Y-119.44629
G01 X141.15494 Y-119.40040
G01 X141.08024 Y-119.33121
G01 X140.94523 Y-119.18998
G01 X140.62682 Y-119.18970
G01 X140.55438 Y-119.19021
G01 X140.48532 Y-119.26585
G01 X140.35024 Y-119.39547
G01 X140.26726 Y-119.45910
G01 X140.13170 Y-119.55036
G01 X139.93807 Y-119.69272
G01 X139.82324 Y-119.70888
G01 X130.71018 Y-119.70972
G01 X130.63819 Y-119.70454
G01 X130.56121 Y-119.69341
G01 X130.37368 Y-119.55422
G01 X130.21516 Y-119.44629
G01 X130.15493 Y-119.40040
G01 X130.08023 Y-119.33121
G01 X129.94543 Y-119.19019
G01 X129.86802 Y-119.18970
G01 X129.55450 Y-119.19003
G01 X129.48531 Y-119.26585
G01 X129.35029 Y-119.39544
G01 X129.26725 Y-119.45910
G01 X129.13169 Y-119.55036
G01 X128.93807 Y-119.69272
G01 X128.80642 Y-119.70944
G01 X128.17015 Y-119.70972
G01 X128.02834 Y-119.69448
G01 X128.01059 Y-119.68653
G01 X127.81326 Y-119.54007
G01 X127.67546 Y-119.44596
G01 X127.59319 Y-119.38163
G01 X127.40526 Y-119.19041
G01 X127.01433 Y-119.18980
G01 X126.90521 Y-119.30657
G01 X126.82901 Y-119.37858
G01 X126.72969 Y-119.45760
G01 X126.57966 Y-119.55884
G01 X126.49390 Y-119.62290
G01 X126.35393 Y-119.76077
G01 X126.23556 Y-119.86247
G01 X126.12553 Y-119.93585
G01 X125.94984 Y-120.03799
G01 X125.93917 Y-120.07355
G01 X125.70348 Y-120.20908
G01 X125.62131 Y-120.26481
G01 X125.53594 Y-120.33171
G01 X125.48133 Y-120.37908
G01 X125.07681 Y-120.78101
G01 X124.95426 Y-120.86283
G01 X124.81822 Y-120.91939
G01 X124.67366 Y-120.94830
G01 X124.15032 Y-120.95063
G01 X124.01418 Y-120.96991
G01 X123.96533 Y-121.00984
G01 X123.81654 Y-121.15117
G01 X123.73272 Y-121.21573
G01 X123.62198 Y-121.28769
G01 X123.46404 Y-121.36717
G01 X123.38350 Y-121.41540
G01 X123.28233 Y-121.48690
G01 X123.19848 Y-121.55653
G01 X123.10897 Y-121.52589
G01 X122.93608 Y-121.45589
G01 X122.77491 Y-121.37730
G01 X122.68558 Y-121.32737
G01 X122.53521 Y-121.23146
G01 X122.33374 Y-121.07746
G01 X122.26950 Y-121.01975
G01 X122.15734 Y-120.90555
G01 X122.09066 Y-120.82894
G01 X122.00258 Y-120.71594
G01 X121.94690 Y-120.63633
G01 X121.89432 Y-120.55386
G01 X121.81134 Y-120.40532
G01 X121.80806 Y-120.36862
G01 X121.80263 Y-120.24695
G01 X121.80357 Y-120.11731
G01 X121.82038 Y-119.90400
G01 X121.83887 Y-119.77987
G01 X121.86717 Y-119.64088
G01 X121.89808 Y-119.52102
G01 X121.93961 Y-119.38714
G01 X122.01782 Y-119.18234
G01 X121.96031 Y-119.06999
G01 X121.89887 Y-118.93520
G01 X121.82836 Y-118.75135
G01 X121.79196 Y-118.63591
G01 X121.74804 Y-118.45961
G01 X121.72879 Y-118.35577
G01 X121.70768 Y-118.18366
G01 X121.70009 Y-118.01826
G01 X121.70113 Y-117.92928
G01 X121.71192 Y-117.77096
G01 X121.73473 Y-117.60916
G01 X121.75553 Y-117.50578
G01 X121.79905 Y-117.33997
G01 X121.83671 Y-117.22448
G01 X121.89950 Y-117.06319
G01 X121.94997 Y-116.95125
G01 X121.94997 Y-112.75497
G01 X122.09701 Y-112.39998
G01 X122.15165 Y-112.28321
G01 X122.22381 Y-112.16124
G01 X122.31385 Y-112.04252
G01 X122.36861 Y-111.98283
G01 X123.87570 Y-110.47570
G01 X123.94253 Y-110.41385
G01 X124.04984 Y-110.33153
G01 X124.11464 Y-110.29003
G01 X124.19546 Y-110.24535
G01 X124.28601 Y-110.20308
G01 X124.89640 Y-109.94995
G01 X126.69998 Y-109.94997
G01 X126.90531 Y-109.96112
G01 X127.08811 Y-109.83879
G01 X127.16749 Y-109.79917
G01 X127.28136 Y-109.75284
G01 X127.37671 Y-109.72267
G01 X127.46149 Y-109.69003
G01 X127.54280 Y-109.65035
G01 X127.64445 Y-109.58116
G01 X127.78758 Y-109.44085
G01 X127.84219 Y-109.39358
G01 X127.94033 Y-109.32302
G01 X128.01844 Y-109.32589
G01 X128.20178 Y-109.34789
G01 X128.39819 Y-109.34791
G01 X128.57140 Y-109.32147
G01 X128.69355 Y-109.28652
G01 X128.78915 Y-109.25205
G01 X128.95389 Y-109.16707
G01 X129.11282 Y-109.05170
G01 X129.24086 Y-108.92813
G01 X129.30949 Y-108.87001
G01 X129.31793 Y-108.86785
G01 X129.41963 Y-108.85203
G01 X129.47287 Y-108.84982
G01 X130.17368 Y-108.84840
G01 X130.31818 Y-108.81929
G01 X130.45404 Y-108.76239
G01 X130.57655 Y-108.68071
G01 X131.52267 Y-107.73819
G01 X131.57728 Y-107.69092
G01 X131.63380 Y-107.64863
G01 X131.78343 Y-107.56811
G01 X131.85536 Y-107.54126
G01 X132.00758 Y-107.50029
G01 X132.08178 Y-107.66778
G01 X132.11868 Y-107.76793
G01 X132.14698 Y-107.88320
G01 X132.18239 Y-108.09229
G01 X132.24368 Y-108.27893
G01 X132.30944 Y-108.41203
G01 X132.38048 Y-108.52338
G01 X132.44878 Y-108.61241
G01 X132.54088 Y-108.70745
G01 X132.62971 Y-108.80943
G01 X132.64759 Y-108.91967
G01 X132.64972 Y-114.25547
G01 X132.63448 Y-114.39731
G01 X132.58389 Y-114.56388
G01 X132.51779 Y-114.58852
G01 X132.38198 Y-114.62116
G01 X132.27545 Y-114.62972
G01 X131.16413 Y-114.62972
G01 X131.09214 Y-114.62454
G01 X131.02229 Y-114.61448
G01 X130.89811 Y-114.58181
G01 X130.85478 Y-114.47744
G01 X130.82265 Y-114.41245
G01 X130.77782 Y-114.35212
G01 X130.72052 Y-114.30919
G01 X130.64909 Y-114.28293
G01 X130.59999 Y-114.27973
G01 X128.90000 Y-114.27973
G01 X128.85085 Y-114.28293
G01 X128.77945 Y-114.30922
G01 X128.72212 Y-114.35212
G01 X128.66985 Y-114.42459
G01 X128.60226 Y-114.58222
G01 X128.49024 Y-114.61308
G01 X128.41595 Y-114.62520
G01 X128.34196 Y-114.62964
G01 X128.26251 Y-114.62454
G01 X128.19266 Y-114.61448
G01 X128.03975 Y-114.57003
G01 X128.02065 Y-114.54940
G01 X128.00145 Y-114.49797
G01 X127.96876 Y-114.36200
G01 X127.96020 Y-114.25547
G01 X127.96002 Y-111.38979
G01 X127.95771 Y-111.33633
G01 X127.94005 Y-111.23773
G01 X127.91407 Y-111.15104
G01 X127.87264 Y-111.05579
G01 X127.79124 Y-110.93293
G01 X127.17506 Y-110.31360
G01 X127.06030 Y-110.18317
G01 X126.90531 Y-109.96112
G01 X127.08811 Y-109.83879
G01 X127.16749 Y-109.79917
G01 X127.28136 Y-109.75284
G01 X127.37671 Y-109.72267
G01 X127.46149 Y-109.69003
G01 X127.54280 Y-109.65035
G01 X127.64445 Y-109.58116
G01 X127.78758 Y-109.44085
G01 X127.84219 Y-109.39358
G01 X127.94033 Y-109.32302
G01 X128.01844 Y-109.32589
G01 X128.20178 Y-109.34789
G01 X128.39819 Y-109.34791
G01 X128.57140 Y-109.32147
G01 X128.69355 Y-109.28652
G01 X128.78915 Y-109.25205
G01 X128.95389 Y-109.16707
G01 X129.11282 Y-109.05170
G01 X129.24086 Y-108.92813
G01 X129.30949 Y-108.87001
G01 X129.31793 Y-108.86785
G01 X129.41963 Y-108.85203
G01 X129.47287 Y-108.84982
G01 X130.17368 Y-108.84840
G01 X130.31818 Y-108.81929
G01 X130.45404 Y-108.76239
G01 X130.54266 Y-108.70575
G01 X130.57655 Y-108.68071
G01 X130.62334 Y-108.63755
G01 X131.52267 Y-107.73819
G01 X131.57728 Y-107.69092
G01 X131.63380 Y-107.64863
G01 X131.78343 Y-107.56811
G01 X131.85536 Y-107.54126
G01 X132.00758 Y-107.50029
G01 X132.08053 Y-107.37355
G01 X132.16931 Y-107.23740
G01 X132.29938 Y-107.06517
G01 X132.39775 Y-106.95193
G01 X132.54708 Y-106.80222
G01 X132.65991 Y-106.70370
G01 X132.83169 Y-106.57329
G01 X132.96141 Y-106.48790
G01 X133.10514 Y-106.14091
G01 X133.15058 Y-106.01203
G01 X133.18531 Y-105.87360
G01 X133.20558 Y-105.72773
G01 X133.20997 Y-105.62496
G01 X133.20997 Y-101.45702
G01 X133.34586 Y-101.41293
G01 X133.39498 Y-101.40973
G01 X134.32940 Y-101.41092
G01 X134.37141 Y-101.42083
G01 X134.47997 Y-101.45702
G01 X134.61586 Y-101.41293
G01 X134.66498 Y-101.40973
G01 X135.59940 Y-101.41092
G01 X135.64141 Y-101.42083
G01 X135.74997 Y-101.45702
G01 X135.88586 Y-101.41293
G01 X135.93496 Y-101.40973
G01 X136.86940 Y-101.41092
G01 X136.91141 Y-101.42083
G01 X137.01997 Y-101.45702
G01 X137.15586 Y-101.41293
G01 X137.20498 Y-101.40973
G01 X138.13940 Y-101.41092
G01 X138.18141 Y-101.42083
G01 X138.28997 Y-101.45702
G01 X138.42586 Y-101.41293
G01 X138.47498 Y-101.40973
G01 X139.40940 Y-101.41092
G01 X139.45141 Y-101.42083
G01 X139.55997 Y-101.45702
G01 X139.69586 Y-101.41293
G01 X139.74498 Y-101.40973
G01 X140.67940 Y-101.41092
G01 X140.72141 Y-101.42083
G01 X140.82997 Y-101.45702
G01 X140.89162 Y-101.43477
G01 X140.98057 Y-101.41092
G01 X141.91498 Y-101.40973
G01 X141.96703 Y-101.41339
G01 X142.09997 Y-101.45702
G01 X142.09997 Y-103.36291
G01 X141.96411 Y-103.40701
G01 X141.91498 Y-103.41023
G01 X140.98057 Y-103.40901
G01 X140.93850 Y-103.39911
G01 X140.82997 Y-103.36291
G01 X140.76835 Y-103.38519
G01 X140.67940 Y-103.40901
G01 X139.74498 Y-103.41023
G01 X139.69291 Y-103.40655
G01 X139.55997 Y-103.36291
G01 X139.49835 Y-103.38519
G01 X139.40940 Y-103.40901
G01 X138.77948 Y-103.41023
G01 X138.72555 Y-103.41313
G01 X138.67285 Y-103.41879
G01 X138.53714 Y-103.45141
G01 X138.47107 Y-103.47604
G01 X138.46932 Y-103.47983
G01 X138.42045 Y-103.64264
G01 X138.41039 Y-103.71249
G01 X138.40523 Y-103.78448
G01 X138.40523 Y-106.78919
G01 X138.40737 Y-106.84261
G01 X138.42141 Y-106.93751
G01 X138.46759 Y-106.99925
G01 X138.51484 Y-107.05381
G01 X139.30112 Y-107.84009
G01 X139.34036 Y-107.87631
G01 X139.41743 Y-107.93352
G01 X139.49378 Y-107.94454
G01 X139.56574 Y-107.94972
G01 X149.13417 Y-107.94972
G01 X149.18738 Y-107.94759
G01 X149.28251 Y-107.93352
G01 X149.34433 Y-107.88729
G01 X149.39881 Y-107.84009
G01 X152.44011 Y-104.79880
G01 X152.47633 Y-104.75956
G01 X152.53353 Y-104.68252
G01 X152.54455 Y-104.60617
G01 X152.54973 Y-104.53421
G01 X152.54973 Y-103.97287
G01 X152.54757 Y-103.91943
G01 X152.52982 Y-103.80990
G01 X152.49025 Y-103.76124
G01 X152.34463 Y-103.60889
G01 X152.23825 Y-103.46276
G01 X152.18468 Y-103.36464
G01 X152.14397 Y-103.27881
G01 X152.08283 Y-103.09217
G01 X152.05184 Y-102.89819
G01 X152.05220 Y-102.70175
G01 X152.08280 Y-102.50775
G01 X152.11986 Y-102.38715
G01 X152.16099 Y-102.28321
G01 X152.23244 Y-102.14577
G01 X152.30516 Y-102.04262
G01 X152.36939 Y-101.96386
G01 X152.48699 Y-101.84808
G01 X152.64592 Y-101.73266
G01 X152.82095 Y-101.64346
G01 X152.94513 Y-101.60099
G01 X153.03238 Y-101.57767
G01 X153.20173 Y-101.55192
G01 X153.31013 Y-101.54981
G01 X153.41049 Y-101.55321
G01 X153.59327 Y-101.58291
G01 X153.81206 Y-101.65339
G01 X153.89299 Y-101.67300
G01 X154.01437 Y-101.69515
G01 X154.12763 Y-101.70531
G01 X154.18562 Y-101.58352
G01 X154.23449 Y-101.42068
G01 X154.24455 Y-101.35080
G01 X154.24973 Y-101.27887
G01 X154.24727 Y-99.96361
G01 X154.23068 Y-99.86000
G01 X154.21232 Y-99.79012
G01 X154.13314 Y-99.60724
G01 X154.09103 Y-99.53737
G01 X153.98910 Y-99.39597
G01 X153.86517 Y-99.49157
G01 X153.74762 Y-99.59172
G01 X153.66050 Y-99.68459
G01 X153.61473 Y-99.73965
G01 X153.45369 Y-99.96086
G01 X153.36175 Y-100.05573
G01 X153.31262 Y-100.10148
G01 X153.23475 Y-100.16127
G01 X153.15374 Y-100.21684
G01 X152.97897 Y-100.30643
G01 X152.79228 Y-100.36754
G01 X152.59619 Y-100.39792
G01 X152.43541 Y-100.40008
G01 X152.34295 Y-100.40562
G01 X152.32995 Y-100.40755
G01 X152.31222 Y-100.42027
G01 X152.25570 Y-100.46256
G01 X152.20112 Y-100.50983
G01 X150.96683 Y-101.74102
G01 X150.85027 Y-101.81951
G01 X150.78631 Y-101.84902
G01 X150.70821 Y-101.87930
G01 X150.59792 Y-101.90269
G01 X150.56368 Y-101.90818
G01 X150.49000 Y-101.91021
G01 X144.49997 Y-101.91021
G01 X144.42343 Y-101.90775
G01 X144.31813 Y-101.88783
G01 X144.23039 Y-101.86523
G01 X144.15557 Y-101.86022
G01 X143.80949 Y-101.86022
G01 X143.70251 Y-101.86662
G01 X143.52697 Y-101.86927
G01 X143.46969 Y-101.65994
G01 X143.46525 Y-101.60998
G01 X143.40797 Y-101.40066
G01 X143.46525 Y-101.60998
G01 X143.46969 Y-101.65994
G01 X143.52697 Y-101.86927
G01 X143.49933 Y-101.92979
G01 X143.45044 Y-102.09266
G01 X143.43522 Y-102.23449
G01 X143.43403 Y-103.19436
G01 X143.43202 Y-103.20909
G01 X143.40576 Y-103.28051
G01 X143.36283 Y-103.33782
G01 X143.30553 Y-103.38074
G01 X143.23411 Y-103.40701
G01 X143.18498 Y-103.41023
G01 X142.25057 Y-103.40901
G01 X142.20850 Y-103.39911
G01 X142.09997 Y-103.36291
G01 X142.03835 Y-103.38519
G01 X141.94940 Y-103.40901
G01 X141.01498 Y-103.41023
G01 X140.96291 Y-103.40655
G01 X140.82997 Y-103.36291
G01 X140.82997 Y-101.45702
G01 X140.72141 Y-101.42083
G01 X140.67940 Y-101.41092
G01 X139.74498 Y-101.40973
G01 X139.69586 Y-101.41293
G01 X139.55997 Y-101.45702
G01 X139.55997 Y-103.36291
G01 X139.49835 Y-103.38519
G01 X139.40940 Y-103.40901
G01 X138.77948 Y-103.41023
G01 X138.72555 Y-103.41313
G01 X138.67285 Y-103.41879
G01 X138.53714 Y-103.45141
G01 X138.47107 Y-103.47604
G01 X138.35400 Y-103.31798
G01 X138.31499 Y-103.15997
G01 X138.31499 Y-102.40993
G01 X138.30745 Y-102.26980
G01 X138.28997 Y-102.15458
G01 X138.28997 Y-101.45702
G01 X138.15703 Y-101.41339
G01 X138.10496 Y-101.40973
G01 X137.17057 Y-101.41092
G01 X137.08162 Y-101.43477
G01 X137.01997 Y-101.45702
G01 X136.88703 Y-101.41339
G01 X136.83498 Y-101.40973
G01 X135.90057 Y-101.41092
G01 X135.81162 Y-101.43477
G01 X135.74997 Y-101.45702
G01 X135.61703 Y-101.41339
G01 X135.56498 Y-101.40973
G01 X134.63057 Y-101.41092
G01 X134.54162 Y-101.43477
G01 X134.47997 Y-101.45702
G01 X134.34703 Y-101.41339
G01 X134.29498 Y-101.40973
G01 X133.36057 Y-101.41092
G01 X133.27162 Y-101.43477
G01 X133.20997 Y-101.45702
G01 X133.07703 Y-101.41339
G01 X133.02498 Y-101.40973
G01 X132.09057 Y-101.41092
G01 X132.00162 Y-101.43477
G01 X131.93997 Y-101.45702
G01 X131.80703 Y-101.41339
G01 X131.75496 Y-101.40973
G01 X130.82057 Y-101.41092
G01 X130.73162 Y-101.43477
G01 X130.66997 Y-101.45702
G01 X130.53703 Y-101.41339
G01 X130.48498 Y-101.40973
G01 X129.58496 Y-101.40973
G01 X129.53586 Y-101.41293
G01 X129.46162 Y-101.43477
G01 X129.39997 Y-101.45702
G01 X129.39997 Y-103.36291
G01 X129.50850 Y-103.39911
G01 X129.55057 Y-103.40901
G01 X130.18049 Y-103.41023
G01 X130.25244 Y-103.41539
G01 X130.32229 Y-103.42545
G01 X130.48892 Y-103.47607
G01 X130.60599 Y-103.31803
G01 X130.64500 Y-103.15997
G01 X130.64503 Y-102.39972
G01 X130.65399 Y-102.25623
G01 X130.66997 Y-102.15458
G01 X130.66997 Y-101.45702
G01 X130.80586 Y-101.41293
G01 X130.85498 Y-101.40973
G01 X131.78940 Y-101.41092
G01 X131.83141 Y-101.42083
G01 X131.93997 Y-101.45702
G01 X131.93984 Y-105.10335
G01 X131.93108 Y-105.24426
G01 X131.91386 Y-105.35110
G01 X131.82072 Y-105.47386
G01 X131.76946 Y-105.53017
G01 X130.65001 Y-106.64993
G01 X130.56669 Y-106.72597
G01 X130.49237 Y-106.78371
G01 X130.42445 Y-106.82958
G01 X130.31061 Y-106.89433
G01 X130.21005 Y-106.94132
G01 X129.70647 Y-107.14993
G01 X129.39464 Y-107.14993
G01 X129.25674 Y-107.09077
G01 X129.14404 Y-107.04848
G01 X128.91996 Y-106.98008
G01 X128.75918 Y-106.94393
G01 X128.64211 Y-106.92437
G01 X128.47333 Y-106.90626
G01 X128.38643 Y-106.90156
G01 X128.27358 Y-106.90017
G01 X128.10553 Y-106.90789
G01 X127.99718 Y-106.91914
G01 X127.87757 Y-106.93720
G01 X127.68285 Y-106.97942
G01 X127.56538 Y-107.01251
G01 X127.44506 Y-107.05236
G01 X127.33581 Y-107.09402
G01 X127.24635 Y-107.04619
G01 X127.17645 Y-107.01429
G01 X127.01374 Y-106.96545
G01 X126.87191 Y-106.95021
G01 X125.33561 Y-106.95023
G01 X125.28240 Y-106.95236
G01 X125.18728 Y-106.96641
G01 X125.12556 Y-107.01256
G01 X125.07095 Y-107.05986
G01 X124.97460 Y-107.15620
G01 X124.92700 Y-107.20918
G01 X124.87194 Y-107.28582
G01 X124.86676 Y-107.35739
G01 X124.86282 Y-107.55328
G01 X124.83704 Y-107.72264
G01 X124.81298 Y-107.82148
G01 X124.80051 Y-107.89562
G01 X124.78606 Y-108.03270
G01 X124.78636 Y-108.14159
G01 X124.64252 Y-108.21916
G01 X124.41014 Y-108.32612
G01 X124.22353 Y-108.42130
G01 X123.92774 Y-108.60143
G01 X123.80816 Y-108.66651
G01 X123.59566 Y-108.76343
G01 X123.44372 Y-108.82028
G01 X123.43041 Y-108.86816
G01 X123.35513 Y-109.04324
G01 X123.31720 Y-109.10415
G01 X123.24431 Y-109.19628
G01 X120.91421 Y-111.52767
G01 X120.80306 Y-111.61728
G01 X120.65345 Y-111.69780
G01 X120.58147 Y-111.72464
G01 X120.44241 Y-111.76328
G01 X120.58147 Y-111.72464
G01 X120.65345 Y-111.69780
G01 X120.80306 Y-111.61728
G01 X120.91421 Y-111.52767
G01 X123.24431 Y-109.19628
G01 X123.31720 Y-109.10415
G01 X123.35513 Y-109.04324
G01 X123.43041 Y-108.86816
G01 X123.44372 Y-108.82028
G01 X123.59566 Y-108.76343
G01 X123.80816 Y-108.66651
G01 X123.92774 Y-108.60143
G01 X124.22353 Y-108.42130
G01 X124.41014 Y-108.32612
G01 X124.64252 Y-108.21916
G01 X124.78636 Y-108.14159
G01 X124.88156 Y-108.18564
G01 X125.04440 Y-108.23453
G01 X125.18624 Y-108.24975
G01 X126.72469 Y-108.24855
G01 X126.84933 Y-108.23189
G01 X126.91946 Y-108.17664
G01 X127.01994 Y-108.07012
G01 X127.03477 Y-108.04906
G01 X127.05875 Y-107.94652
G01 X127.08255 Y-107.80771
G01 X127.11143 Y-107.71243
G01 X127.14346 Y-107.62094
G01 X127.22423 Y-107.45737
G01 X127.26525 Y-107.36169
G01 X127.30536 Y-107.22691
G01 X127.33581 Y-107.09402
G01 X127.30536 Y-107.22691
G01 X127.26525 Y-107.36169
G01 X127.22423 Y-107.45737
G01 X127.14346 Y-107.62094
G01 X127.11143 Y-107.71243
G01 X127.08255 Y-107.80771
G01 X127.05875 Y-107.94652
G01 X127.03477 Y-108.04906
G01 X127.01994 Y-108.07012
G01 X126.91946 Y-108.17664
G01 X126.84933 Y-108.23189
G01 X126.75822 Y-108.24629
G01 X126.69078 Y-108.24972
G01 X125.18624 Y-108.24975
G01 X125.04440 Y-108.23453
G01 X124.88156 Y-108.18564
G01 X124.78636 Y-108.14159
G01 X124.64252 Y-108.21916
G01 X124.41014 Y-108.32612
G01 X124.22353 Y-108.42130
G01 X123.92774 Y-108.60143
G01 X123.80816 Y-108.66651
G01 X123.59566 Y-108.76343
G01 X123.44372 Y-108.82028
G01 X123.35652 Y-108.74563
G01 X123.26313 Y-108.68287
G01 X123.14753 Y-108.61746
G01 X123.01276 Y-108.55107
G01 X122.93397 Y-108.50461
G01 X122.80181 Y-108.40687
G01 X122.73844 Y-108.34667
G01 X122.66262 Y-108.26826
G01 X122.54662 Y-108.10837
G01 X122.44281 Y-107.90542
G01 X122.39628 Y-107.82920
G01 X122.32983 Y-107.73303
G01 X122.25571 Y-107.64375
G01 X122.29958 Y-107.52145
G01 X122.35269 Y-107.39298
G01 X122.39780 Y-107.29648
G01 X122.48629 Y-107.13222
G01 X122.59727 Y-106.96097
G01 X122.70336 Y-106.82343
G01 X122.77044 Y-106.74685
G01 X122.88022 Y-106.63525
G01 X122.99894 Y-106.53067
G01 X123.11273 Y-106.44335
G01 X123.24933 Y-106.35239
G01 X123.42683 Y-106.25295
G01 X123.60229 Y-106.17180
G01 X123.75510 Y-106.11264
G01 X124.15332 Y-105.71190
G01 X124.23663 Y-105.60317
G01 X124.26549 Y-105.55696
G01 X124.21265 Y-105.43136
G01 X124.19028 Y-105.36474
G01 X124.17113 Y-105.29489
G01 X124.15121 Y-105.15722
G01 X124.15022 Y-102.10005
G01 X124.15540 Y-102.02809
G01 X124.16640 Y-101.95174
G01 X124.24136 Y-101.85491
G01 X124.47544 Y-101.61984
G01 X124.52998 Y-101.57259
G01 X124.59175 Y-101.52642
G01 X124.68664 Y-101.51237
G01 X125.73066 Y-101.51222
G01 X125.84928 Y-101.52832
G01 X125.95184 Y-101.55812
G01 X126.02205 Y-101.71902
G01 X126.07211 Y-101.78778
G01 X126.12941 Y-101.83071
G01 X126.20089 Y-101.85702
G01 X126.24999 Y-101.86022
G01 X127.69047 Y-101.86022
G01 X127.83424 Y-101.86891
G01 X127.97406 Y-101.86685
G01 X128.03025 Y-101.65994
G01 X128.03469 Y-101.60998
G01 X128.09088 Y-101.40307
G01 X128.03469 Y-101.60998
G01 X128.03025 Y-101.65994
G01 X127.97406 Y-101.86685
G01 X128.02354 Y-101.99213
G01 X128.05616 Y-102.12796
G01 X128.06182 Y-102.18069
G01 X128.06472 Y-102.23449
G01 X128.06472 Y-103.15997
G01 X128.06792 Y-103.20904
G01 X128.09421 Y-103.28051
G01 X128.13711 Y-103.33782
G01 X128.19441 Y-103.38074
G01 X128.26586 Y-103.40701
G01 X128.28057 Y-103.40901
G01 X129.24940 Y-103.40901
G01 X129.33835 Y-103.38519
G01 X129.39997 Y-103.36291
G01 X129.50850 Y-103.39911
G01 X129.55057 Y-103.40901
G01 X130.18049 Y-103.41023
G01 X130.25244 Y-103.41539
G01 X130.32229 Y-103.42545
G01 X130.48892 Y-103.47607
G01 X130.51351 Y-103.54193
G01 X130.54620 Y-103.67795
G01 X130.55476 Y-103.78448
G01 X130.55473 Y-104.62915
G01 X130.54955 Y-104.70111
G01 X130.53852 Y-104.77746
G01 X130.48132 Y-104.85455
G01 X129.99883 Y-105.34010
G01 X129.94427 Y-105.38732
G01 X129.88249 Y-105.43352
G01 X129.78762 Y-105.44757
G01 X124.86983 Y-105.44970
G01 X124.76940 Y-105.45615
G01 X124.65116 Y-105.48120
G01 X124.46602 Y-105.52892
G01 X124.26549 Y-105.55696
G01 X124.23663 Y-105.60317
G01 X124.15332 Y-105.71190
G01 X123.75510 Y-106.11264
G01 X123.56346 Y-106.18843
G01 X123.39866 Y-106.26748
G01 X123.26993 Y-106.33987
G01 X123.11273 Y-106.44335
G01 X122.98680 Y-106.54071
G01 X122.86983 Y-106.64515
G01 X122.76267 Y-106.75526
G01 X122.65210 Y-106.88716
G01 X122.59097 Y-106.96986
G01 X122.49371 Y-107.11975
G01 X122.43679 Y-107.22049
G01 X122.35269 Y-107.39298
G01 X122.29958 Y-107.52145
G01 X122.25571 Y-107.64375
G01 X122.12825 Y-107.68899
G01 X121.97865 Y-107.76953
G01 X121.86757 Y-107.85904
G01 X120.38482 Y-109.34179
G01 X120.34873 Y-109.38093
G01 X120.29140 Y-109.45812
G01 X120.28040 Y-109.53450
G01 X120.27522 Y-109.60646
G01 X120.27522 Y-111.26315
G01 X120.28180 Y-111.34428
G01 X120.29450 Y-111.42259
G01 X120.35338 Y-111.60028
G01 X120.38833 Y-111.67016
G01 X120.44241 Y-111.76328
G01 X120.38510 Y-111.92523
G01 X120.34431 Y-112.08748
G01 X120.31823 Y-112.27110
G01 X120.31246 Y-112.40292
G01 X120.31271 Y-120.71741
G01 X120.32071 Y-120.86011
G01 X120.33306 Y-120.95363
G01 X120.34893 Y-121.03826
G01 X120.38460 Y-121.17512
G01 X120.44759 Y-121.35234
G01 X120.62414 Y-121.77862
G01 X120.50855 Y-121.96432
G01 X120.40928 Y-122.15002
G01 X120.32638 Y-122.33394
G01 X120.25843 Y-122.51784
G01 X120.20796 Y-122.69254
G01 X120.17240 Y-122.86033
G01 X120.14840 Y-123.03854
G01 X120.14121 Y-123.13872
G01 X120.13936 Y-123.30859
G01 X120.14965 Y-123.47003
G01 X120.16224 Y-123.57263
G01 X120.19219 Y-123.73663
G01 X120.21873 Y-123.84545
G01 X120.27306 Y-124.02182
G01 X120.34032 Y-124.19579
G01 X120.38851 Y-124.30290
G01 X120.38988 Y-125.70610
G01 X120.40438 Y-125.88215
G01 X120.42074 Y-125.98265
G01 X120.45376 Y-126.12314
G01 X120.37123 Y-126.26523
G01 X120.33933 Y-126.33510
G01 X120.29044 Y-126.49794
G01 X120.27522 Y-126.63978
G01 X120.27522 Y-129.28478
G01 X120.28094 Y-129.36045
G01 X120.29150 Y-129.43032
G01 X120.34197 Y-129.59408
G01 X120.36455 Y-129.64259
G01 X120.41180 Y-129.65074
G01 X120.53468 Y-129.66121
G01 X120.64474 Y-129.65890
G01 X120.77659 Y-129.65041
G01 X120.92318 Y-129.65229
G01 X121.11728 Y-129.68242
G01 X121.30410 Y-129.74328
G01 X121.43466 Y-129.80822
G01 X121.47890 Y-129.83284
G01 X121.63801 Y-129.94805
G01 X121.77634 Y-130.08745
G01 X121.83920 Y-130.16934
G01 X121.89160 Y-130.24635
G01 X121.94878 Y-130.35239
G01 X121.98068 Y-130.42128
G01 X122.00379 Y-130.48353
G01 X122.04141 Y-130.60789
G01 X122.06831 Y-130.76288
G01 X122.07471 Y-130.85290
G01 X122.07329 Y-130.99821
G01 X122.04187 Y-131.19204
G01 X121.98116 Y-131.37891
G01 X121.89264 Y-131.55422
G01 X121.77657 Y-131.71272
G01 X121.63793 Y-131.85186
G01 X121.36740 Y-132.05089
G01 X121.28043 Y-132.13253
G01 X121.21952 Y-132.19831
G01 X121.28558 Y-132.34314
G01 X121.34441 Y-132.43946
G01 X121.49254 Y-132.64578
G01 X121.55609 Y-132.76715
G01 X121.58106 Y-132.82110
G01 X121.64159 Y-133.00791
G01 X121.65790 Y-133.09376
G01 X121.67222 Y-133.20182
G01 X121.67309 Y-133.39821
G01 X121.64197 Y-133.59211
G01 X121.58124 Y-133.77893
G01 X121.49252 Y-133.95416
G01 X121.42808 Y-134.04606
G01 X121.37654 Y-134.11271
G01 X121.23811 Y-134.25203
G01 X121.07807 Y-134.36752
G01 X120.97057 Y-134.42544
G01 X120.84365 Y-134.48627
G01 X120.77238 Y-134.52876
G01 X120.71106 Y-134.57011
G01 X120.58785 Y-134.66554
G01 X120.71106 Y-134.57011
G01 X120.77238 Y-134.52876
G01 X120.84365 Y-134.48627
G01 X120.99668 Y-134.41213
G01 X121.07807 Y-134.36752
G01 X121.12666 Y-134.33496
G01 X121.23887 Y-134.25132
G01 X121.33882 Y-134.15353
G01 X121.41137 Y-134.06852
G01 X121.49252 Y-133.95416
G01 X121.50595 Y-133.92983
G01 X121.58124 Y-133.77893
G01 X121.61779 Y-133.67415
G01 X121.64741 Y-133.56636
G01 X121.66940 Y-133.42828
G01 X121.67309 Y-133.39821
G01 X121.67466 Y-133.25800
G01 X121.66300 Y-133.12643
G01 X121.64159 Y-133.00791
G01 X121.58106 Y-132.82110
G01 X121.49254 Y-132.64578
G01 X121.34441 Y-132.43946
G01 X121.28558 Y-132.34314
G01 X121.21952 Y-132.19831
G01 X119.99857 Y-131.99689
G01 X119.90250 Y-131.78353
G01 X119.83113 Y-131.58310
G01 X119.77792 Y-131.38244
G01 X119.74670 Y-131.20881
G01 X119.73491 Y-131.10865
G01 X119.72534 Y-130.93761
G01 X119.72897 Y-130.76944
G01 X119.74416 Y-130.61041
G01 X119.77916 Y-130.41320
G01 X119.75526 Y-130.35526
G01 X119.73672 Y-130.29568
G01 X119.72496 Y-130.19997
G01 X119.72592 Y-109.28680
G01 X119.73326 Y-109.22693
G01 X119.78353 Y-109.16493
G01 X123.54138 Y-105.40705
G01 X123.59203 Y-105.34523
G01 X123.59996 Y-105.26568
G01 X123.60092 Y-101.78026
G01 X123.61334 Y-101.69868
G01 X123.63427 Y-101.63429
G01 X123.93031 Y-100.91964
G01 X124.11822 Y-100.73602
G01 X124.24611 Y-100.63970
G01 X124.41700 Y-100.54963
G01 X124.47349 Y-100.52619
G01 X127.95291 Y-100.52497
G01 X127.98910 Y-100.41641
G01 X127.99906 Y-100.37435
G01 X128.00023 Y-99.43998
G01 X127.99703 Y-99.39091
G01 X127.95291 Y-99.25497
G01 X127.25532 Y-99.25497
G01 X127.14011 Y-99.27245
G01 X127.00983 Y-99.27984
G01 X126.24999 Y-99.27999
G01 X126.08999 Y-99.31997
G01 X125.93000 Y-99.43998
G01 X125.91478 Y-99.45517
G01 X124.18728 Y-99.45624
G01 X124.05380 Y-99.46955
G01 X124.02033 Y-99.47623
G01 X123.91677 Y-99.50465
G01 X123.83094 Y-99.53734
G01 X123.80338 Y-99.64130
G01 X123.77872 Y-99.71545
G01 X123.70031 Y-99.87483
G01 X123.65985 Y-99.93315
G01 X123.60181 Y-100.00272
G01 X123.12096 Y-100.48580
G01 X123.07499 Y-100.56536
G01 X123.05180 Y-100.65415
G01 X123.04969 Y-100.69998
G01 X123.04969 Y-101.65088
G01 X123.04453 Y-101.72289
G01 X123.03448 Y-101.79271
G01 X122.98568 Y-101.95530
G01 X122.95378 Y-102.02520
G01 X122.88218 Y-102.15154
G01 X122.95378 Y-102.02520
G01 X122.98568 Y-101.95530
G01 X123.03448 Y-101.79271
G01 X123.04453 Y-101.72289
G01 X123.04969 Y-101.65088
G01 X123.04969 Y-100.69998
G01 X123.05180 Y-100.65415
G01 X123.07499 Y-100.56536
G01 X123.12096 Y-100.48580
G01 X123.60181 Y-100.00272
G01 X123.65985 Y-99.93315
G01 X123.70031 Y-99.87483
G01 X123.77872 Y-99.71545
G01 X123.80338 Y-99.64130
G01 X123.83094 Y-99.53734
G01 X123.70529 Y-99.46620
G01 X123.63541 Y-99.43429
G01 X123.47270 Y-99.38545
G01 X123.40285 Y-99.37539
G01 X123.33089 Y-99.37021
G01 X122.39127 Y-99.36823
G01 X122.24680 Y-99.33922
G01 X122.11045 Y-99.28322
G01 X121.98810 Y-99.20105
G01 X121.50438 Y-98.72121
G01 X121.39473 Y-98.63872
G01 X121.33204 Y-98.63229
G01 X121.12678 Y-98.62772
G01 X120.95617 Y-98.60194
G01 X120.92615 Y-98.59564
G01 X120.66346 Y-98.51324
G01 X120.50204 Y-98.48339
G01 X120.39790 Y-98.47356
G01 X120.34411 Y-98.36127
G01 X120.28079 Y-98.20742
G01 X120.23827 Y-98.08548
G01 X120.19590 Y-97.93803
G01 X120.16123 Y-97.77880
G01 X120.14076 Y-97.64260
G01 X120.12879 Y-97.50801
G01 X120.12506 Y-97.38609
G01 X120.12879 Y-97.25193
G01 X120.13827 Y-97.13867
G01 X120.15539 Y-97.01474
G01 X120.17764 Y-96.89904
G01 X120.20944 Y-96.77080
G01 X120.24647 Y-96.64918
G01 X120.28279 Y-96.54817
G01 X120.39298 Y-96.43735
G01 X120.52678 Y-96.39092
G01 X120.66176 Y-96.35221
G01 X120.78147 Y-96.32475
G01 X120.92160 Y-96.30098
G01 X121.03425 Y-96.28830
G01 X121.13588 Y-96.28185
G01 X121.25805 Y-96.28027
G01 X121.37080 Y-96.28487
G01 X121.49437 Y-96.29653
G01 X121.59780 Y-96.31162
G01 X121.78358 Y-96.35096
G01 X121.90755 Y-96.38594
G01 X122.00926 Y-96.41990
G01 X122.12627 Y-96.46473
G01 X122.32173 Y-96.55383
G01 X122.36112 Y-96.53158
G01 X122.53824 Y-96.46097
G01 X122.60814 Y-96.44471
G01 X122.72447 Y-96.43069
G01 X125.62990 Y-96.43021
G01 X125.69218 Y-96.43316
G01 X125.80516 Y-96.45132
G01 X125.93673 Y-96.49323
G01 X125.97658 Y-96.59653
G01 X126.03074 Y-96.71497
G01 X126.01461 Y-96.78335
G01 X126.00074 Y-96.89998
G01 X125.99972 Y-97.49633
G01 X125.99454 Y-97.56745
G01 X125.98451 Y-97.63732
G01 X125.93566 Y-97.80003
G01 X125.93391 Y-97.80387
G01 X125.86787 Y-97.82851
G01 X125.73198 Y-97.86117
G01 X125.62548 Y-97.86971
G01 X122.93074 Y-97.86971
G01 X122.78205 Y-97.85441
G01 X122.69226 Y-97.78446
G01 X122.58485 Y-97.67882
G01 X122.53760 Y-97.62429
G01 X122.48210 Y-97.54936
G01 X122.47568 Y-97.44502
G01 X122.47349 Y-97.28373
G01 X122.45673 Y-97.16623
G01 X122.44179 Y-97.08784
G01 X122.37649 Y-96.88241
G01 X122.34106 Y-96.73979
G01 X122.32505 Y-96.61764
G01 X122.32173 Y-96.55383
G01 X122.12627 Y-96.46473
G01 X121.98883 Y-96.41268
G01 X121.78358 Y-96.35096
G01 X121.58584 Y-96.30964
G01 X121.48261 Y-96.29513
G01 X121.37080 Y-96.28487
G01 X121.25805 Y-96.28027
G01 X121.14621 Y-96.28144
G01 X121.02320 Y-96.28929
G01 X120.90857 Y-96.30280
G01 X120.79679 Y-96.32175
G01 X120.67984 Y-96.34761
G01 X120.52678 Y-96.39092
G01 X120.39298 Y-96.43735
G01 X120.28279 Y-96.54817
G01 X120.24647 Y-96.64918
G01 X120.20944 Y-96.77080
G01 X120.18132 Y-96.88258
G01 X120.15775 Y-97.00067
G01 X120.13966 Y-97.12653
G01 X120.12948 Y-97.24029
G01 X120.12506 Y-97.38609
G01 X120.12955 Y-97.52068
G01 X120.14076 Y-97.64260
G01 X120.16123 Y-97.77880
G01 X120.19590 Y-97.93803
G01 X120.23827 Y-98.08548
G01 X120.29305 Y-98.23935
G01 X120.34411 Y-98.36127
G01 X120.39790 Y-98.47356
G01 X120.33928 Y-98.59653
G01 X120.29044 Y-98.75924
G01 X120.27522 Y-98.90110
G01 X120.27522 Y-100.59990
G01 X120.27738 Y-100.65334
G01 X120.29143 Y-100.74816
G01 X120.33758 Y-100.80993
G01 X120.38485 Y-100.86452
G01 X120.81045 Y-101.29009
G01 X120.84957 Y-101.32621
G01 X120.92673 Y-101.38352
G01 X121.00314 Y-101.39454
G01 X121.07509 Y-101.39970
G01 X121.78703 Y-101.40107
G01 X121.88444 Y-101.42530
G01 X121.96407 Y-101.47104
G01 X122.41677 Y-101.92228
G01 X122.48655 Y-101.98044
G01 X122.54487 Y-102.02090
G01 X122.70473 Y-102.09949
G01 X122.77888 Y-102.12413
G01 X122.88218 Y-102.15154
G01 X123.16998 Y-102.84567
G01 X123.19030 Y-102.91389
G01 X123.19643 Y-102.94960
G01 X123.19996 Y-103.00000
G01 X123.19996 Y-105.09994
G01 X123.19188 Y-105.17947
G01 X123.14138 Y-105.24134
G01 X119.38353 Y-108.99922
G01 X119.33326 Y-109.06125
G01 X119.32897 Y-109.08609
G01 X119.32592 Y-109.12112
G01 X119.32496 Y-132.39996
G01 X119.32978 Y-132.45871
G01 X119.34485 Y-132.52503
G01 X119.41040 Y-132.68871
G01 X119.37281 Y-132.84149
G01 X119.34083 Y-133.03631
G01 X119.33029 Y-133.14744
G01 X119.32521 Y-133.32894
G01 X119.33692 Y-133.52897
G01 X119.34833 Y-133.62026
G01 X119.37578 Y-133.77108
G01 X119.44472 Y-133.86636
G01 X119.50957 Y-133.94695
G01 X119.64040 Y-134.08922
G01 X119.77436 Y-134.21230
G01 X119.91995 Y-134.32572
G01 X120.08007 Y-134.43077
G01 X120.18543 Y-134.49046
G01 X120.29036 Y-134.54365
G01 X120.42788 Y-134.60481
G01 X120.58785 Y-134.66554
G01 X120.63473 Y-134.79879
G01 X120.71523 Y-134.94837
G01 X120.80479 Y-135.05947
G01 X122.13483 Y-136.38850
G01 X122.23173 Y-136.46351
G01 X122.30814 Y-136.47453
G01 X122.38010 Y-136.47971
G01 X125.92426 Y-136.47971
G01 X126.05553 Y-136.46668
G01 X126.14483 Y-136.44710
G01 X126.23396 Y-136.31723
G01 X126.28794 Y-136.22853
G01 X126.37242 Y-136.11461
G01 X126.41052 Y-136.07387
G01 X126.49396 Y-135.99295
G01 X126.54054 Y-135.95706
G01 X126.72723 Y-135.82909
G01 X126.80076 Y-135.77357
G01 X126.94836 Y-135.63260
G01 X127.01430 Y-135.55985
G01 X127.40516 Y-135.56008
G01 X127.46830 Y-135.49064
G01 X127.61506 Y-135.34979
G01 X127.69258 Y-135.29074
G01 X127.83373 Y-135.19577
G01 X127.99096 Y-135.07766
G01 X128.02159 Y-135.05729
G01 X128.13632 Y-135.04108
G01 X128.78976 Y-135.04022
G01 X128.86174 Y-135.04540
G01 X128.93835 Y-135.05645
G01 X129.12090 Y-135.19196
G01 X129.32867 Y-135.33631
G01 X129.41922 Y-135.41888
G01 X129.55415 Y-135.56046
G01 X129.98084 Y-135.56036
G01 X130.04709 Y-135.48622
G01 X130.10505 Y-135.42919
G01 X130.20652 Y-135.33968
G01 X130.29331 Y-135.27535
G01 X130.36047 Y-135.23537
G01 X130.48734 Y-135.21266
G01 X130.51559 Y-135.21103
G01 X139.74976 Y-135.21022
G01 X139.80269 Y-135.21301
G01 X139.89891 Y-135.22510
G01 X140.19601 Y-135.44532
G01 X140.25212 Y-135.49028
G01 X140.33414 Y-135.56501
G01 X140.47920 Y-135.72978
G01 X140.90592 Y-135.72952
G01 X140.98085 Y-135.64773
G01 X141.12583 Y-135.51063
G01 X141.19238 Y-135.46061
G01 X141.33370 Y-135.36577
G01 X141.52159 Y-135.22729
G01 X141.65313 Y-135.21050
G01 X142.28978 Y-135.21022
G01 X142.36174 Y-135.21540
G01 X142.43820 Y-135.22643
G01 X142.45501 Y-135.23714
G01 X142.64244 Y-135.37702
G01 X142.78450 Y-135.47382
G01 X142.86128 Y-135.53349
G01 X142.91965 Y-135.58876
G01 X143.05493 Y-135.73003
G01 X143.44592 Y-135.72983
G01 X143.58607 Y-135.87618
G01 X143.66471 Y-135.94827
G01 X143.96608 Y-136.16287
G01 X144.05948 Y-136.25426
G01 X144.10619 Y-136.30798
G01 X144.18922 Y-136.42439
G01 X144.26776 Y-136.57837
G01 X144.32145 Y-136.74275
G01 X144.34850 Y-136.91354
G01 X144.34833 Y-137.08642
G01 X144.32110 Y-137.25713
G01 X144.26771 Y-137.42152
G01 X144.16311 Y-137.62556
G01 X144.10822 Y-137.74778
G01 X144.08221 Y-137.82073
G01 X144.02084 Y-138.06137
G01 X144.00139 Y-138.16383
G01 X143.84858 Y-138.20455
G01 X143.69979 Y-138.23518
G01 X143.53256 Y-138.25916
G01 X143.42458 Y-138.26884
G01 X143.31754 Y-138.27394
G01 X143.17490 Y-138.27371
G01 X142.99659 Y-138.26223
G01 X142.86616 Y-138.24593
G01 X142.68447 Y-138.21212
G01 X142.57203 Y-138.18469
G01 X142.42766 Y-138.14219
G01 X142.30576 Y-138.09995
G01 X141.65290 Y-138.09995
G01 X141.45255 Y-138.16645
G01 X141.27198 Y-138.21268
G01 X141.09677 Y-138.24529
G01 X140.92573 Y-138.26551
G01 X140.75702 Y-138.27422
G01 X140.57655 Y-138.27110
G01 X140.40548 Y-138.25644
G01 X140.26596 Y-138.23546
G01 X140.10734 Y-138.33655
G01 X140.03746 Y-138.37153
G01 X139.85966 Y-138.43043
G01 X139.78133 Y-138.44313
G01 X139.70020 Y-138.44971
G01 X130.54427 Y-138.44971
G01 X130.40243 Y-138.43450
G01 X130.23964 Y-138.38560
G01 X130.16977 Y-138.35370
G01 X129.91922 Y-138.18469
G01 X129.72344 Y-138.18954
G01 X129.58519 Y-138.18494
G01 X129.43891 Y-138.29096
G01 X129.36903 Y-138.33310
G01 X129.18608 Y-138.41232
G01 X129.11623 Y-138.43069
G01 X129.01259 Y-138.44727
G01 X128.95567 Y-138.44971
G01 X128.00424 Y-138.44971
G01 X127.86243 Y-138.43450
G01 X127.69964 Y-138.38560
G01 X127.62977 Y-138.35370
G01 X127.39510 Y-138.19845
G01 X127.37843 Y-138.18400
G01 X127.17950 Y-138.18949
G01 X127.04521 Y-138.18492
G01 X126.89891 Y-138.29096
G01 X126.82903 Y-138.33310
G01 X126.64608 Y-138.41232
G01 X126.57623 Y-138.43069
G01 X126.47259 Y-138.44727
G01 X123.62505 Y-138.44971
G01 X123.55309 Y-138.44453
G01 X123.47672 Y-138.43351
G01 X123.39970 Y-138.37633
G01 X122.83943 Y-137.81910
G01 X122.74989 Y-137.70806
G01 X122.66938 Y-137.55845
G01 X122.64253 Y-137.48647
G01 X122.60395 Y-137.34697
G01 X122.06874 Y-137.12525
G01 X121.98962 Y-137.08317
G01 X121.94375 Y-137.05068
G01 X121.89871 Y-137.01121
G01 X118.98130 Y-134.09379
G01 X118.93834 Y-133.97626
G01 X118.92592 Y-133.89470
G01 X118.92727 Y-108.93547
G01 X118.94061 Y-108.86458
G01 X118.95927 Y-108.80928
G01 X119.47784 Y-107.55739
G01 X119.62762 Y-107.52089
G01 X119.84253 Y-107.45511
G01 X119.98930 Y-107.40075
G01 X120.17179 Y-107.32077
G01 X120.36603 Y-107.21767
G01 X120.50720 Y-107.12887
G01 X120.63760 Y-107.03438
G01 X120.75897 Y-106.93367
G01 X120.87311 Y-106.82536
G01 X120.98708 Y-106.70134
G01 X121.08721 Y-106.57604
G01 X121.18177 Y-106.44000
G01 X121.27111 Y-106.29113
G01 X121.35518 Y-106.12699
G01 X121.41451 Y-105.99250
G01 X121.56834 Y-105.94129
G01 X121.71998 Y-105.86133
G01 X121.77690 Y-105.81947
G01 X121.83496 Y-105.76961
G01 X122.05868 Y-105.54589
G01 X122.12155 Y-105.47327
G01 X122.19216 Y-105.36220
G01 X122.22434 Y-105.29555
G01 X122.29148 Y-105.07566
G01 X122.30555 Y-104.99085
G01 X122.31990 Y-104.86446
G01 X122.20138 Y-104.85966
G01 X122.00509 Y-104.86352
G01 X121.90387 Y-104.87228
G01 X121.81782 Y-104.88757
G01 X121.67796 Y-104.92387
G01 X121.55343 Y-104.96413
G01 X121.37837 Y-104.99898
G01 X121.28675 Y-105.02552
G01 X121.18711 Y-105.06347
G01 X121.07982 Y-105.11544
G01 X121.10184 Y-105.27502
G01 X121.12676 Y-105.37231
G01 X121.24329 Y-105.69580
G01 X121.28696 Y-105.78732
G01 X121.33283 Y-105.86918
G01 X121.41451 Y-105.99250
G01 X121.56834 Y-105.94129
G01 X121.71998 Y-105.86133
G01 X121.77690 Y-105.81947
G01 X121.83496 Y-105.76961
G01 X122.05868 Y-105.54589
G01 X122.12155 Y-105.47327
G01 X122.19216 Y-105.36220
G01 X122.22434 Y-105.29555
G01 X122.29148 Y-105.07566
G01 X122.30555 Y-104.99085
G01 X122.31990 Y-104.86446
G01 X122.35320 Y-104.83205
G01 X122.38797 Y-104.74416
G01 X122.45744 Y-104.53776
G01 X122.49595 Y-104.39555
G01 X122.54507 Y-104.14571
G01 X122.56666 Y-103.95577
G01 X122.57387 Y-103.81356
G01 X122.57171 Y-103.62507
G01 X122.56013 Y-103.47140
G01 X122.54009 Y-103.32136
G01 X122.51718 Y-103.19992
G01 X122.38286 Y-103.01806
G01 X122.28528 Y-102.90391
G01 X122.18218 Y-102.79614
G01 X122.07288 Y-102.69398
G01 X121.96224 Y-102.60119
G01 X121.88289 Y-102.54066
G01 X121.69325 Y-102.41285
G01 X121.51705 Y-102.31229
G01 X121.30509 Y-102.30063
G01 X121.15061 Y-102.30180
G01 X120.95066 Y-102.31554
G01 X120.70306 Y-102.34912
G01 X120.57164 Y-102.27462
G01 X120.46334 Y-102.19441
G01 X120.39371 Y-102.13122
G01 X120.06415 Y-101.80165
G01 X119.75927 Y-101.06563
G01 X119.73504 Y-100.98916
G01 X119.72496 Y-100.89993
G01 X119.72592 Y-96.38040
G01 X119.72897 Y-96.34540
G01 X119.74243 Y-96.28281
G01 X119.75927 Y-96.23428
G01 X119.97279 Y-95.72577
G01 X119.99008 Y-95.69226
G01 X120.07665 Y-95.55582
G01 X120.16265 Y-95.44766
G01 X127.95291 Y-95.44497
G01 X127.99703 Y-95.58091
G01 X128.00023 Y-95.62998
G01 X127.99906 Y-96.56435
G01 X127.98910 Y-96.60641
G01 X127.95291 Y-96.71497
G01 X127.97518 Y-96.77662
G01 X127.99906 Y-96.86562
G01 X128.00023 Y-97.79998
G01 X127.99657 Y-97.85198
G01 X127.95291 Y-97.98497
G01 X127.25532 Y-97.98497
G01 X127.14011 Y-97.96750
G01 X127.00983 Y-97.96010
G01 X126.24999 Y-97.95998
G01 X126.09195 Y-97.92094
G01 X125.93391 Y-97.80387
G01 X125.98451 Y-97.63732
G01 X125.99454 Y-97.56745
G01 X125.99972 Y-97.49633
G01 X126.00074 Y-96.89998
G01 X126.01461 Y-96.78335
G01 X126.03074 Y-96.71497
G01 X127.95291 Y-96.71497
G01 X127.99657 Y-96.58198
G01 X128.00023 Y-96.52996
G01 X127.99906 Y-95.59562
G01 X127.97518 Y-95.50662
G01 X127.95291 Y-95.44497
G01 X127.98910 Y-95.33641
G01 X127.99906 Y-95.29435
G01 X127.99906 Y-94.32562
G01 X127.97518 Y-94.23662
G01 X127.95291 Y-94.17497
G01 X119.85371 Y-94.17530
G01 X119.76405 Y-94.17906
G01 X119.69229 Y-94.27078
G01 X119.60273 Y-94.41195
G01 X119.55793 Y-94.50471
G01 X119.35181 Y-95.00504
G01 X119.33227 Y-95.07507
G01 X119.32552 Y-95.13517
G01 X119.32521 Y-102.03477
G01 X119.33034 Y-102.08885
G01 X119.35927 Y-102.19063
G01 X119.78475 Y-103.21775
G01 X119.76290 Y-103.35951
G01 X119.74670 Y-103.51714
G01 X119.73842 Y-103.68371
G01 X119.73895 Y-103.83766
G01 X119.74739 Y-103.99210
G01 X119.76390 Y-104.14813
G01 X119.78894 Y-104.30667
G01 X119.81325 Y-104.42687
G01 X121.07982 Y-105.11544
G01 X121.10184 Y-105.27502
G01 X121.12676 Y-105.37231
G01 X121.24329 Y-105.69580
G01 X121.28696 Y-105.78732
G01 X121.33283 Y-105.86918
G01 X121.41451 Y-105.99250
G01 X121.35518 Y-106.12699
G01 X121.27111 Y-106.29113
G01 X121.18177 Y-106.44000
G01 X121.08721 Y-106.57604
G01 X120.98708 Y-106.70134
G01 X120.87311 Y-106.82536
G01 X120.75897 Y-106.93367
G01 X120.63760 Y-107.03438
G01 X120.50720 Y-107.12887
G01 X120.36603 Y-107.21767
G01 X120.17179 Y-107.32077
G01 X119.98930 Y-107.40075
G01 X119.84253 Y-107.45511
G01 X119.62762 Y-107.52089
G01 X119.47784 Y-107.55739
G01 X119.37281 Y-107.40286
G01 X119.26004 Y-107.21350
G01 X119.17474 Y-107.04769
G01 X119.10550 Y-106.89067
G01 X119.05948 Y-106.76875
G01 X119.00903 Y-106.60751
G01 X118.97004 Y-106.44467
G01 X118.94663 Y-106.30781
G01 X118.93291 Y-106.18584
G01 X118.92564 Y-106.05087
G01 X118.92585 Y-105.93944
G01 X118.94083 Y-105.73631
G01 X118.97281 Y-105.54150
G01 X119.01043 Y-105.38864
G01 X118.94325 Y-105.21953
G01 X118.92849 Y-105.15031
G01 X118.92496 Y-105.09994
G01 X118.92618 Y-93.87050
G01 X118.93405 Y-93.81607
G01 X118.95927 Y-93.73428
G01 X119.17017 Y-93.22519
G01 X119.22788 Y-93.10827
G01 X119.35402 Y-93.02458
G01 X119.47373 Y-92.96509
G01 X119.61810 Y-92.90528
G01 X127.95291 Y-92.90497
G01 X127.98910 Y-92.79641
G01 X127.99906 Y-92.75435
G01 X127.99906 Y-91.78562
G01 X127.97518 Y-91.69662
G01 X127.95291 Y-91.63497
G01 X119.33250 Y-91.63624
G01 X119.24015 Y-91.64023
G01 X119.16214 Y-91.68483
G01 X119.02793 Y-91.78079
G01 X118.90835 Y-91.89159
G01 X118.55928 Y-92.73428
G01 X118.53835 Y-92.79867
G01 X118.52979 Y-92.84124
G01 X118.52496 Y-92.89997
G01 X118.52496 Y-134.19996
G01 X118.53327 Y-134.27936
G01 X118.58356 Y-134.34139
G01 X123.18355 Y-138.94138
G01 X123.24555 Y-138.99164
G01 X123.30542 Y-138.99899
G01 X144.49997 Y-138.99995
G01 X144.55452 Y-138.99594
G01 X144.57937 Y-138.99164
G01 X144.64137 Y-138.94138
G01 X145.74139 Y-137.84138
G01 X145.79181 Y-137.77943
G01 X145.79996 Y-137.69988
G01 X145.79900 Y-135.18035
G01 X145.79595 Y-135.14540
G01 X145.78249 Y-135.08281
G01 X145.76565 Y-135.03427
G01 X145.49008 Y-134.36902
G01 X145.55373 Y-134.25460
G01 X145.58564 Y-134.18472
G01 X145.63448 Y-134.02201
G01 X145.64454 Y-133.95216
G01 X145.64972 Y-133.88020
G01 X145.64972 Y-133.36008
G01 X145.64759 Y-133.30687
G01 X145.63352 Y-133.21172
G01 X145.58729 Y-133.14992
G01 X145.54009 Y-133.09544
G01 X144.86451 Y-132.41985
G01 X144.82526 Y-132.38363
G01 X144.74817 Y-132.32641
G01 X144.67185 Y-132.31541
G01 X144.59986 Y-132.31023
G01 X144.51531 Y-132.31023
G01 X144.44419 Y-132.31404
G01 X144.37599 Y-132.32351
G01 X144.29925 Y-132.34147
G01 X144.22331 Y-132.44286
G01 X144.17332 Y-132.52079
G01 X144.11912 Y-132.59547
G01 X144.08833 Y-132.63453
G01 X144.03560 Y-132.69018
G01 X143.96618 Y-132.75719
G01 X143.89468 Y-132.81094
G01 X143.73141 Y-132.92181
G01 X143.65356 Y-132.98122
G01 X143.51579 Y-133.11307
G01 X143.44564 Y-133.19018
G01 X143.05501 Y-133.19013
G01 X142.97665 Y-133.27487
G01 X142.88828 Y-133.36100
G01 X142.81663 Y-133.42353
G01 X142.59420 Y-133.57720
G01 X142.46883 Y-133.67189
G01 X142.43837 Y-133.69265
G01 X142.32362 Y-133.70885
G01 X141.67018 Y-133.70971
G01 X141.59819 Y-133.70453
G01 X141.52121 Y-133.69341
G01 X141.33368 Y-133.55422
G01 X141.17516 Y-133.44629
G01 X141.11493 Y-133.40039
G01 X141.04023 Y-133.33120
G01 X140.90553 Y-133.18985
G01 X140.58679 Y-133.18934
G01 X140.51402 Y-133.19049
G01 X140.42118 Y-133.29001
G01 X140.31029 Y-133.39544
G01 X140.22725 Y-133.45909
G01 X140.09164 Y-133.55041
G01 X139.89809 Y-133.69270
G01 X139.78362 Y-133.70885
G01 X130.87906 Y-133.70971
G01 X130.80710 Y-133.70453
G01 X130.69560 Y-133.68683
G01 X130.54449 Y-133.52833
G01 X130.46636 Y-133.45378
G01 X130.41353 Y-133.41281
G01 X130.18287 Y-133.25259
G01 X130.10073 Y-133.18112
G01 X129.94597 Y-133.01955
G01 X129.55460 Y-133.02013
G01 X129.46416 Y-133.11726
G01 X129.33528 Y-133.23842
G01 X129.26781 Y-133.28975
G01 X129.08239 Y-133.41584
G01 X128.93838 Y-133.52264
G01 X128.82362 Y-133.53885
G01 X128.78976 Y-133.53971
G01 X128.17015 Y-133.53971
G01 X128.09819 Y-133.53453
G01 X128.02174 Y-133.52351
G01 X127.81328 Y-133.37009
G01 X127.67546 Y-133.27598
G01 X127.59324 Y-133.21167
G01 X127.40505 Y-133.02018
G01 X127.01407 Y-133.01957
G01 X126.85664 Y-132.85643
G01 X126.79106 Y-132.79829
G01 X126.49393 Y-132.58703
G01 X126.43170 Y-132.52755
G01 X126.36017 Y-132.45023
G01 X126.27082 Y-132.32549
G01 X126.20661 Y-132.20263
G01 X126.16845 Y-132.10446
G01 X126.13848 Y-132.00723
G01 X126.11842 Y-131.88907
G01 X126.11011 Y-131.78409
G01 X126.11181 Y-131.66354
G01 X126.12609 Y-131.56118
G01 X126.14184 Y-131.48135
G01 X126.19233 Y-131.32844
G01 X126.27044 Y-131.17421
G01 X126.32753 Y-131.09301
G01 X126.39495 Y-131.01008
G01 X126.49370 Y-130.91267
G01 X126.58128 Y-130.84759
G01 X126.75786 Y-130.72768
G01 X126.82370 Y-130.67325
G01 X126.94150 Y-130.55961
G01 X127.01402 Y-130.47962
G01 X127.40498 Y-130.48010
G01 X127.49296 Y-130.38559
G01 X127.57594 Y-130.30586
G01 X127.60432 Y-130.27924
G01 X127.68732 Y-130.21440
G01 X127.82291 Y-130.12331
G01 X128.02138 Y-129.97556
G01 X128.10033 Y-129.96360
G01 X128.33426 Y-129.96022
G01 X128.40777 Y-129.96540
G01 X128.47764 Y-129.97543
G01 X128.60185 Y-130.00810
G01 X128.64523 Y-130.11264
G01 X128.67729 Y-130.17749
G01 X128.72209 Y-130.23781
G01 X128.78303 Y-130.28303
G01 X128.90000 Y-130.33555
G01 X129.06944 Y-130.42397
G01 X129.22161 Y-130.53571
G01 X129.32034 Y-130.51658
G01 X129.47449 Y-130.49517
G01 X129.62445 Y-130.48328
G01 X129.76377 Y-130.48026
G01 X129.86542 Y-130.48285
G01 X130.01775 Y-130.49435
G01 X130.17172 Y-130.51526
G01 X130.27792 Y-130.53563
G01 X130.34099 Y-130.63962
G01 X130.42925 Y-130.77104
G01 X130.49484 Y-130.85277
G01 X130.57835 Y-130.94101
G01 X130.72902 Y-130.98450
G01 X130.79890 Y-130.99453
G01 X130.87083 Y-130.99971
G01 X139.94432 Y-130.99890
G01 X139.99367 Y-130.99618
G01 X140.08623 Y-130.98323
G01 X140.14757 Y-130.94635
G01 X140.23751 Y-130.88353
G01 X140.32878 Y-130.80395
G01 X140.39350 Y-130.74371
G01 X140.47922 Y-130.64947
G01 X140.90632 Y-130.64998
G01 X140.98326 Y-130.73332
G01 X141.12050 Y-130.86499
G01 X141.34442 Y-131.02181
G01 X141.52123 Y-131.15343
G01 X141.59819 Y-131.16453
G01 X141.67018 Y-131.16971
G01 X142.12913 Y-131.16971
G01 X142.19204 Y-131.16575
G01 X142.25339 Y-131.15803
G01 X142.41991 Y-131.11053
G01 X142.51935 Y-131.00703
G01 X142.54932 Y-130.96918
G01 X142.65854 Y-130.81201
G01 X142.72136 Y-130.70550
G01 X142.90383 Y-130.67388
G01 X143.14721 Y-130.65242
G01 X143.32966 Y-130.65158
G01 X143.45163 Y-130.65836
G01 X143.57157 Y-130.67045
G01 X143.69222 Y-130.68849
G01 X143.85486 Y-130.58369
G01 X143.92473 Y-130.54871
G01 X144.04985 Y-130.50144
G01 X144.12178 Y-130.48397
G01 X144.22049 Y-130.45074
G01 X144.27678 Y-130.40873
G01 X144.37012 Y-130.24838
G01 X144.46212 Y-130.06898
G01 X144.49669 Y-130.01917
G01 X144.51998 Y-130.02423
G01 X144.71686 Y-130.09555
G01 X144.78076 Y-130.13047
G01 X144.87451 Y-130.19524
G01 X144.90126 Y-130.21841
G01 X145.94009 Y-131.25544
G01 X145.98729 Y-131.30992
G01 X146.03352 Y-131.37172
G01 X146.04830 Y-131.49044
G01 X146.04970 Y-131.70764
G01 X146.04454 Y-131.78285
G01 X146.03448 Y-131.85270
G01 X145.98564 Y-132.01541
G01 X145.95373 Y-132.08528
G01 X145.88228 Y-132.21139
G01 X146.16557 Y-132.89412
G01 X146.19087 Y-132.97606
G01 X146.19900 Y-133.04045
G01 X146.19900 Y-137.88517
G01 X146.19166 Y-137.94504
G01 X146.14136 Y-138.00706
G01 X144.79628 Y-139.35138
G01 X144.74505 Y-139.39164
G01 X144.66565 Y-139.39995
G01 X123.13973 Y-139.39898
G01 X123.07987 Y-139.39164
G01 X123.01786 Y-139.34138
G01 X118.18356 Y-134.50707
G01 X118.13327 Y-134.44504
G01 X118.12496 Y-134.36567
G01 X118.12496 Y-91.64996
G01 X118.12979 Y-91.59123
G01 X118.13835 Y-91.54866
G01 X118.15928 Y-91.48427
G01 X118.50835 Y-90.64160
G01 X118.61848 Y-90.53538
G01 X118.72882 Y-90.44996
G01 X118.86016 Y-90.37023
G01 X118.95252 Y-90.36624
G01 X127.95291 Y-90.36497
G01 X127.99657 Y-90.23198
G01 X128.00023 Y-90.17996
G01 X127.99906 Y-89.24562
G01 X127.97518 Y-89.15662
G01 X127.95291 Y-89.09497
G01 X118.57253 Y-89.09624
G01 X118.39054 Y-89.11168
G01 X118.33873 Y-89.12090
G01 X118.23700 Y-89.19726
G01 X118.16164 Y-89.26368
G01 X117.75928 Y-90.23429
G01 X117.73835 Y-90.29868
G01 X117.72593 Y-90.38026
G01 X117.72496 Y-97.49996
G01 X117.71488 Y-97.58916
G01 X117.69065 Y-97.66564
G01 X117.40759 Y-98.34900
G01 X117.26847 Y-98.38751
G01 X117.19654 Y-98.41436
G01 X117.04693 Y-98.49485
G01 X116.99042 Y-98.53717
G01 X116.93583 Y-98.58444
G01 X116.08483 Y-99.43544
G01 X116.04849 Y-99.47483
G01 X115.99126 Y-99.55202
G01 X115.98026 Y-99.62805
G01 X115.97505 Y-99.70008
G01 X115.97480 Y-100.37054
G01 X115.97190 Y-100.41120
G01 X115.96632 Y-100.45156
G01 X115.92982 Y-100.56205
G01 X115.86820 Y-100.66089
G01 X115.78593 Y-100.74326
G01 X115.68699 Y-100.80462
G01 X115.57470 Y-100.84199
G01 X115.51219 Y-100.84905
G01 X114.73774 Y-100.84943
G01 X114.67534 Y-100.84166
G01 X114.56289 Y-100.80478
G01 X114.46375 Y-100.74356
G01 X114.26226 Y-100.53869
G01 X114.12560 Y-100.41275
G01 X114.12449 Y-99.02627
G01 X114.01862 Y-98.97361
G01 X113.87056 Y-98.91583
G01 X113.71534 Y-98.87463
G01 X113.57394 Y-98.85444
G01 X113.47986 Y-98.84999
G01 X113.09998 Y-98.85009
G01 X112.97653 Y-98.84070
G01 X112.84755 Y-98.81448
G01 X112.75949 Y-98.87575
G01 X112.49170 Y-99.03755
G01 X112.46434 Y-99.05644
G01 X112.41430 Y-99.10371
G01 X112.37984 Y-99.14123
G01 X112.32007 Y-99.23785
G01 X112.28784 Y-99.33363
G01 X112.27872 Y-99.38372
G01 X112.27514 Y-99.42942
G01 X112.27491 Y-100.09988
G01 X112.25959 Y-100.24826
G01 X112.18946 Y-100.33833
G01 X112.08954 Y-100.44008
G01 X112.03493 Y-100.48735
G01 X111.97321 Y-100.53350
G01 X111.87831 Y-100.54755
G01 X111.82490 Y-100.54971
G01 X111.19508 Y-100.54971
G01 X111.05325 Y-100.53450
G01 X110.88967 Y-100.48524
G01 X110.86391 Y-100.41623
G01 X110.83313 Y-100.29464
G01 X110.81685 Y-100.17529
G01 X110.80013 Y-100.11959
G01 X110.77938 Y-100.06310
G01 X110.71840 Y-99.96391
G01 X110.63613 Y-99.88144
G01 X110.59099 Y-99.85169
G01 X110.53684 Y-99.82063
G01 X110.42459 Y-99.78344
G01 X110.32495 Y-99.77473
G01 X109.39485 Y-99.77476
G01 X109.30026 Y-99.78299
G01 X109.18789 Y-99.82017
G01 X109.08881 Y-99.88144
G01 X109.00656 Y-99.96391
G01 X108.94558 Y-100.06310
G01 X108.90908 Y-100.17552
G01 X108.90042 Y-100.23772
G01 X108.89938 Y-101.53505
G01 X108.88759 Y-101.76175
G01 X108.85698 Y-102.03144
G01 X108.89483 Y-102.06827
G01 X108.95000 Y-102.33134
G01 X108.97685 Y-102.40333
G01 X109.05744 Y-102.55311
G01 X109.14695 Y-102.66411
G01 X109.41733 Y-102.93350
G01 X109.51423 Y-103.00853
G01 X109.59064 Y-103.01956
G01 X109.66259 Y-103.02471
G01 X110.12498 Y-103.02471
G01 X110.22470 Y-103.03297
G01 X110.33333 Y-103.06878
G01 X110.36912 Y-103.08831
G01 X110.43615 Y-103.13139
G01 X110.51868 Y-103.21371
G01 X110.56673 Y-103.28958
G01 X110.58484 Y-103.32611
G01 X110.61703 Y-103.42524
G01 X110.62439 Y-103.48778
G01 X110.62513 Y-104.48516
G01 X110.61677 Y-104.57462
G01 X110.60156 Y-104.62552
G01 X110.57956 Y-104.68696
G01 X110.51868 Y-104.78623
G01 X110.43630 Y-104.86868
G01 X110.37352 Y-104.90886
G01 X110.17994 Y-105.01323
G01 X110.15294 Y-105.12189
G01 X110.14291 Y-105.19176
G01 X110.13773 Y-105.26375
G01 X110.13608 Y-105.45834
G01 X110.11215 Y-105.54696
G01 X110.06612 Y-105.62628
G01 X109.33943 Y-106.35585
G01 X109.26582 Y-106.44327
G01 X109.20959 Y-106.53009
G01 X109.24692 Y-106.74541
G01 X109.24959 Y-106.79420
G01 X109.24995 Y-107.59514
G01 X109.24685 Y-107.65450
G01 X109.22277 Y-107.75925
G01 X109.21304 Y-107.79209
G01 X109.15317 Y-107.91261
G01 X109.07359 Y-108.01190
G01 X108.97070 Y-108.10128
G01 X108.86562 Y-108.19989
G01 X108.81197 Y-108.25419
G01 X108.72955 Y-108.34987
G01 X107.27070 Y-108.34939
G01 X107.14294 Y-108.20794
G01 X106.93199 Y-108.01797
G01 X106.90741 Y-107.99026
G01 X106.84688 Y-107.91253
G01 X106.78640 Y-107.79117
G01 X106.75770 Y-107.67830
G01 X106.75046 Y-107.60735
G01 X106.75188 Y-106.75739
G01 X106.76194 Y-106.70164
G01 X106.78640 Y-106.60878
G01 X106.81937 Y-106.53852
G01 X106.86280 Y-106.46550
G01 X106.93217 Y-106.38218
G01 X107.03776 Y-106.29732
G01 X107.09852 Y-106.26453
G01 X107.16354 Y-106.23522
G01 X107.29539 Y-106.20301
G01 X108.34990 Y-106.19986
G01 X108.40334 Y-106.19768
G01 X108.49803 Y-106.18363
G01 X108.55993 Y-106.13735
G01 X108.61451 Y-106.09011
G01 X109.24959 Y-105.45448
G01 X109.30263 Y-105.38882
G01 X109.34266 Y-105.33002
G01 X109.38934 Y-105.24757
G01 X109.38233 Y-105.10335
G01 X109.37260 Y-105.03317
G01 X109.13923 Y-104.86796
G01 X109.11489 Y-104.84625
G01 X109.04446 Y-104.77149
G01 X108.99661 Y-104.70987
G01 X108.85432 Y-104.54416
G01 X108.74987 Y-104.43299
G01 X108.74967 Y-103.54071
G01 X108.69986 Y-103.43017
G01 X108.63842 Y-103.32052
G01 X108.54505 Y-103.19103
G01 X108.49861 Y-103.13797
G01 X108.41723 Y-103.05821
G01 X108.34093 Y-102.99591
G01 X108.25691 Y-102.93805
G01 X108.11396 Y-102.86025
G01 X108.07492 Y-102.71849
G01 X108.04807 Y-102.64651
G01 X107.96755 Y-102.49690
G01 X107.87802 Y-102.38585
G01 X107.62701 Y-102.13485
G01 X107.58777 Y-102.09863
G01 X107.48924 Y-102.02865
G01 X107.36527 Y-102.02499
G01 X106.40967 Y-102.02499
G01 X106.32547 Y-102.01577
G01 X106.21322 Y-101.97904
G01 X106.11376 Y-101.91857
G01 X106.03123 Y-101.83627
G01 X105.97015 Y-101.73706
G01 X105.93294 Y-101.62469
G01 X105.92471 Y-101.52499
G01 X105.92471 Y-100.27498
G01 X105.93309 Y-100.17529
G01 X105.96905 Y-100.06665
G01 X105.99908 Y-100.01347
G01 X106.03154 Y-99.96391
G01 X106.11381 Y-99.88144
G01 X106.21358 Y-99.81982
G01 X106.32333 Y-99.78255
G01 X106.48353 Y-99.72111
G01 X106.52199 Y-99.58235
G01 X106.53723 Y-99.44052
G01 X106.53723 Y-98.29950
G01 X106.52864 Y-98.19287
G01 X106.49603 Y-98.05713
G01 X106.47134 Y-97.99104
G01 X106.30479 Y-97.94042
G01 X106.16298 Y-97.92520
G01 X106.03918 Y-97.92426
G01 X105.97528 Y-97.91695
G01 X105.86283 Y-97.87989
G01 X105.76403 Y-97.81827
G01 X105.70009 Y-97.75642
G01 X105.66824 Y-97.71670
G01 X105.55371 Y-97.53526
G01 X105.43766 Y-97.50963
G01 X105.34513 Y-97.50105
G01 X104.47231 Y-97.50024
G01 X104.39075 Y-97.50679
G01 X104.31242 Y-97.51949
G01 X104.13459 Y-97.57842
G01 X104.06474 Y-97.61339
G01 X103.89979 Y-97.71936
G01 X103.67642 Y-97.68858
G01 X103.50144 Y-97.67697
G01 X103.39979 Y-97.67517
G01 X103.25501 Y-97.67885
G01 X103.04724 Y-97.69726
G01 X102.98415 Y-97.78500
G01 X102.92448 Y-97.85868
G01 X102.88092 Y-97.90628
G01 X102.78102 Y-98.00140
G01 X102.58697 Y-98.14809
G01 X102.48946 Y-98.23701
G01 X102.41707 Y-98.29305
G01 X102.29715 Y-98.36869
G01 X102.18156 Y-98.42932
G01 X102.02786 Y-99.22838
G01 X101.95077 Y-99.32901
G01 X101.85225 Y-99.44534
G01 X101.73980 Y-99.56325
G01 X101.59863 Y-99.69317
G01 X101.47912 Y-99.78982
G01 X101.38781 Y-99.85659
G01 X101.25530 Y-99.94410
G01 X101.11295 Y-100.02710
G01 X100.94722 Y-100.11136
G01 X100.77628 Y-100.18629
G01 X100.57130 Y-100.26236
G01 X100.48946 Y-100.46701
G01 X100.38387 Y-100.68547
G01 X100.30750 Y-100.82119
G01 X100.22733 Y-100.94816
G01 X100.16851 Y-101.03302
G01 X100.05390 Y-101.18151
G01 X99.95319 Y-101.29690
G01 X99.85393 Y-101.39898
G01 X99.74143 Y-101.50302
G01 X99.63173 Y-101.59411
G01 X99.52037 Y-101.67767
G01 X99.39505 Y-101.76172
G01 X99.35764 Y-101.92131
G01 X99.33295 Y-101.99545
G01 X99.24893 Y-102.16276
G01 X99.20252 Y-102.22710
G01 X99.14981 Y-102.28908
G01 X96.29882 Y-105.14010
G01 X96.24433 Y-105.18727
G01 X96.18251 Y-105.23352
G01 X96.08739 Y-105.24759
G01 X96.03420 Y-105.24970
G01 X94.47286 Y-105.24970
G01 X94.40093 Y-105.24454
G01 X94.30847 Y-105.23075
G01 X94.26092 Y-105.19110
G01 X94.11470 Y-105.04909
G01 X93.95422 Y-104.93233
G01 X93.87832 Y-104.89159
G01 X93.77919 Y-104.84312
G01 X93.59227 Y-104.78244
G01 X93.39819 Y-104.75181
G01 X93.20174 Y-104.75209
G01 X93.00774 Y-104.78277
G01 X92.82077 Y-104.84312
G01 X92.68343 Y-104.91183
G01 X92.58069 Y-104.97746
G01 X92.48727 Y-105.04841
G01 X92.35384 Y-105.18049
G01 X92.25194 Y-105.31711
G01 X92.19110 Y-105.42278
G01 X92.14391 Y-105.52112
G01 X92.11904 Y-105.58950
G01 X92.07919 Y-105.72499
G01 X92.05234 Y-105.90177
G01 X92.05006 Y-106.02793
G01 X92.05846 Y-106.14955
G01 X92.08275 Y-106.29219
G01 X92.14340 Y-106.47906
G01 X92.20286 Y-106.59966
G01 X92.26647 Y-106.70370
G01 X92.34820 Y-106.81287
G01 X92.48684 Y-106.95206
G01 X92.62240 Y-107.05165
G01 X92.72849 Y-107.11175
G01 X92.82115 Y-107.15600
G01 X93.00771 Y-107.21724
G01 X93.20172 Y-107.24822
G01 X93.32920 Y-107.24987
G01 X93.39814 Y-107.24739
G01 X93.49237 Y-107.23512
G01 X93.59207 Y-107.21668
G01 X93.77891 Y-107.15622
G01 X93.82600 Y-107.13446
G01 X93.95422 Y-107.06760
G01 X94.06943 Y-106.98559
G01 X94.11277 Y-106.95165
G01 X94.26123 Y-106.80974
G01 X94.31000 Y-106.77007
G01 X94.31805 Y-106.76801
G01 X94.41967 Y-106.75234
G01 X94.47286 Y-106.75021
G01 X96.54791 Y-106.74927
G01 X96.65249 Y-106.73420
G01 X96.93684 Y-106.67022
G01 X97.09038 Y-106.65211
G01 X97.21606 Y-106.64360
G01 X97.22884 Y-106.80636
G01 X97.22388 Y-106.98889
G01 X97.21134 Y-107.08305
G01 X97.18314 Y-107.20784
G01 X97.16226 Y-107.32392
G01 X97.15233 Y-107.40177
G01 X97.15017 Y-107.46438
G01 X97.15165 Y-107.59821
G01 X97.17230 Y-107.73748
G01 X97.18304 Y-107.79211
G01 X97.21987 Y-107.91287
G01 X97.26102 Y-108.01680
G01 X97.33242 Y-108.15419
G01 X97.44824 Y-108.31286
G01 X97.54281 Y-108.41025
G01 X97.63554 Y-108.48939
G01 X97.74601 Y-108.56717
G01 X97.89683 Y-108.64545
G01 X97.92487 Y-108.65815
G01 X98.10775 Y-108.71716
G01 X98.30178 Y-108.74779
G01 X98.49820 Y-108.74799
G01 X98.69223 Y-108.71733
G01 X98.87910 Y-108.65670
G01 X99.05423 Y-108.56760
G01 X99.21314 Y-108.45206
G01 X99.30793 Y-108.35955
G01 X99.40905 Y-108.27032
G01 X99.51966 Y-108.25236
G01 X101.23419 Y-108.25023
G01 X101.30617 Y-108.25541
G01 X101.38247 Y-108.26641
G01 X101.47932 Y-108.34136
G01 X102.04005 Y-108.90113
G01 X102.08727 Y-108.95561
G01 X102.13348 Y-109.01741
G01 X102.14755 Y-109.11256
G01 X102.14971 Y-109.16577
G01 X102.14971 Y-109.54664
G01 X102.14453 Y-109.61860
G01 X102.13444 Y-109.68845
G01 X102.08567 Y-109.85109
G01 X102.05342 Y-109.92175
G01 X101.98151 Y-109.99859
G01 X101.89964 Y-110.07631
G01 X101.90043 Y-111.28522
G01 X101.79873 Y-111.36066
G01 X101.72807 Y-111.40679
G01 X101.64519 Y-111.45208
G01 X101.55552 Y-111.49094
G01 X101.44412 Y-111.52622
G01 X101.37699 Y-111.53971
G01 X101.30955 Y-111.54753
G01 X100.54996 Y-111.54997
G01 X100.48029 Y-111.54677
G01 X100.35931 Y-111.52696
G01 X100.28606 Y-111.50623
G01 X100.15499 Y-111.45218
G01 X100.06086 Y-111.39995
G01 X99.83109 Y-111.39995
G01 X99.51837 Y-111.27367
G01 X99.44186 Y-111.25611
G01 X99.37547 Y-111.25020
G01 X97.31604 Y-111.24997
G01 X97.26209 Y-111.23468
G01 X97.17494 Y-111.22497
G01 X97.14454 Y-111.22497
G01 X97.09648 Y-111.23884
G01 X97.01936 Y-111.24956
G01 X96.69399 Y-111.25007
G01 X96.53217 Y-111.24507
G01 X96.47862 Y-111.22129
G01 X96.45995 Y-111.15284
G01 X96.45061 Y-111.07260
G01 X96.45246 Y-110.82231
G01 X96.46158 Y-110.76325
G01 X96.47395 Y-110.71728
G01 X96.51350 Y-110.62096
G01 X96.58594 Y-110.50565
G01 X96.61815 Y-110.46447
G01 X96.58594 Y-110.50565
G01 X96.51350 Y-110.62096
G01 X96.47395 Y-110.71728
G01 X96.46158 Y-110.76325
G01 X96.45246 Y-110.82231
G01 X96.45061 Y-111.07260
G01 X96.45995 Y-111.15284
G01 X96.47862 Y-111.22129
G01 X96.53217 Y-111.24507
G01 X96.69399 Y-111.25007
G01 X97.01936 Y-111.24956
G01 X97.09648 Y-111.23884
G01 X97.14454 Y-111.22497
G01 X97.17494 Y-111.22497
G01 X97.26209 Y-111.23468
G01 X97.31604 Y-111.24997
G01 X99.41250 Y-111.25248
G01 X99.48903 Y-111.26554
G01 X99.56249 Y-111.28891
G01 X99.83109 Y-111.39995
G01 X100.06086 Y-111.39995
G01 X100.15499 Y-111.45218
G01 X100.28606 Y-111.50623
G01 X100.41024 Y-111.53750
G01 X100.48029 Y-111.54677
G01 X100.54996 Y-111.54997
G01 X101.24999 Y-111.54997
G01 X101.33625 Y-111.54514
G01 X101.40335 Y-111.53508
G01 X101.48438 Y-111.51504
G01 X101.55552 Y-111.49094
G01 X101.64519 Y-111.45208
G01 X101.72807 Y-111.40679
G01 X101.79873 Y-111.36066
G01 X101.90043 Y-111.28522
G01 X101.99500 Y-111.35667
G01 X102.05608 Y-111.39678
G01 X102.18610 Y-111.46666
G01 X102.24016 Y-111.48946
G01 X102.34587 Y-111.52350
G01 X102.44917 Y-111.54311
G01 X102.52034 Y-111.54893
G01 X103.27569 Y-111.54931
G01 X103.35717 Y-111.54253
G01 X103.47686 Y-111.51748
G01 X103.56974 Y-111.48568
G01 X103.66604 Y-111.44148
G01 X103.78570 Y-111.37003
G01 X103.75989 Y-111.20841
G01 X103.75011 Y-111.07600
G01 X103.74922 Y-110.23976
G01 X103.74335 Y-110.13943
G01 X103.70226 Y-110.03191
G01 X103.65821 Y-109.94852
G01 X103.65199 Y-109.88233
G01 X103.64963 Y-108.66719
G01 X103.64353 Y-108.59701
G01 X103.61915 Y-108.48119
G01 X103.56281 Y-108.34568
G01 X103.49121 Y-108.23661
G01 X103.45146 Y-108.19112
G01 X102.23048 Y-106.96946
G01 X102.16528 Y-106.91023
G01 X102.05441 Y-106.83677
G01 X101.97064 Y-106.80042
G01 X101.91813 Y-106.78081
G01 X101.77356 Y-106.75221
G01 X99.57288 Y-106.74972
G01 X99.50097 Y-106.74457
G01 X99.43112 Y-106.73451
G01 X99.40945 Y-106.73095
G01 X99.39635 Y-106.72115
G01 X99.32960 Y-106.66171
G01 X99.21436 Y-106.54957
G01 X99.05421 Y-106.43235
G01 X98.87892 Y-106.34368
G01 X98.75347 Y-106.30073
G01 X98.69206 Y-106.28346
G01 X98.62500 Y-106.27020
G01 X98.47255 Y-106.25097
G01 X98.30173 Y-106.25165
G01 X98.19041 Y-106.26273
G01 X98.11964 Y-106.26494
G01 X98.00836 Y-106.26138
G01 X97.82658 Y-106.23344
G01 X97.68670 Y-106.20258
G01 X97.59165 Y-106.27617
G01 X97.45729 Y-106.39280
G01 X97.33082 Y-106.51686
G01 X97.21606 Y-106.64360
G01 X97.33082 Y-106.51686
G01 X97.45729 Y-106.39280
G01 X97.59165 Y-106.27617
G01 X97.68670 Y-106.20258
G01 X97.70986 Y-106.07553
G01 X97.72950 Y-105.99633
G01 X97.80285 Y-105.81094
G01 X97.83928 Y-105.74858
G01 X97.90074 Y-105.66364
G01 X97.93933 Y-105.62161
G01 X103.10111 Y-100.45982
G01 X103.15567 Y-100.41260
G01 X103.23002 Y-100.35748
G01 X103.33538 Y-100.34976
G01 X103.49614 Y-100.34745
G01 X103.58859 Y-100.33566
G01 X103.69202 Y-100.31656
G01 X103.87889 Y-100.25619
G01 X104.04432 Y-100.17293
G01 X104.07236 Y-100.15515
G01 X104.20591 Y-100.05758
G01 X104.30132 Y-99.96625
G01 X104.35184 Y-99.91293
G01 X104.44010 Y-99.79442
G01 X104.49893 Y-99.69632
G01 X104.55681 Y-99.57915
G01 X104.61722 Y-99.39221
G01 X104.64775 Y-99.19818
G01 X104.64775 Y-99.00178
G01 X104.61739 Y-98.80770
G01 X104.55664 Y-98.62083
G01 X104.49301 Y-98.49239
G01 X104.43281 Y-98.39513
G01 X104.35181 Y-98.28705
G01 X104.18496 Y-98.12122
G01 X104.09560 Y-98.02264
G01 X104.02893 Y-97.93569
G01 X103.89979 Y-97.71936
G01 X103.67642 Y-97.68858
G01 X103.50144 Y-97.67697
G01 X103.39979 Y-97.67517
G01 X103.25501 Y-97.67885
G01 X103.04724 Y-97.69726
G01 X102.92375 Y-97.59744
G01 X102.66091 Y-97.42891
G01 X102.62728 Y-97.39762
G01 X101.37732 Y-96.14761
G01 X101.34638 Y-96.11373
G01 X101.30008 Y-96.03453
G01 X101.27681 Y-95.94581
G01 X101.27470 Y-85.78977
G01 X101.26815 Y-85.70864
G01 X101.25545 Y-85.63031
G01 X101.19652 Y-85.45248
G01 X101.11649 Y-85.28802
G01 X101.20996 Y-85.14593
G01 X101.28514 Y-85.06013
G01 X101.82263 Y-84.52264
G01 X101.89540 Y-84.45767
G01 X101.98590 Y-84.39160
G01 X102.05065 Y-84.35284
G01 X102.07976 Y-84.24113
G01 X102.10444 Y-84.16699
G01 X102.18852 Y-83.99968
G01 X102.23492 Y-83.93534
G01 X102.28763 Y-83.87334
G01 X102.80112 Y-83.35985
G01 X102.85560 Y-83.31264
G01 X102.93032 Y-83.25726
G01 X103.03368 Y-83.25074
G01 X103.19621 Y-83.24822
G01 X103.32375 Y-83.23014
G01 X103.39205 Y-83.21650
G01 X103.57912 Y-83.15676
G01 X103.67150 Y-83.11187
G01 X103.75356 Y-83.06656
G01 X103.91313 Y-82.95203
G01 X104.05212 Y-82.81319
G01 X104.16708 Y-82.65391
G01 X104.24813 Y-82.49735
G01 X104.29923 Y-82.35358
G01 X104.31681 Y-82.29211
G01 X104.33314 Y-82.20497
G01 X104.34737 Y-82.09816
G01 X104.35453 Y-81.97685
G01 X104.36690 Y-81.87997
G01 X104.39651 Y-81.75259
G01 X104.42791 Y-81.65343
G01 X104.46984 Y-81.54045
G01 X104.35557 Y-81.37009
G01 X104.25176 Y-81.23507
G01 X104.17226 Y-81.14215
G01 X104.02453 Y-80.98945
G01 X103.89944 Y-80.87693
G01 X103.79570 Y-80.79313
G01 X103.59591 Y-80.74749
G01 X103.44442 Y-80.72308
G01 X103.31232 Y-80.70891
G01 X103.08676 Y-80.70024
G01 X102.95468 Y-80.70428
G01 X102.78219 Y-80.71968
G01 X102.56119 Y-80.75610
G01 X102.42916 Y-80.78683
G01 X102.30749 Y-80.82194
G01 X102.17513 Y-80.74619
G01 X102.10526 Y-80.71432
G01 X101.94254 Y-80.66545
G01 X101.87267 Y-80.65541
G01 X101.80074 Y-80.65023
G01 X100.62106 Y-80.65023
G01 X100.57854 Y-80.65158
G01 X100.48314 Y-80.66471
G01 X100.41324 Y-80.68097
G01 X100.23612 Y-80.75158
G01 X100.19660 Y-80.77390
G01 X100.20013 Y-80.83961
G01 X100.21862 Y-80.97187
G01 X100.24224 Y-81.07020
G01 X100.31171 Y-81.28790
G01 X100.33513 Y-81.40756
G01 X100.34737 Y-81.50179
G01 X100.34788 Y-81.70029
G01 X100.31712 Y-81.89217
G01 X100.27554 Y-82.02612
G01 X100.22832 Y-82.13849
G01 X100.16711 Y-82.25391
G01 X100.13785 Y-82.29750
G01 X100.05212 Y-82.41320
G01 X99.98527 Y-82.48264
G01 X99.91286 Y-82.55173
G01 X99.87359 Y-82.58259
G01 X99.75393 Y-82.66714
G01 X99.69185 Y-82.70128
G01 X99.57915 Y-82.75683
G01 X99.44626 Y-82.80156
G01 X99.35764 Y-82.82409
G01 X99.19820 Y-82.84802
G01 X99.00176 Y-82.84799
G01 X98.80778 Y-82.81708
G01 X98.63526 Y-82.76666
G01 X98.50529 Y-82.73913
G01 X98.43044 Y-82.78632
G01 X98.31944 Y-82.87581
G01 X96.23659 Y-84.95866
G01 X96.15909 Y-85.05170
G01 X96.08297 Y-85.18241
G01 X96.05361 Y-85.25187
G01 X96.00067 Y-85.43701
G01 X95.89864 Y-85.49302
G01 X95.72793 Y-85.59983
G01 X95.62353 Y-85.65904
G01 X95.49229 Y-85.71751
G01 X95.35493 Y-85.76628
G01 X95.31993 Y-85.90026
G01 X95.27835 Y-86.02058
G01 X95.25089 Y-86.08459
G01 X95.16323 Y-86.24733
G01 X95.11208 Y-86.35213
G01 X95.05178 Y-86.53904
G01 X95.02132 Y-86.73305
G01 X95.01866 Y-86.83379
G01 X95.02384 Y-86.95560
G01 X95.05114 Y-87.12355
G01 X95.11256 Y-87.31014
G01 X95.20182 Y-87.48502
G01 X95.31675 Y-87.64427
G01 X95.45556 Y-87.78329
G01 X95.58068 Y-87.87567
G01 X95.68597 Y-87.93719
G01 X95.78985 Y-87.98733
G01 X95.96300 Y-88.05007
G01 X96.10938 Y-88.11821
G01 X96.13024 Y-88.19421
G01 X96.14438 Y-88.26409
G01 X96.15287 Y-88.40953
G01 X96.14639 Y-88.48471
G01 X96.10354 Y-88.57158
G01 X96.07718 Y-88.64509
G01 X96.03842 Y-88.80389
G01 X95.99486 Y-88.93767
G01 X95.89303 Y-88.97076
G01 X95.77426 Y-88.99441
G01 X95.69300 Y-88.99939
G01 X93.94977 Y-88.99939
G01 X93.80794 Y-88.98415
G01 X93.63621 Y-88.93122
G01 X93.55681 Y-88.79962
G01 X91.53266 Y-88.79962
G01 X91.47881 Y-88.94661
G01 X91.46797 Y-89.09446
G01 X91.45786 Y-89.15481
G01 X91.43548 Y-89.24326
G01 X91.39090 Y-89.35288
G01 X91.30789 Y-89.50058
G01 X91.39090 Y-89.35288
G01 X91.43548 Y-89.24326
G01 X91.45786 Y-89.15481
G01 X91.46797 Y-89.09446
G01 X91.47881 Y-88.94661
G01 X91.53266 Y-88.79962
G01 X93.55681 Y-88.79962
G01 X93.57205 Y-88.68032
G01 X93.57550 Y-88.59964
G01 X93.57550 Y-87.89965
G01 X93.57230 Y-87.85055
G01 X93.54602 Y-87.77907
G01 X93.50311 Y-87.72177
G01 X93.44579 Y-87.67887
G01 X93.37434 Y-87.65258
G01 X93.32526 Y-87.64938
G01 X92.89974 Y-87.64938
G01 X92.82778 Y-87.64420
G01 X92.75790 Y-87.63417
G01 X92.59133 Y-87.58354
G01 X92.56669 Y-87.51753
G01 X92.53405 Y-87.38164
G01 X92.52839 Y-87.32891
G01 X92.52549 Y-87.27514
G01 X92.52549 Y-86.44964
G01 X92.52229 Y-86.40051
G01 X92.49667 Y-86.33051
G01 X92.36829 Y-86.19526
G01 X92.27525 Y-86.12693
G01 X92.19268 Y-86.05820
G01 X92.03731 Y-85.90605
G01 X92.19268 Y-86.05820
G01 X92.27525 Y-86.12693
G01 X92.36829 Y-86.19526
G01 X92.49667 Y-86.33051
G01 X92.52229 Y-86.40051
G01 X92.52549 Y-86.44964
G01 X92.52549 Y-87.27514
G01 X92.52839 Y-87.32891
G01 X92.53405 Y-87.38164
G01 X92.56669 Y-87.51753
G01 X92.59133 Y-87.58354
G01 X92.52521 Y-87.64963
G01 X92.40022 Y-87.74339
G01 X92.27525 Y-87.77465
G01 X91.72524 Y-87.77465
G01 X91.60025 Y-87.80589
G01 X91.47526 Y-87.89965
G01 X91.40919 Y-87.96571
G01 X91.24257 Y-87.91512
G01 X91.17269 Y-87.90506
G01 X91.10073 Y-87.89990
G01 X90.77526 Y-87.89990
G01 X90.72347 Y-87.89627
G01 X90.62649 Y-87.85809
G01 X90.49771 Y-87.79142
G01 X90.33866 Y-87.69226
G01 X90.49771 Y-87.79142
G01 X90.62649 Y-87.85809
G01 X90.72347 Y-87.89627
G01 X90.77526 Y-87.89990
G01 X91.10073 Y-87.89990
G01 X91.17269 Y-87.90506
G01 X91.24257 Y-87.91512
G01 X91.40919 Y-87.96571
G01 X91.43383 Y-88.03180
G01 X91.46644 Y-88.16762
G01 X91.47211 Y-88.22035
G01 X91.47820 Y-88.64872
G01 X91.50492 Y-88.73124
G01 X91.53266 Y-88.79962
G01 X91.47881 Y-88.94661
G01 X91.46797 Y-89.09446
G01 X91.45786 Y-89.15481
G01 X91.43548 Y-89.24326
G01 X91.39090 Y-89.35288
G01 X91.30789 Y-89.50058
G01 X91.39032 Y-89.69962
G01 X91.44719 Y-89.80808
G01 X91.52098 Y-89.89962
G01 X95.89013 Y-89.89987
G01 X96.10446 Y-90.04879
G01 X96.30334 Y-90.20150
G01 X96.39628 Y-90.26200
G01 X96.50247 Y-90.31724
G01 X97.89968 Y-90.32202
G01 X97.89998 Y-91.98389
G01 X97.79549 Y-92.06362
G01 X97.70666 Y-92.11932
G01 X97.61581 Y-92.16575
G01 X97.55477 Y-92.19141
G01 X97.42030 Y-92.23144
G01 X97.32439 Y-92.24625
G01 X97.25497 Y-92.24993
G01 X96.51324 Y-92.24896
G01 X96.44388 Y-92.24267
G01 X96.26082 Y-92.21310
G01 X96.13643 Y-92.20070
G01 X96.26082 Y-92.21310
G01 X96.44388 Y-92.24267
G01 X96.53460 Y-92.24973
G01 X97.25497 Y-92.24993
G01 X97.35927 Y-92.24213
G01 X97.42030 Y-92.23144
G01 X97.50996 Y-92.20738
G01 X97.61581 Y-92.16575
G01 X97.66590 Y-92.14157
G01 X97.75472 Y-92.09042
G01 X97.89998 Y-91.98389
G01 X97.89968 Y-90.32202
G01 X97.90852 Y-90.31285
G01 X97.90681 Y-87.46929
G01 X97.90278 Y-87.34852
G01 X97.88408 Y-87.17115
G01 X97.86861 Y-87.08057
G01 X97.83585 Y-86.93668
G01 X97.83648 Y-86.92116
G01 X97.69777 Y-86.78042
G01 X97.56841 Y-86.61514
G01 X97.49381 Y-86.49876
G01 X97.39531 Y-86.29073
G01 X97.33559 Y-86.17595
G01 X97.22086 Y-86.01801
G01 X97.08164 Y-85.87938
G01 X96.92277 Y-85.76391
G01 X96.74756 Y-85.67524
G01 X96.64294 Y-85.63851
G01 X96.56077 Y-85.61479
G01 X96.37362 Y-85.57880
G01 X96.24164 Y-85.54359
G01 X96.12727 Y-85.49734
G01 X96.00067 Y-85.43701
G01 X95.89864 Y-85.49302
G01 X95.72793 Y-85.59983
G01 X95.62353 Y-85.65904
G01 X95.49229 Y-85.71751
G01 X95.35493 Y-85.76628
G01 X95.19973 Y-85.68505
G01 X95.03377 Y-85.63122
G01 X94.96389 Y-85.61964
G01 X94.88099 Y-85.61278
G01 X92.64609 Y-85.61487
G01 X92.54447 Y-85.63054
G01 X92.47462 Y-85.64837
G01 X92.29303 Y-85.72541
G01 X92.22316 Y-85.76688
G01 X92.03731 Y-85.90605
G01 X90.76972 Y-85.90608
G01 X90.54823 Y-86.03158
G01 X90.37244 Y-86.20275
G01 X90.33761 Y-86.44964
G01 X90.33866 Y-87.69226
G01 X90.24625 Y-87.84814
G01 X90.21432 Y-87.91799
G01 X90.16545 Y-88.08080
G01 X90.15539 Y-88.15065
G01 X90.15024 Y-88.22573
G01 X90.15166 Y-88.45375
G01 X90.16642 Y-88.57257
G01 X90.21257 Y-88.63432
G01 X90.25984 Y-88.68890
G01 X90.83611 Y-89.26518
G01 X90.88161 Y-89.30546
G01 X90.92852 Y-89.34224
G01 X91.00180 Y-89.39060
G01 X91.10279 Y-89.43873
G01 X91.15466 Y-89.45837
G01 X91.30789 Y-89.50058
G01 X91.39032 Y-89.69962
G01 X91.44719 Y-89.80808
G01 X91.52098 Y-89.89962
G01 X95.89013 Y-89.89987
G01 X96.10446 Y-90.04879
G01 X96.30334 Y-90.20150
G01 X96.39628 Y-90.26200
G01 X96.50247 Y-90.31724
G01 X97.89968 Y-90.32202
G01 X97.90852 Y-90.31285
G01 X97.90681 Y-87.46929
G01 X97.90278 Y-87.34852
G01 X97.88408 Y-87.17115
G01 X97.86861 Y-87.08057
G01 X97.83585 Y-86.93668
G01 X97.83648 Y-86.92116
G01 X97.90514 Y-86.84202
G01 X98.06059 Y-86.60714
G01 X98.09249 Y-86.53727
G01 X98.14138 Y-86.37443
G01 X98.15144 Y-86.30453
G01 X98.15937 Y-86.11951
G01 X98.16775 Y-86.06539
G01 X98.18812 Y-85.97511
G01 X98.22091 Y-85.88990
G01 X98.24466 Y-85.83920
G01 X98.29538 Y-85.75883
G01 X98.32645 Y-85.71682
G01 X98.37631 Y-85.66262
G01 X101.77630 Y-82.25955
G01 X101.84125 Y-82.16958
G01 X101.84775 Y-82.10710
G01 X101.85268 Y-81.90177
G01 X101.86309 Y-81.81886
G01 X101.88791 Y-81.68914
G01 X101.94315 Y-81.52082
G01 X102.03292 Y-81.34609
G01 X102.13876 Y-81.19377
G01 X102.20386 Y-81.08206
G01 X102.24242 Y-80.99621
G01 X102.30749 Y-80.82194
G01 X102.17513 Y-80.74619
G01 X102.10526 Y-80.71432
G01 X101.94254 Y-80.66545
G01 X101.80074 Y-80.65023
G01 X100.57854 Y-80.65158
G01 X100.48314 Y-80.66471
G01 X100.41324 Y-80.68097
G01 X100.23612 Y-80.75158
G01 X100.19660 Y-80.77390
G01 X100.04864 Y-80.70479
G01 X99.92672 Y-80.65554
G01 X99.77425 Y-80.60347
G01 X99.62799 Y-80.56349
G01 X99.48644 Y-80.53403
G01 X99.39327 Y-80.51957
G01 X99.29970 Y-80.50916
G01 X99.14672 Y-80.50050
G01 X98.98662 Y-80.50294
G01 X98.83287 Y-80.51632
G01 X98.67395 Y-80.54139
G01 X98.58756 Y-80.55971
G01 X98.47311 Y-80.58950
G01 X98.30534 Y-80.64355
G01 X98.13201 Y-80.71305
G01 X98.01294 Y-80.76872
G01 X98.00537 Y-80.77233
G01 X97.99201 Y-80.90568
G01 X97.96864 Y-81.02928
G01 X97.88307 Y-81.30672
G01 X97.85213 Y-81.50174
G01 X97.85137 Y-81.68780
G01 X97.86612 Y-81.80118
G01 X97.88248 Y-81.89229
G01 X97.92218 Y-82.02150
G01 X97.96099 Y-82.19392
G01 X97.90770 Y-82.27850
G01 X97.82411 Y-82.38048
G01 X96.73910 Y-83.46552
G01 X96.62805 Y-83.55503
G01 X96.47845 Y-83.63555
G01 X96.40646 Y-83.66239
G01 X96.25239 Y-83.70372
G01 X96.40646 Y-83.66239
G01 X96.47845 Y-83.63555
G01 X96.62805 Y-83.55503
G01 X96.73910 Y-83.46552
G01 X97.82411 Y-82.38048
G01 X97.90770 Y-82.27850
G01 X97.96099 Y-82.19392
G01 X97.92218 Y-82.02150
G01 X97.88248 Y-81.89229
G01 X97.86612 Y-81.80118
G01 X97.85193 Y-81.69821
G01 X97.85010 Y-81.56306
G01 X97.85548 Y-81.47177
G01 X97.87702 Y-81.33606
G01 X97.89993 Y-81.24749
G01 X97.94329 Y-81.11841
G01 X97.96864 Y-81.02928
G01 X97.99201 Y-80.90568
G01 X98.00537 Y-80.77233
G01 X97.88334 Y-80.71427
G01 X97.72071 Y-80.66545
G01 X97.65083 Y-80.65541
G01 X97.57888 Y-80.65023
G01 X96.70006 Y-80.65023
G01 X96.64687 Y-80.65237
G01 X96.55175 Y-80.66641
G01 X96.48998 Y-80.71259
G01 X96.43544 Y-80.75983
G01 X96.17362 Y-81.02468
G01 X96.11642 Y-81.10172
G01 X96.10540 Y-81.17810
G01 X96.10024 Y-81.25008
G01 X96.10024 Y-83.20090
G01 X96.10679 Y-83.28203
G01 X96.11949 Y-83.36034
G01 X96.17837 Y-83.53803
G01 X96.25239 Y-83.70372
G01 X96.17705 Y-83.81205
G01 X96.09986 Y-83.90006
G01 X95.23232 Y-84.76729
G01 X94.59166 Y-85.03257
G01 X94.52356 Y-85.05287
G01 X94.45435 Y-85.06181
G01 X90.49334 Y-85.06272
G01 X90.42375 Y-85.07082
G01 X90.36169 Y-85.12109
G01 X89.65176 Y-85.83135
G01 X89.60790 Y-85.88606
G01 X89.59997 Y-85.96564
G01 X89.59997 Y-88.72438
G01 X89.60480 Y-88.78311
G01 X89.61336 Y-88.82565
G01 X89.63431 Y-88.89007
G01 X90.06322 Y-89.92527
G01 X91.02441 Y-90.88625
G01 X91.20645 Y-90.95293
G01 X91.28021 Y-90.97226
G01 X91.32217 Y-90.99961
G01 X93.55800 Y-90.99961
G01 X93.63596 Y-90.86774
G01 X93.70733 Y-90.84109
G01 X93.84314 Y-90.80845
G01 X93.89588 Y-90.80279
G01 X93.94977 Y-90.79989
G01 X95.64954 Y-90.79989
G01 X95.72147 Y-90.80505
G01 X95.79785 Y-90.81607
G01 X95.87504 Y-90.87338
G01 X95.94009 Y-90.93543
G01 X95.98731 Y-90.98994
G01 X96.03374 Y-91.05204
G01 X96.04776 Y-91.14686
G01 X96.04990 Y-91.20007
G01 X96.05043 Y-91.88717
